; generated by Slic3r 0.7.3-dev on 2012-05-13 at 15:30:21

; layer_height = 0.4
; perimeters = 2
; solid_layers = 3
; fill_density = 0.15
; nozzle_diameter = 0.5
; filament_diameter = 3
; extrusion_multiplier = 1.02
; perimeter_speed = 30
; infill_speed = 40
; travel_speed = 70
; extrusion_width_ratio = 0
; scale = 1
; single wall width = 0.53mm

M104 S200 ; set temperature
M106
M104 S230
G28
M140 S60
G1 X205 Y105 F2000
M109 S230
G92 E0
G1 E5 F50
G1 X205 Y90 F2000
G90 ; use absolute coordinates
G21 ; set units to millimeters
G92 E0 ; reset extrusion distance
M82 ; use absolute distances for extrusion
G1 Z0.400 F4200.000
G1 X59.305 Y90.242
G1 F1800.000 E1.00000
G1 X61.575 Y88.422 F900.000 E1.08727
G1 X61.825 Y88.252 E1.09633
G1 X62.345 Y87.952 E1.11434
G1 X62.895 Y87.702 E1.13246
G1 X65.315 Y86.762 E1.21033
G1 X65.605 Y86.672 E1.21944
G1 X66.195 Y86.542 E1.23756
G1 X69.555 Y86.282 E1.33864
G1 X132.045 Y86.302 E3.21292
G1 X132.575 Y86.372 E3.22896
G1 X135.395 Y87.012 E3.31569
G1 X135.965 Y87.202 E3.33371
G1 X136.515 Y87.452 E3.35183
G1 X139.035 Y88.912 E3.43919
G1 X139.285 Y89.082 E3.44825
G1 X139.745 Y89.452 E3.46596
G1 X139.965 Y89.652 E3.47488
G1 X141.935 Y91.782 E3.56190
G1 X142.125 Y92.012 E3.57085
G1 X142.465 Y92.512 E3.58898
G1 X142.615 Y92.762 E3.59773
G1 X143.875 Y95.382 E3.68492
G1 X143.985 Y95.662 E3.69395
G1 X144.165 Y96.232 E3.71188
G1 X144.655 Y99.402 E3.80808
G1 X144.685 Y99.992 E3.82580
G1 X144.655 Y100.582 E3.84352
G1 X144.275 Y103.152 E3.92144
G1 X144.275 Y103.162 E3.92174
G1 X144.165 Y103.752 E3.93974
G1 X143.985 Y104.322 E3.95767
G1 X142.615 Y107.222 E4.05387
G1 X142.305 Y107.732 E4.07177
G1 X141.935 Y108.212 E4.08995
G1 X139.965 Y110.342 E4.17697
G1 X139.515 Y110.742 E4.19503
G1 X139.025 Y111.092 E4.21309
G1 X136.505 Y112.532 E4.30014
G1 X135.965 Y112.782 E4.31799
G1 X135.685 Y112.882 E4.32691
G1 X132.865 Y113.562 E4.41392
G1 X132.055 Y113.692 E4.43852
G1 X131.515 Y113.712 E4.45473
G1 X69.095 Y113.692 E6.32692
G1 X66.465 Y113.482 E6.40605
G1 X66.175 Y113.442 E6.41483
G1 X65.885 Y113.382 E6.42372
G1 X65.315 Y113.222 E6.44147
G1 X62.615 Y112.162 E6.52847
G1 X62.345 Y112.032 E6.53746
G1 X61.825 Y111.732 E6.55547
G1 X61.335 Y111.382 E6.57353
G1 X59.535 Y109.942 E6.64267
G1 X58.885 Y109.332 E6.66940
G1 X58.505 Y108.882 E6.68707
G1 X56.865 Y106.492 E6.77401
G1 X56.715 Y106.232 E6.78301
G1 X56.455 Y105.692 E6.80098
G1 X56.345 Y105.412 E6.81001
G1 X55.495 Y102.632 E6.89720
G1 X55.425 Y102.342 E6.90615
G1 X55.335 Y101.752 E6.92405
G1 X55.315 Y98.542 E7.02033
G1 X55.335 Y98.242 E7.02935
G1 X55.425 Y97.652 E7.04725
G1 X56.345 Y94.592 E7.14309
G1 X56.575 Y94.042 E7.16097
G1 X56.865 Y93.512 E7.17909
G1 X58.495 Y91.112 E7.26610
G1 X58.885 Y90.652 E7.28419
G1 X59.248 Y90.297 E7.29943
G1 F1800.000 E6.29943
G92 E0
G1 X63.321 Y96.666 F4200.000
G1 F1800.000 E1.00000
G1 X66.890 Y96.666 F900.000 E1.10705
G1 X66.890 Y97.802 E1.14112
G1 X67.435 Y97.367 E1.16204
G1 X68.279 Y97.036 E1.18922
G1 X69.183 Y96.968 E1.21641
G1 X70.066 Y97.170 E1.24359
G1 X70.851 Y97.623 E1.27078
G1 X71.468 Y98.287 E1.29796
G1 X71.861 Y99.104 E1.32514
G1 X71.996 Y100.000 E1.35233
G1 X71.861 Y100.896 E1.37951
G1 X71.468 Y101.713 E1.40670
G1 X70.851 Y102.377 E1.43388
G1 X70.066 Y102.830 E1.46106
G1 X69.183 Y103.032 E1.48825
G1 X68.279 Y102.964 E1.51543
G1 X67.435 Y102.633 E1.54262
G1 X66.890 Y102.198 E1.56353
G1 X66.890 Y103.334 E1.59761
G1 X63.321 Y103.334 E1.70466
G1 X63.321 Y96.744 E1.90232
G1 F1800.000 E0.90232
G92 E0
G1 X127.949 Y99.547 F4200.000
G1 F1800.000 E1.00000
G1 X128.216 Y98.681 F900.000 E1.02718
G1 X128.726 Y97.932 E1.05437
G1 X129.435 Y97.367 E1.08155
G1 X130.279 Y97.036 E1.10874
G1 X131.183 Y96.968 E1.13592
G1 X132.066 Y97.170 E1.16310
G1 X132.851 Y97.623 E1.19029
G1 X133.021 Y97.806 E1.19777
G1 X133.021 Y96.666 E1.23198
G1 X136.590 Y96.666 E1.33902
G1 X136.590 Y103.334 E1.53905
G1 X133.021 Y103.334 E1.64609
G1 X133.021 Y102.194 E1.68029
G1 X132.851 Y102.377 E1.68778
G1 X132.066 Y102.830 E1.71496
G1 X131.183 Y103.032 E1.74215
G1 X130.279 Y102.964 E1.76933
G1 X129.435 Y102.633 E1.79652
G1 X128.726 Y102.068 E1.82370
G1 X128.216 Y101.319 E1.85088
G1 X127.949 Y100.453 E1.87807
G1 X127.949 Y99.626 E1.90289
G1 F1800.000 E0.90289
G92 E0
G1 X137.105 Y96.330 F4200.000
G1 F1800.000 E1.00000
G1 X137.848 Y97.874 F900.000 E1.05139
G1 X138.169 Y100.000 E1.11588
G1 X137.848 Y102.126 E1.18038
G1 X137.105 Y103.670 E1.23176
G1 X137.105 Y96.409 E1.44955
G1 F1800.000 E0.44955
G92 E0
G1 X62.806 Y96.358 F4200.000
G1 F1800.000 E1.00000
G1 X62.806 Y103.642 F900.000 E1.21850
G1 X62.456 Y103.130 E1.23711
G1 X61.822 Y101.075 E1.30160
G1 X61.822 Y98.925 E1.36610
G1 X62.456 Y96.870 E1.43059
G1 X62.761 Y96.423 E1.44684
G1 X62.947 Y96.150 F4200.000
G1 X63.667 Y95.094 F900.000 E1.48520
G1 X65.349 Y93.753 E1.54969
G1 X67.350 Y92.967 E1.61419
G1 X69.582 Y92.800 E1.68132
G1 X131.466 Y92.800 E3.53741
G1 X133.591 Y93.285 E3.60279
G1 X135.453 Y94.360 E3.66729
G1 X136.915 Y95.936 E3.73178
G1 X137.018 Y96.150 E3.73890
G1 X132.506 Y96.150 E3.87425
G1 X132.506 Y96.829 E3.89459
G1 X132.257 Y96.685 E3.90322
G1 X131.221 Y96.448 E3.93507
G1 X130.163 Y96.528 E3.96691
G1 X129.175 Y96.916 E3.99875
G1 X128.345 Y97.578 E4.03059
G1 X127.747 Y98.455 E4.06243
G1 X127.434 Y99.469 E4.09427
G1 X127.434 Y100.531 E4.12612
G1 X127.747 Y101.545 E4.15796
G1 X128.345 Y102.422 E4.18980
G1 X129.175 Y103.084 E4.22164
G1 X130.163 Y103.472 E4.25348
G1 X131.221 Y103.552 E4.28533
G1 X132.257 Y103.315 E4.31717
G1 X132.506 Y103.171 E4.32580
G1 X132.506 Y103.850 E4.34614
G1 X137.018 Y103.850 E4.48149
G1 X136.915 Y104.064 E4.48861
G1 X135.453 Y105.640 E4.55310
G1 X133.591 Y106.715 E4.61760
G1 X131.466 Y107.200 E4.68298
G1 X69.582 Y107.200 E6.53907
G1 X67.350 Y107.033 E6.60621
G1 X65.349 Y106.247 E6.67070
G1 X63.667 Y104.906 E6.73519
G1 X62.947 Y103.850 E6.77355
G1 X67.405 Y103.850 E6.90727
G1 X67.405 Y103.175 E6.92751
G1 X68.163 Y103.472 E6.95193
G1 X69.221 Y103.552 E6.98377
G1 X70.256 Y103.315 E7.01561
G1 X71.176 Y102.785 E7.04745
G1 X71.898 Y102.006 E7.07929
G1 X72.359 Y101.050 E7.11114
G1 X72.517 Y100.000 E7.14298
G1 X72.359 Y98.950 E7.17482
G1 X71.898 Y97.994 E7.20666
G1 X71.176 Y97.215 E7.23851
G1 X70.256 Y96.685 E7.27035
G1 X69.221 Y96.448 E7.30219
G1 X68.163 Y96.528 E7.33403
G1 X67.405 Y96.825 E7.35845
G1 X67.405 Y96.150 E7.37869
G1 X63.026 Y96.150 E7.51004
G1 X61.987 Y96.644 F4200.000
G1 X63.286 Y94.739 F900.000 E7.57919
G1 X65.088 Y93.302 E7.64834
G1 X67.234 Y92.459 E7.71749
G1 X69.563 Y92.285 E7.78754
G1 X131.524 Y92.285 E9.64595
G1 X133.781 Y92.800 E9.71540
G1 X135.778 Y93.953 E9.78455
G1 X137.346 Y95.643 E9.85370
G1 X138.346 Y97.720 E9.92285
G1 X138.690 Y100.000 E9.99200
G1 X138.346 Y102.280 E10.06116
G1 X137.346 Y104.357 E10.13031
G1 X135.778 Y106.047 E10.19946
G1 X133.781 Y107.200 E10.26861
G1 X131.524 Y107.715 E10.33806
G1 X69.563 Y107.715 E12.19647
G1 X67.234 Y107.541 E12.26651
G1 X65.088 Y106.698 E12.33567
G1 X63.286 Y105.261 E12.40482
G1 X61.987 Y103.356 E12.47397
G1 X61.307 Y101.153 E12.54312
G1 X61.307 Y98.847 E12.61227
G1 X61.964 Y96.719 E12.67906
G1 F1800.000 E11.67906
G92 E0
G1 X66.457 Y99.314 F4200.000
G1 F1800.000 E1.00000
G1 X66.470 Y99.141 F900.000 E1.00519
G1 F1800.000 E0.00519
G92 E0
G1 X133.451 Y99.373 F4200.000
G1 F1800.000 E1.00000
G1 X133.468 Y99.356 F900.000 E1.00071
G1 X133.494 Y95.784 F4200.000
G1 X130.877 Y93.167 F1050.000 E1.11293
G1 X130.143 Y93.167 F4200.000
G1 X132.760 Y95.784 F1050.000 E1.22514
G1 X132.139 Y95.897 F4200.000
G1 X129.409 Y93.167 F1050.000 E1.34219
G1 X128.675 Y93.167 F4200.000
G1 X131.638 Y96.130 F1050.000 E1.46925
G1 X130.892 Y96.116 F4200.000
G1 X127.942 Y93.166 F1050.000 E1.59573
G1 X127.208 Y93.167 F4200.000
G1 X130.209 Y96.167 F1050.000 E1.72440
G1 X129.679 Y96.371 F4200.000
G1 X126.475 Y93.167 F1050.000 E1.86180
G1 X125.741 Y93.167 F4200.000
G1 X129.152 Y96.578 F1050.000 E2.00807
G1 X128.723 Y96.884 F4200.000
G1 X125.007 Y93.167 F1050.000 E2.16744
G1 X124.274 Y93.166 F4200.000
G1 X128.316 Y97.209 F1050.000 E2.34076
G1 X127.963 Y97.589 F4200.000
G1 X123.540 Y93.167 F1050.000 E2.53042
G1 X122.806 Y93.167 F4200.000
G1 X127.665 Y98.026 F1050.000 E2.73878
G1 X127.392 Y98.486 F4200.000
G1 X122.072 Y93.167 F1050.000 E2.96689
G1 X121.338 Y93.167 F4200.000
G1 X127.219 Y99.047 F1050.000 E3.21904
G1 X127.067 Y99.628 F4200.000
G1 X120.605 Y93.166 F1050.000 E3.49613
G1 X119.871 Y93.167 F4200.000
G1 X127.067 Y100.362 F1050.000 E3.80468
G1 X127.218 Y101.247 F4200.000
G1 X119.138 Y93.167 F1050.000 E4.15118
G1 X118.404 Y93.167 F4200.000
G1 X128.001 Y102.764 F1050.000 E4.56273
G1 X128.068 Y102.831 F4200.000
G1 X131.974 Y106.737 F1050.000 E4.73025
G1 X132.572 Y106.601 F4200.000
G1 X129.741 Y103.770 F1050.000 E4.85166
G1 X130.588 Y103.883 F4200.000
G1 X133.169 Y106.465 F1050.000 E4.96236
G1 X133.719 Y106.280 F4200.000
G1 X131.315 Y103.876 F1050.000 E5.06545
G1 X132.388 Y104.217 F4200.000
G1 X134.183 Y106.012 F1050.000 E5.14244
G1 X134.649 Y105.743 F4200.000
G1 X133.122 Y104.217 F1050.000 E5.20790
G1 X133.856 Y104.217 F4200.000
G1 X135.114 Y105.475 F1050.000 E5.26185
G1 X135.506 Y105.133 F4200.000
G1 X134.589 Y104.216 F1050.000 E5.30117
G1 X135.323 Y104.216 F4200.000
G1 X135.860 Y104.753 F1050.000 E5.32419
G1 X131.337 Y106.834 F4200.000
G1 X117.670 Y93.167 F1050.000 E5.91022
G1 X116.937 Y93.166 F4200.000
G1 X130.603 Y106.833 F1050.000 E6.49625
G1 X129.869 Y106.833 F4200.000
G1 X116.203 Y93.167 F1050.000 E7.08227
G1 X115.469 Y93.167 F4200.000
G1 X129.136 Y106.834 F1050.000 E7.66832
G1 X128.402 Y106.834 F4200.000
G1 X114.735 Y93.167 F1050.000 E8.25436
G1 X114.001 Y93.167 F4200.000
G1 X127.668 Y106.834 F1050.000 E8.84040
G1 X126.935 Y106.833 F4200.000
G1 X113.268 Y93.166 F1050.000 E9.42643
G1 X112.534 Y93.167 F4200.000
G1 X126.201 Y106.833 F1050.000 E10.01245
G1 X125.468 Y106.834 F4200.000
G1 X111.801 Y93.167 F1050.000 E10.59850
G1 X111.067 Y93.167 F4200.000
G1 X124.734 Y106.834 F1050.000 E11.18454
G1 X124.000 Y106.834 F4200.000
G1 X110.333 Y93.167 F1050.000 E11.77058
G1 X109.600 Y93.166 F4200.000
G1 X123.266 Y106.833 F1050.000 E12.35661
G1 X122.533 Y106.833 F4200.000
G1 X108.866 Y93.167 F1050.000 E12.94264
G1 X108.132 Y93.167 F4200.000
G1 X121.799 Y106.833 F1050.000 E13.52867
G1 X121.065 Y106.833 F4200.000
G1 X107.398 Y93.167 F1050.000 E14.11471
G1 X106.665 Y93.167 F4200.000
G1 X120.331 Y106.834 F1050.000 E14.70074
G1 X119.598 Y106.833 F4200.000
G1 X105.931 Y93.166 F1050.000 E15.28677
G1 X105.198 Y93.167 F4200.000
G1 X118.864 Y106.833 F1050.000 E15.87280
G1 X118.130 Y106.833 F4200.000
G1 X104.464 Y93.167 F1050.000 E16.45884
G1 X103.730 Y93.167 F4200.000
G1 X117.396 Y106.833 F1050.000 E17.04487
G1 X116.663 Y106.834 F4200.000
G1 X102.996 Y93.167 F1050.000 E17.63090
G1 X102.263 Y93.166 F4200.000
G1 X115.929 Y106.833 F1050.000 E18.21693
G1 X115.196 Y106.833 F4200.000
G1 X101.529 Y93.167 F1050.000 E18.80297
G1 X100.795 Y93.167 F4200.000
G1 X114.462 Y106.833 F1050.000 E19.38900
G1 X113.728 Y106.833 F4200.000
G1 X100.061 Y93.167 F1050.000 E19.97503
G1 X99.328 Y93.167 F4200.000
G1 X112.994 Y106.834 F1050.000 E20.56106
G1 X112.261 Y106.833 F4200.000
G1 X98.594 Y93.166 F1050.000 E21.14710
G1 X97.861 Y93.167 F4200.000
G1 X111.527 Y106.833 F1050.000 E21.73313
G1 X110.793 Y106.833 F4200.000
G1 X97.127 Y93.167 F1050.000 E22.31916
G1 X96.393 Y93.167 F4200.000
G1 X110.059 Y106.833 F1050.000 E22.90519
G1 X109.326 Y106.834 F4200.000
G1 X95.659 Y93.167 F1050.000 E23.49123
G1 X94.926 Y93.166 F4200.000
G1 X108.593 Y106.833 F1050.000 E24.07726
G1 X107.859 Y106.833 F4200.000
G1 X94.192 Y93.167 F1050.000 E24.66329
G1 X93.458 Y93.167 F4200.000
G1 X107.125 Y106.833 F1050.000 E25.24932
G1 X106.391 Y106.833 F4200.000
G1 X92.724 Y93.167 F1050.000 E25.83536
G1 X91.991 Y93.167 F4200.000
G1 X105.657 Y106.834 F1050.000 E26.42139
G1 X104.924 Y106.833 F4200.000
G1 X91.258 Y93.166 F1050.000 E27.00742
G1 X90.524 Y93.167 F4200.000
G1 X104.190 Y106.833 F1050.000 E27.59345
G1 X103.456 Y106.833 F4200.000
G1 X89.790 Y93.167 F1050.000 E28.17949
G1 X89.056 Y93.167 F4200.000
G1 X102.723 Y106.833 F1050.000 E28.76552
G1 X101.989 Y106.834 F4200.000
G1 X88.322 Y93.167 F1050.000 E29.35155
G1 X87.589 Y93.166 F4200.000
G1 X101.256 Y106.833 F1050.000 E29.93758
G1 X100.522 Y106.833 F4200.000
G1 X86.855 Y93.167 F1050.000 E30.52362
G1 X86.121 Y93.167 F4200.000
G1 X99.788 Y106.833 F1050.000 E31.10965
G1 X99.054 Y106.833 F4200.000
G1 X85.388 Y93.167 F1050.000 E31.69568
G1 X84.654 Y93.167 F4200.000
G1 X98.320 Y106.834 F1050.000 E32.28172
G1 X97.587 Y106.833 F4200.000
G1 X83.921 Y93.166 F1050.000 E32.86776
G1 X83.187 Y93.167 F4200.000
G1 X96.853 Y106.833 F1050.000 E33.45379
G1 X96.120 Y106.833 F4200.000
G1 X82.453 Y93.167 F1050.000 E34.03983
G1 X81.719 Y93.167 F4200.000
G1 X95.386 Y106.833 F1050.000 E34.62586
G1 X94.652 Y106.834 F4200.000
G1 X80.985 Y93.167 F1050.000 E35.21190
G1 X80.252 Y93.166 F4200.000
G1 X93.919 Y106.833 F1050.000 E35.79793
G1 X93.185 Y106.833 F4200.000
G1 X79.518 Y93.167 F1050.000 E36.38397
G1 X78.784 Y93.167 F4200.000
G1 X92.451 Y106.833 F1050.000 E36.97000
G1 X91.717 Y106.833 F4200.000
G1 X78.051 Y93.167 F1050.000 E37.55604
G1 X77.317 Y93.167 F4200.000
G1 X90.983 Y106.834 F1050.000 E38.14207
G1 X90.250 Y106.833 F4200.000
G1 X76.584 Y93.166 F1050.000 E38.72811
G1 X75.850 Y93.167 F4200.000
G1 X89.516 Y106.833 F1050.000 E39.31415
G1 X88.783 Y106.833 F4200.000
G1 X75.116 Y93.167 F1050.000 E39.90018
G1 X74.382 Y93.167 F4200.000
G1 X88.049 Y106.833 F1050.000 E40.48622
G1 X87.315 Y106.834 F4200.000
G1 X73.648 Y93.167 F1050.000 E41.07225
G1 X72.915 Y93.166 F4200.000
G1 X86.582 Y106.833 F1050.000 E41.65829
G1 X85.848 Y106.833 F4200.000
G1 X72.181 Y93.167 F1050.000 E42.24432
G1 X71.447 Y93.167 F4200.000
G1 X85.114 Y106.833 F1050.000 E42.83036
G1 X84.380 Y106.833 F4200.000
G1 X70.714 Y93.167 F1050.000 E43.41639
G1 X69.980 Y93.167 F4200.000
G1 X83.646 Y106.834 F1050.000 E44.00243
G1 X82.913 Y106.833 F4200.000
G1 X69.261 Y93.181 F1050.000 E44.58785
G1 X68.578 Y93.232 F4200.000
G1 X82.179 Y106.833 F1050.000 E45.17107
G1 X81.446 Y106.833 F4200.000
G1 X72.195 Y97.582 F1050.000 E45.56776
G1 X71.460 Y96.847 F4200.000
G1 X67.896 Y93.283 F1050.000 E45.72058
G1 X67.237 Y93.359 F4200.000
G1 X70.118 Y96.239 F1050.000 E45.84411
G1 X69.235 Y96.091 F4200.000
G1 X66.710 Y93.565 F1050.000 E45.95240
G1 X66.184 Y93.772 F4200.000
G1 X68.553 Y96.141 F1050.000 E46.05401
G1 X67.461 Y95.784 F4200.000
G1 X65.656 Y93.979 F1050.000 E46.13141
G1 X65.204 Y94.260 F4200.000
G1 X66.728 Y95.784 F1050.000 E46.19674
G1 X65.994 Y95.784 F4200.000
G1 X64.796 Y94.586 F1050.000 E46.24811
G1 X64.387 Y94.912 F4200.000
G1 X65.260 Y95.784 F1050.000 E46.28553
G1 X64.527 Y95.783 F4200.000
G1 X63.980 Y95.236 F1050.000 E46.30898
G1 X64.155 Y104.216 F4200.000
G1 X65.964 Y106.025 F1050.000 E46.38656
G1 X67.172 Y106.499 F4200.000
G1 X64.889 Y104.216 F1050.000 E46.48446
G1 X65.622 Y104.216 F4200.000
G1 X68.117 Y106.711 F1050.000 E46.59142
G1 X68.910 Y106.770 F4200.000
G1 X66.356 Y104.216 F1050.000 E46.70094
G1 X67.089 Y104.217 F4200.000
G1 X69.703 Y106.830 F1050.000 E46.81300
G1 X70.440 Y106.833 F4200.000
G1 X67.772 Y104.165 F1050.000 E46.92744
G1 X68.195 Y103.854 F4200.000
G1 X71.174 Y106.833 F1050.000 E47.05520
G1 X71.908 Y106.833 F4200.000
G1 X68.988 Y103.913 F1050.000 E47.18041
G1 X69.615 Y103.808 F4200.000
G1 X72.641 Y106.834 F1050.000 E47.31016
G1 X73.375 Y106.833 F4200.000
G1 X70.213 Y103.671 F1050.000 E47.44575
G1 X70.697 Y103.422 F4200.000
G1 X74.109 Y106.833 F1050.000 E47.59204
G1 X74.843 Y106.833 F4200.000
G1 X71.162 Y103.153 F1050.000 E47.74986
G1 X71.561 Y102.818 F4200.000
G1 X75.576 Y106.833 F1050.000 E47.92203
G1 X76.309 Y106.834 F4200.000
G1 X71.914 Y102.438 F1050.000 E48.11052
G1 X72.239 Y102.029 F4200.000
G1 X77.043 Y106.833 F1050.000 E48.31654
G1 X77.777 Y106.833 F4200.000
G1 X72.477 Y101.534 F1050.000 E48.54380
G1 X72.711 Y101.033 F4200.000
G1 X78.511 Y106.833 F1050.000 E48.79250
G1 X79.245 Y106.833 F4200.000
G1 X72.807 Y100.396 F1050.000 E49.06854
G1 X72.870 Y99.726 F4200.000
G1 X79.978 Y106.834 F1050.000 E49.37333
G1 X80.712 Y106.833 F4200.000
G1 X72.740 Y98.862 F1050.000 E49.71517
G1 F1800.000 E48.71517
G92 E0
