; generated by Slic3r 0.7.3-dev on 2012-05-13 at 15:45:42

; layer_height = 0.4
; perimeters = 2
; solid_layers = 3
; fill_density = 0.15
; nozzle_diameter = 0.5
; filament_diameter = 3
; extrusion_multiplier = 1.02
; perimeter_speed = 30
; infill_speed = 40
; travel_speed = 70
; extrusion_width_ratio = 0
; scale = 1
; single wall width = 0.53mm

M104 S200 ; set temperature
M106
M104 S230
G28
M140 S60
G1 X205 Y105 F2000
M109 S230
G92 E0
G1 E5 F50
G1 X205 Y90 F2000
G90 ; use absolute coordinates
G21 ; set units to millimeters
G92 E0 ; reset extrusion distance
M82 ; use absolute distances for extrusion
G1 Z0.400 F4200.000
G1 X50.150 Y76.813
G1 F1800.000 E1.00000
G1 X50.650 Y76.763 F900.000 E1.01507
G1 X131.540 Y75.313 E3.44163
G1 X131.830 Y75.313 E3.45033
G1 X132.700 Y75.403 E3.47656
G1 X138.710 Y76.773 E3.66145
G1 X139.280 Y76.963 E3.67947
G1 X140.090 Y77.353 E3.70643
G1 X145.180 Y80.303 E3.88288
G1 X145.670 Y80.653 E3.90095
G1 X146.130 Y81.053 E3.91923
G1 X150.320 Y85.593 E4.10453
G1 X150.510 Y85.823 E4.11348
G1 X150.840 Y86.313 E4.13120
G1 X150.990 Y86.573 E4.14020
G1 X153.680 Y92.133 E4.32545
G1 X153.790 Y92.413 E4.33448
G1 X154.030 Y93.283 E4.36155
G1 X154.950 Y99.393 E4.54687
G1 X154.980 Y99.993 E4.56489
G1 X154.950 Y100.593 E4.58291
G1 X154.030 Y106.703 E4.76823
G1 X153.880 Y107.283 E4.78620
G1 X153.790 Y107.563 E4.79502
G1 X153.680 Y107.843 E4.80405
G1 X150.990 Y113.423 E4.98984
G1 X150.680 Y113.933 E5.00774
G1 X150.320 Y114.403 E5.02550
G1 X146.120 Y118.933 E5.21078
G1 X145.900 Y119.143 E5.21991
G1 X145.430 Y119.513 E5.23785
G1 X144.930 Y119.843 E5.25582
G1 X139.820 Y122.773 E5.43249
G1 X139.280 Y123.023 E5.45034
G1 X138.710 Y123.213 E5.46836
G1 X132.700 Y124.583 E5.65324
G1 X131.830 Y124.673 E5.67948
G1 X50.650 Y123.223 E8.11473
G1 X50.150 Y123.173 E8.12980
G1 X49.660 Y123.083 E8.14475
G1 X48.930 Y122.863 E8.16761
G1 X48.700 Y122.773 E8.17502
G1 X48.240 Y122.553 E8.19032
G1 X48.020 Y122.433 E8.19783
G1 X47.390 Y122.023 E8.22038
G1 X47.000 Y121.703 E8.23551
G1 X46.470 Y121.163 E8.25820
G1 X46.020 Y120.563 E8.28070
G1 X45.760 Y120.133 E8.29577
G1 X45.530 Y119.673 E8.31119
G1 X45.430 Y119.443 E8.31872
G1 X45.200 Y118.733 E8.34110
G1 X45.090 Y118.233 E8.35646
G1 X45.030 Y117.733 E8.37156
G1 X45.030 Y82.253 E9.43573
G1 X45.090 Y81.753 E9.45083
G1 X45.200 Y81.253 E9.46619
G1 X45.430 Y80.543 E9.48857
G1 X45.640 Y80.083 E9.50374
G1 X45.880 Y79.643 E9.51877
G1 X46.160 Y79.223 E9.53391
G1 X46.470 Y78.823 E9.54909
G1 X47.000 Y78.283 E9.57178
G1 X47.390 Y77.963 E9.58692
G1 X48.020 Y77.553 E9.60946
G1 X48.240 Y77.433 E9.61698
G1 X48.700 Y77.213 E9.63227
G1 X49.170 Y77.043 E9.64726
G1 X49.660 Y76.903 E9.66255
G1 X50.072 Y76.826 E9.67513
G1 F1800.000 E8.67513
G92 E0
G1 X78.486 Y85.669 F4200.000
G1 F1800.000 E1.00000
G1 X79.001 Y84.914 F900.000 E1.02742
G1 X79.716 Y84.344 E1.05484
G1 X80.568 Y84.009 E1.08227
G1 X81.479 Y83.941 E1.10970
G1 X82.371 Y84.145 E1.13712
G1 X83.162 Y84.602 E1.16454
G1 X83.784 Y85.272 E1.19197
G1 X84.181 Y86.096 E1.21939
G1 X84.317 Y87.000 E1.24681
G1 X84.181 Y87.904 E1.27424
G1 X83.784 Y88.728 E1.30166
G1 X83.162 Y89.398 E1.32909
G1 X82.371 Y89.855 E1.35651
G1 X81.479 Y90.059 E1.38393
G1 X80.568 Y89.991 E1.41135
G1 X79.716 Y89.656 E1.43878
G1 X79.001 Y89.086 E1.46621
G1 X78.486 Y88.331 E1.49363
G1 X78.217 Y87.457 E1.52105
G1 X78.217 Y86.543 E1.54848
G1 X78.463 Y85.744 E1.57354
G1 X78.956 Y85.895 F4200.000
G1 X79.383 Y85.268 F900.000 E1.59631
G1 X79.977 Y84.795 E1.61907
G1 X80.683 Y84.517 E1.64184
G1 X81.440 Y84.461 E1.66461
G1 X82.180 Y84.630 E1.68737
G1 X82.838 Y85.009 E1.71014
G1 X83.354 Y85.566 E1.73291
G1 X83.683 Y86.249 E1.75567
G1 X83.796 Y87.000 E1.77844
G1 X83.683 Y87.751 E1.80120
G1 X83.354 Y88.434 E1.82396
G1 X82.838 Y88.991 E1.84673
G1 X82.180 Y89.370 E1.86950
G1 X81.440 Y89.539 E1.89226
G1 X81.339 Y89.532 E1.89530
G1 X81.339 Y89.532 E1.89530
G1 X80.683 Y89.483 E1.91503
G1 X79.977 Y89.205 E1.93780
G1 X79.383 Y88.732 E1.96057
G1 X78.956 Y88.105 E1.98333
G1 X78.732 Y87.380 E2.00610
G1 X78.732 Y86.620 E2.02886
G1 X78.933 Y85.970 E2.04927
G1 F1800.000 E1.04927
G92 E0
G1 X58.317 Y87.000 F4200.000
G1 F1800.000 E1.00000
G1 X58.181 Y87.904 F900.000 E1.02742
G1 X57.784 Y88.728 E1.05484
G1 X57.162 Y89.398 E1.08227
G1 X56.371 Y89.855 E1.10970
G1 X55.479 Y90.059 E1.13712
G1 X54.568 Y89.991 E1.16454
G1 X53.716 Y89.656 E1.19197
G1 X53.001 Y89.086 E1.21940
G1 X52.486 Y88.331 E1.24681
G1 X52.217 Y87.457 E1.27424
G1 X52.217 Y86.543 E1.30167
G1 X52.486 Y85.669 E1.32909
G1 X53.001 Y84.914 E1.35651
G1 X53.716 Y84.344 E1.38394
G1 X54.568 Y84.009 E1.41137
G1 X55.479 Y83.941 E1.43879
G1 X56.371 Y84.145 E1.46621
G1 X57.162 Y84.602 E1.49363
G1 X57.784 Y85.272 E1.52106
G1 X58.181 Y86.096 E1.54848
G1 X58.306 Y86.922 E1.57354
G1 X57.796 Y87.000 F4200.000
G1 X57.683 Y87.751 F900.000 E1.59631
G1 X57.354 Y88.434 E1.61907
G1 X56.838 Y88.991 E1.64184
G1 X56.180 Y89.370 E1.66461
G1 X55.440 Y89.539 E1.68737
G1 X55.339 Y89.532 E1.69041
G1 X55.339 Y89.532 E1.69041
G1 X54.683 Y89.483 E1.71014
G1 X53.977 Y89.205 E1.73291
G1 X53.383 Y88.732 E1.75567
G1 X52.956 Y88.105 E1.77844
G1 X52.732 Y87.380 E1.80120
G1 X52.732 Y86.620 E1.82397
G1 X52.956 Y85.895 E1.84674
G1 X53.383 Y85.268 E1.86950
G1 X53.977 Y84.795 E1.89227
G1 X54.683 Y84.517 E1.91504
G1 X55.440 Y84.461 E1.93780
G1 X56.180 Y84.630 E1.96057
G1 X56.838 Y85.009 E1.98333
G1 X57.354 Y85.566 E2.00610
G1 X57.683 Y86.249 E2.02887
G1 X57.785 Y86.922 E2.04927
G1 F1800.000 E1.04927
G92 E0
G1 X55.479 Y109.941 F4200.000
G1 F1800.000 E1.00000
G1 X56.371 Y110.145 F900.000 E1.02742
G1 X57.162 Y110.602 E1.05484
G1 X57.784 Y111.272 E1.08227
G1 X58.181 Y112.096 E1.10969
G1 X58.317 Y113.000 E1.13712
G1 X58.181 Y113.904 E1.16454
G1 X57.784 Y114.728 E1.19196
G1 X57.162 Y115.398 E1.21939
G1 X56.371 Y115.855 E1.24681
G1 X55.479 Y116.059 E1.27423
G1 X54.568 Y115.991 E1.30166
G1 X53.716 Y115.656 E1.32909
G1 X53.001 Y115.086 E1.35651
G1 X52.486 Y114.331 E1.38393
G1 X52.217 Y113.457 E1.41136
G1 X52.217 Y112.543 E1.43878
G1 X52.486 Y111.669 E1.46621
G1 X53.001 Y110.914 E1.49363
G1 X53.716 Y110.344 E1.52105
G1 X54.568 Y110.009 E1.54848
G1 X55.401 Y109.947 E1.57354
G1 X55.440 Y110.461 F4200.000
G1 X56.180 Y110.630 F900.000 E1.59631
G1 X56.838 Y111.009 E1.61907
G1 X57.354 Y111.566 E1.64184
G1 X57.683 Y112.249 E1.66461
G1 X57.796 Y113.000 E1.68737
G1 X57.683 Y113.751 E1.71014
G1 X57.354 Y114.434 E1.73290
G1 X56.838 Y114.991 E1.75567
G1 X56.180 Y115.370 E1.77843
G1 X55.440 Y115.539 E1.80120
G1 X55.339 Y115.532 E1.80424
G1 X55.339 Y115.532 E1.80424
G1 X54.683 Y115.483 E1.82397
G1 X53.977 Y115.205 E1.84673
G1 X53.383 Y114.732 E1.86950
G1 X52.956 Y114.105 E1.89226
G1 X52.732 Y113.380 E1.91503
G1 X52.732 Y112.620 E1.93780
G1 X52.956 Y111.895 E1.96057
G1 X53.383 Y111.268 E1.98333
G1 X53.977 Y110.795 E2.00610
G1 X54.683 Y110.517 E2.02887
G1 X55.362 Y110.467 E2.04927
G1 F1800.000 E1.04927
G92 E0
G1 X58.877 Y108.697 F4200.000
G1 F1800.000 E1.00000
G1 X56.730 Y105.548 F900.000 E1.11432
G1 X55.606 Y101.906 E1.22864
G1 X55.606 Y98.094 E1.34296
G1 X56.730 Y94.452 E1.45727
G1 X58.877 Y91.303 E1.57159
G1 X61.857 Y88.927 E1.68591
G1 X65.405 Y87.534 E1.80023
G1 X69.206 Y87.249 E1.91455
G1 X72.921 Y88.097 E2.02886
G1 X76.222 Y90.003 E2.14318
G1 X78.815 Y92.797 E2.25750
G1 X80.468 Y96.231 E2.37182
G1 X81.036 Y100.000 E2.48614
G1 X80.468 Y103.769 E2.60046
G1 X78.815 Y107.203 E2.71478
G1 X76.222 Y109.997 E2.82909
G1 X72.921 Y111.903 E2.94341
G1 X69.206 Y112.751 E3.05773
G1 X65.405 Y112.466 E3.17205
G1 X61.857 Y111.073 E3.28637
G1 X58.938 Y108.746 E3.39832
G1 X59.259 Y108.343 F4200.000
G1 X57.199 Y105.322 F900.000 E3.50798
G1 X56.121 Y101.828 E3.61764
G1 X56.121 Y98.172 E3.72730
G1 X57.199 Y94.678 E3.83697
G1 X59.259 Y91.657 E3.94663
G1 X62.117 Y89.378 E4.05629
G1 X65.521 Y88.042 E4.16595
G1 X69.167 Y87.769 E4.27561
G1 X72.731 Y88.582 E4.38527
G1 X75.897 Y90.410 E4.49493
G1 X78.384 Y93.091 E4.60459
G1 X79.971 Y96.385 E4.71425
G1 X80.515 Y100.000 E4.82391
G1 X79.971 Y103.615 E4.93357
G1 X78.384 Y106.909 E5.04323
G1 X75.897 Y109.590 E5.15289
G1 X72.731 Y111.418 E5.26255
G1 X69.167 Y112.231 E5.37221
G1 X65.521 Y111.958 E5.48187
G1 X62.117 Y110.622 E5.59153
G1 X59.320 Y108.392 E5.69883
G1 F1800.000 E4.69883
G92 E0
G1 X78.217 Y112.543 F4200.000
G1 F1800.000 E1.00000
G1 X78.486 Y111.669 F900.000 E1.02743
G1 X79.001 Y110.914 E1.05484
G1 X79.716 Y110.344 E1.08227
G1 X80.568 Y110.009 E1.10970
G1 X81.479 Y109.941 E1.13712
G1 X82.371 Y110.145 E1.16454
G1 X83.162 Y110.602 E1.19197
G1 X83.784 Y111.272 E1.21940
G1 X84.181 Y112.096 E1.24681
G1 X84.317 Y113.000 E1.27424
G1 X84.181 Y113.904 E1.30166
G1 X83.784 Y114.728 E1.32908
G1 X83.162 Y115.398 E1.35651
G1 X82.371 Y115.855 E1.38393
G1 X81.479 Y116.059 E1.41136
G1 X80.568 Y115.991 E1.43878
G1 X79.716 Y115.656 E1.46621
G1 X79.001 Y115.086 E1.49363
G1 X78.486 Y114.331 E1.52105
G1 X78.217 Y113.457 E1.54848
G1 X78.217 Y112.622 E1.57354
G1 X78.732 Y112.620 F4200.000
G1 X78.956 Y111.895 F900.000 E1.59631
G1 X79.383 Y111.268 E1.61907
G1 X79.977 Y110.795 E1.64184
G1 X80.683 Y110.517 E1.66461
G1 X81.440 Y110.461 E1.68738
G1 X82.180 Y110.630 E1.71014
G1 X82.838 Y111.009 E1.73291
G1 X83.354 Y111.566 E1.75567
G1 X83.683 Y112.249 E1.77844
G1 X83.796 Y113.000 E1.80120
G1 X83.683 Y113.751 E1.82397
G1 X83.354 Y114.434 E1.84673
G1 X82.838 Y114.991 E1.86950
G1 X82.180 Y115.370 E1.89227
G1 X81.440 Y115.539 E1.91503
G1 X81.339 Y115.532 E1.91807
G1 X81.339 Y115.532 E1.91807
G1 X80.683 Y115.483 E1.93780
G1 X79.977 Y115.205 E1.96057
G1 X79.383 Y114.732 E1.98333
G1 X78.956 Y114.105 E2.00610
G1 X78.732 Y113.380 E2.02886
G1 X78.732 Y112.699 E2.04927
G1 F1800.000 E1.04927
G92 E0
G1 X112.486 Y101.331 F4200.000
G1 F1800.000 E1.00000
G1 X112.217 Y100.457 F900.000 E1.02742
G1 X112.217 Y99.543 E1.05485
G1 X112.486 Y98.669 E1.08228
G1 X113.001 Y97.914 E1.10970
G1 X113.716 Y97.344 E1.13712
G1 X114.567 Y97.010 E1.16455
G1 X115.479 Y96.941 E1.19197
G1 X116.371 Y97.145 E1.21940
G1 X117.162 Y97.602 E1.24682
G1 X117.610 Y98.084 E1.26653
G1 X118.730 Y94.452 E1.38052
G1 X120.877 Y91.303 E1.49484
G1 X123.857 Y88.927 E1.60916
G1 X127.405 Y87.534 E1.72347
G1 X128.463 Y87.455 E1.75532
G1 X128.001 Y87.086 E1.77305
G1 X127.486 Y86.331 E1.80046
G1 X127.217 Y85.457 E1.82789
G1 X127.217 Y84.543 E1.85532
G1 X127.486 Y83.669 E1.88274
G1 X128.001 Y82.914 E1.91016
G1 X128.716 Y82.344 E1.93759
G1 X129.568 Y82.009 E1.96502
G1 X130.479 Y81.941 E1.99244
G1 X131.371 Y82.145 E2.01986
G1 X132.162 Y82.602 E2.04728
G1 X132.784 Y83.272 E2.07471
G1 X133.181 Y84.096 E2.10213
G1 X133.317 Y85.000 E2.12956
G1 X133.181 Y85.904 E2.15698
G1 X132.784 Y86.728 E2.18440
G1 X132.162 Y87.398 E2.21183
G1 X132.076 Y87.448 E2.21482
G1 X134.921 Y88.097 E2.30235
G1 X138.222 Y90.003 E2.41667
G1 X140.815 Y92.797 E2.53099
G1 X142.468 Y96.231 E2.64531
G1 X142.773 Y98.249 E2.70652
G1 X143.001 Y97.914 E2.71871
G1 X143.716 Y97.344 E2.74613
G1 X144.567 Y97.010 E2.77356
G1 X145.479 Y96.941 E2.80098
G1 X146.371 Y97.145 E2.82841
G1 X147.162 Y97.602 E2.85583
G1 X147.784 Y98.272 E2.88326
G1 X148.181 Y99.096 E2.91068
G1 X148.317 Y100.000 E2.93810
G1 X148.181 Y100.904 E2.96553
G1 X147.784 Y101.728 E2.99295
G1 X147.162 Y102.398 E3.02037
G1 X146.371 Y102.855 E3.04780
G1 X145.479 Y103.059 E3.07522
G1 X144.567 Y102.990 E3.10264
G1 X143.716 Y102.656 E3.13007
G1 X143.001 Y102.086 E3.15749
G1 X142.773 Y101.751 E3.16968
G1 X142.468 Y103.769 E3.23090
G1 X140.815 Y107.203 E3.34521
G1 X138.222 Y109.997 E3.45953
G1 X134.921 Y111.903 E3.57385
G1 X132.076 Y112.552 E3.66138
G1 X132.162 Y112.602 E3.66437
G1 X132.784 Y113.272 E3.69180
G1 X133.181 Y114.096 E3.71922
G1 X133.317 Y115.000 E3.74665
G1 X133.181 Y115.904 E3.77407
G1 X132.784 Y116.728 E3.80149
G1 X132.162 Y117.398 E3.82892
G1 X131.371 Y117.855 E3.85634
G1 X130.479 Y118.059 E3.88376
G1 X129.568 Y117.991 E3.91119
G1 X128.716 Y117.656 E3.93862
G1 X128.001 Y117.086 E3.96604
G1 X127.486 Y116.331 E3.99346
G1 X127.217 Y115.457 E4.02088
G1 X127.217 Y114.543 E4.04831
G1 X127.486 Y113.669 E4.07574
G1 X128.001 Y112.914 E4.10316
G1 X128.463 Y112.545 E4.12088
G1 X127.405 Y112.466 E4.15273
G1 X123.857 Y111.073 E4.26705
G1 X120.877 Y108.697 E4.38136
G1 X118.730 Y105.548 E4.49568
G1 X117.610 Y101.916 E4.60967
G1 X117.162 Y102.398 E4.62938
G1 X116.371 Y102.855 E4.65681
G1 X115.479 Y103.059 E4.68423
G1 X114.567 Y102.990 E4.71165
G1 X113.716 Y102.656 E4.73908
G1 X113.001 Y102.086 E4.76650
G1 X112.531 Y101.396 E4.79156
G1 F1800.000 E3.79156
G92 E0
G1 X142.732 Y100.380 F4200.000
G1 F1800.000 E1.00000
G1 X142.732 Y99.620 F900.000 E1.02277
G1 X142.956 Y98.895 E1.04553
G1 X143.383 Y98.268 E1.06830
G1 X143.977 Y97.795 E1.09107
G1 X144.683 Y97.517 E1.11383
G1 X145.440 Y97.461 E1.13660
G1 X146.180 Y97.630 E1.15936
G1 X146.838 Y98.009 E1.18213
G1 X147.354 Y98.566 E1.20490
G1 X147.683 Y99.249 E1.22766
G1 X147.796 Y100.000 E1.25043
G1 X147.683 Y100.751 E1.27319
G1 X147.354 Y101.434 E1.29596
G1 X146.838 Y101.991 E1.31872
G1 X146.180 Y102.370 E1.34149
G1 X145.440 Y102.539 E1.36426
G1 X144.683 Y102.483 E1.38702
G1 X143.977 Y102.205 E1.40979
G1 X143.383 Y101.732 E1.43256
G1 X142.956 Y101.105 E1.45532
G1 X142.755 Y100.455 E1.47572
G1 F1800.000 E0.47572
G92 E0
G1 X131.838 Y86.991 F4200.000
G1 F1800.000 E1.00000
G1 X131.180 Y87.370 F900.000 E1.02276
G1 X130.440 Y87.539 E1.04553
G1 X130.339 Y87.532 E1.04857
G1 X130.339 Y87.532 E1.04857
G1 X129.683 Y87.483 E1.06830
G1 X128.977 Y87.205 E1.09106
G1 X128.383 Y86.732 E1.11383
G1 X127.956 Y86.105 E1.13659
G1 X127.732 Y85.380 E1.15936
G1 X127.732 Y84.620 E1.18213
G1 X127.956 Y83.895 E1.20490
G1 X128.383 Y83.268 E1.22766
G1 X128.977 Y82.795 E1.25043
G1 X129.683 Y82.517 E1.27320
G1 X130.440 Y82.461 E1.29596
G1 X131.180 Y82.630 E1.31873
G1 X131.838 Y83.009 E1.34149
G1 X132.354 Y83.566 E1.36426
G1 X132.683 Y84.249 E1.38702
G1 X132.796 Y85.000 E1.40979
G1 X132.683 Y85.751 E1.43255
G1 X132.354 Y86.434 E1.45532
G1 X131.891 Y86.933 E1.47573
G1 F1800.000 E0.47573
G92 E0
G1 X117.354 Y98.566 F4200.000
G1 F1800.000 E1.00000
G1 X117.683 Y99.249 F900.000 E1.02276
G1 X117.796 Y100.000 E1.04553
G1 X117.683 Y100.751 E1.06830
G1 X117.354 Y101.434 E1.09106
G1 X116.838 Y101.991 E1.11383
G1 X116.180 Y102.370 E1.13659
G1 X115.440 Y102.539 E1.15936
G1 X114.683 Y102.483 E1.18213
G1 X113.977 Y102.205 E1.20489
G1 X113.383 Y101.732 E1.22766
G1 X112.956 Y101.105 E1.25042
G1 X112.732 Y100.380 E1.27319
G1 X112.732 Y99.620 E1.29596
G1 X112.956 Y98.895 E1.31872
G1 X113.383 Y98.268 E1.34149
G1 X113.977 Y97.795 E1.36426
G1 X114.683 Y97.517 E1.38702
G1 X115.440 Y97.461 E1.40979
G1 X116.180 Y97.630 E1.43255
G1 X116.838 Y98.009 E1.45532
G1 X117.300 Y98.508 E1.47572
G1 X118.121 Y98.172 F4200.000
G1 X119.199 Y94.678 F900.000 E1.58539
G1 X121.259 Y91.657 E1.69505
G1 X124.117 Y89.378 E1.80471
G1 X127.521 Y88.042 E1.91436
G1 X131.167 Y87.769 E2.02403
G1 X134.731 Y88.582 E2.13369
G1 X137.897 Y90.410 E2.24335
G1 X140.384 Y93.091 E2.35301
G1 X141.971 Y96.385 E2.46267
G1 X142.515 Y100.000 E2.57233
G1 X141.971 Y103.615 E2.68199
G1 X140.384 Y106.909 E2.79165
G1 X137.897 Y109.590 E2.90131
G1 X134.731 Y111.418 E3.01097
G1 X131.167 Y112.231 E3.12063
G1 X127.521 Y111.958 E3.23029
G1 X124.117 Y110.622 E3.33995
G1 X121.259 Y108.343 E3.44961
G1 X119.199 Y105.322 E3.55927
G1 X118.121 Y101.828 E3.66893
G1 X118.121 Y98.251 E3.77623
G1 F1800.000 E2.77623
G92 E0
G1 X128.977 Y112.795 F4200.000
G1 F1800.000 E1.00000
G1 X129.683 Y112.517 F900.000 E1.02277
G1 X130.440 Y112.461 E1.04554
G1 X131.180 Y112.630 E1.06830
G1 X131.838 Y113.009 E1.09106
G1 X132.354 Y113.566 E1.11383
G1 X132.683 Y114.249 E1.13660
G1 X132.796 Y115.000 E1.15936
G1 X132.683 Y115.751 E1.18213
G1 X132.354 Y116.434 E1.20489
G1 X131.838 Y116.991 E1.22766
G1 X131.180 Y117.370 E1.25043
G1 X130.440 Y117.539 E1.27319
G1 X130.339 Y117.532 E1.27623
G1 X130.339 Y117.532 E1.27623
G1 X129.683 Y117.483 E1.29596
G1 X128.977 Y117.205 E1.31872
G1 X128.383 Y116.732 E1.34149
G1 X127.956 Y116.105 E1.36425
G1 X127.732 Y115.380 E1.38702
G1 X127.732 Y114.620 E1.40979
G1 X127.956 Y113.895 E1.43256
G1 X128.383 Y113.268 E1.45532
G1 X128.915 Y112.844 E1.47573
G1 F1800.000 E0.47573
G92 E0
G1 X126.197 Y117.757 F4200.000
