; generated by Slic3r 0.7.3-dev on 2012-05-13 at 18:10:01

; layer_height = 0.4
; perimeters = 2
; solid_layers = 3
; fill_density = 0.15
; nozzle_diameter = 0.5
; filament_diameter = 3
; extrusion_multiplier = 1.02
; perimeter_speed = 30
; infill_speed = 40
; travel_speed = 70
; extrusion_width_ratio = 0
; scale = 1
; single wall width = 0.53mm

M104 S200 ; set temperature
M106
M104 S230
G28
M140 S60
G1 X205 Y105 F2000
M109 S230
G92 E0
G1 E5 F50
G1 X205 Y90 F2000
G90 ; use absolute coordinates
G21 ; set units to millimeters
G92 E0 ; reset extrusion distance
M82 ; use absolute distances for extrusion
G1 Z0.400 F4200.000
G1 X55.020 Y88.520
G1 F1800.000 E1.00000
G1 X88.900 Y54.660 F900.000 E2.43667
G1 X89.540 Y54.200 E2.46031
G1 X89.760 Y54.060 E2.46813
G1 X90.220 Y53.820 E2.48369
G1 X90.710 Y53.620 E2.49956
G1 X91.210 Y53.460 E2.51531
G1 X91.720 Y53.350 E2.53096
G1 X92.240 Y53.280 E2.54670
G1 X92.760 Y53.260 E2.56230
G1 X107.750 Y53.280 E3.01191
G1 X108.270 Y53.350 E3.02764
G1 X108.780 Y53.460 E3.04329
G1 X109.280 Y53.620 E3.05904
G1 X109.770 Y53.820 E3.07491
G1 X110.230 Y54.060 E3.09047
G1 X110.880 Y54.500 E3.11402
G1 X111.090 Y54.660 E3.12193
G1 X145.330 Y88.900 E4.57430
G1 X145.790 Y89.540 E4.59794
G1 X145.930 Y89.760 E4.60576
G1 X146.170 Y90.220 E4.62132
G1 X146.370 Y90.710 E4.63719
G1 X146.530 Y91.210 E4.65294
G1 X146.640 Y91.720 E4.66859
G1 X146.710 Y92.240 E4.68432
G1 X146.710 Y107.750 E5.14952
G1 X146.640 Y108.270 E5.16526
G1 X146.530 Y108.780 E5.18091
G1 X146.370 Y109.280 E5.19665
G1 X146.170 Y109.770 E5.21253
G1 X145.930 Y110.230 E5.22809
G1 X145.490 Y110.880 E5.25163
G1 X145.330 Y111.090 E5.25955
G1 X111.090 Y145.330 E6.71191
G1 X110.450 Y145.790 E6.73555
G1 X110.230 Y145.930 E6.74337
G1 X109.770 Y146.170 E6.75894
G1 X109.280 Y146.370 E6.77481
G1 X108.780 Y146.530 E6.79056
G1 X108.270 Y146.640 E6.80620
G1 X107.750 Y146.710 E6.82194
G1 X107.230 Y146.730 E6.83755
G1 X92.240 Y146.710 E7.28715
G1 X91.720 Y146.640 E7.30289
G1 X91.210 Y146.530 E7.31854
G1 X90.710 Y146.370 E7.33428
G1 X90.220 Y146.170 E7.35016
G1 X89.760 Y145.930 E7.36572
G1 X89.110 Y145.490 E7.38926
G1 X88.900 Y145.330 E7.39718
G1 X54.660 Y111.090 E8.84954
G1 X54.200 Y110.450 E8.87318
G1 X54.060 Y110.230 E8.88100
G1 X53.820 Y109.770 E8.89656
G1 X53.620 Y109.280 E8.91244
G1 X53.460 Y108.780 E8.92818
G1 X53.350 Y108.270 E8.94383
G1 X53.280 Y107.750 E8.95957
G1 X53.280 Y92.240 E9.42477
G1 X53.350 Y91.720 E9.44051
G1 X53.460 Y91.210 E9.45615
G1 X53.620 Y90.710 E9.47190
G1 X53.820 Y90.220 E9.48777
G1 X54.060 Y89.760 E9.50334
G1 X54.500 Y89.110 E9.52688
G1 X54.660 Y88.900 E9.53480
G1 X54.966 Y88.577 E9.54813
G1 F1800.000 E8.54813
G92 E0
G1 X109.967 Y87.457 F4200.000
G1 F1800.000 E1.00000
G1 X109.967 Y86.543 F900.000 E1.02743
G1 X110.236 Y85.669 E1.05485
G1 X110.751 Y84.914 E1.08227
G1 X111.466 Y84.344 E1.10970
G1 X112.318 Y84.009 E1.13713
G1 X113.229 Y83.941 E1.16455
G1 X114.121 Y84.145 E1.19197
G1 X114.912 Y84.602 E1.21939
G1 X115.534 Y85.272 E1.24682
G1 X115.931 Y86.096 E1.27424
G1 X116.067 Y87.000 E1.30167
G1 X115.931 Y87.904 E1.32909
G1 X115.534 Y88.728 E1.35651
G1 X114.912 Y89.398 E1.38394
G1 X114.121 Y89.855 E1.41136
G1 X113.229 Y90.059 E1.43878
G1 X112.318 Y89.991 E1.46621
G1 X111.466 Y89.656 E1.49364
G1 X110.751 Y89.086 E1.52106
G1 X110.236 Y88.331 E1.54848
G1 X109.990 Y87.532 E1.57354
G1 X110.482 Y87.380 F4200.000
G1 X110.482 Y86.620 F900.000 E1.59631
G1 X110.706 Y85.895 E1.61908
G1 X111.133 Y85.268 E1.64184
G1 X111.727 Y84.795 E1.66461
G1 X112.433 Y84.517 E1.68738
G1 X113.190 Y84.461 E1.71015
G1 X113.930 Y84.630 E1.73291
G1 X114.588 Y85.009 E1.75567
G1 X115.104 Y85.566 E1.77844
G1 X115.433 Y86.249 E1.80121
G1 X115.546 Y87.000 E1.82397
G1 X115.433 Y87.751 E1.84674
G1 X115.104 Y88.434 E1.86950
G1 X114.588 Y88.991 E1.89227
G1 X113.930 Y89.370 E1.91504
G1 X113.190 Y89.539 E1.93780
G1 X113.089 Y89.532 E1.94084
G1 X113.089 Y89.532 E1.94084
G1 X112.433 Y89.483 E1.96057
G1 X111.727 Y89.205 E1.98333
G1 X111.133 Y88.732 E2.00610
G1 X110.706 Y88.105 E2.02886
G1 X110.505 Y87.455 E2.04927
G1 F1800.000 E1.04927
G92 E0
G1 X90.067 Y87.000 F4200.000
G1 F1800.000 E1.00000
G1 X89.931 Y87.904 F900.000 E1.02742
G1 X89.534 Y88.728 E1.05484
G1 X88.912 Y89.398 E1.08227
G1 X88.121 Y89.855 E1.10970
G1 X87.229 Y90.059 E1.13712
G1 X86.318 Y89.991 E1.16454
G1 X85.466 Y89.656 E1.19197
G1 X84.751 Y89.086 E1.21940
G1 X84.236 Y88.331 E1.24681
G1 X83.967 Y87.457 E1.27424
G1 X83.967 Y86.543 E1.30167
G1 X84.236 Y85.669 E1.32909
G1 X84.751 Y84.914 E1.35651
G1 X85.466 Y84.344 E1.38394
G1 X86.318 Y84.009 E1.41137
G1 X87.229 Y83.941 E1.43879
G1 X88.121 Y84.145 E1.46621
G1 X88.912 Y84.602 E1.49363
G1 X89.534 Y85.272 E1.52106
G1 X89.931 Y86.096 E1.54848
G1 X90.056 Y86.922 E1.57354
G1 X89.546 Y87.000 F4200.000
G1 X89.433 Y87.751 F900.000 E1.59631
G1 X89.104 Y88.434 E1.61907
G1 X88.588 Y88.991 E1.64184
G1 X87.930 Y89.370 E1.66461
G1 X87.190 Y89.539 E1.68737
G1 X87.089 Y89.532 E1.69041
G1 X87.089 Y89.532 E1.69041
G1 X86.433 Y89.483 E1.71014
G1 X85.727 Y89.205 E1.73291
G1 X85.133 Y88.732 E1.75567
G1 X84.706 Y88.105 E1.77844
G1 X84.482 Y87.380 E1.80120
G1 X84.482 Y86.620 E1.82397
G1 X84.706 Y85.895 E1.84674
G1 X85.133 Y85.268 E1.86950
G1 X85.727 Y84.795 E1.89227
G1 X86.433 Y84.517 E1.91504
G1 X87.190 Y84.461 E1.93780
G1 X87.930 Y84.630 E1.96057
G1 X88.588 Y85.009 E1.98333
G1 X89.104 Y85.566 E2.00610
G1 X89.433 Y86.249 E2.02887
G1 X89.535 Y86.922 E2.04927
G1 F1800.000 E1.04927
G92 E0
G1 X87.229 Y109.941 F4200.000
G1 F1800.000 E1.00000
G1 X88.121 Y110.145 F900.000 E1.02742
G1 X88.912 Y110.602 E1.05484
G1 X89.534 Y111.272 E1.08227
G1 X89.931 Y112.096 E1.10969
G1 X90.067 Y113.000 E1.13712
G1 X89.931 Y113.904 E1.16454
G1 X89.534 Y114.728 E1.19196
G1 X88.912 Y115.398 E1.21939
G1 X88.121 Y115.855 E1.24681
G1 X87.229 Y116.059 E1.27423
G1 X86.318 Y115.991 E1.30166
G1 X85.466 Y115.656 E1.32909
G1 X84.751 Y115.086 E1.35651
G1 X84.236 Y114.331 E1.38393
G1 X83.967 Y113.457 E1.41136
G1 X83.967 Y112.543 E1.43878
G1 X84.236 Y111.669 E1.46621
G1 X84.751 Y110.914 E1.49363
G1 X85.466 Y110.344 E1.52105
G1 X86.318 Y110.009 E1.54848
G1 X87.151 Y109.947 E1.57354
G1 X87.190 Y110.461 F4200.000
G1 X87.930 Y110.630 F900.000 E1.59631
G1 X88.588 Y111.009 E1.61907
G1 X89.104 Y111.566 E1.64184
G1 X89.433 Y112.249 E1.66461
G1 X89.546 Y113.000 E1.68737
G1 X89.433 Y113.751 E1.71014
G1 X89.104 Y114.434 E1.73290
G1 X88.588 Y114.991 E1.75567
G1 X87.930 Y115.370 E1.77843
G1 X87.190 Y115.539 E1.80120
G1 X87.089 Y115.532 E1.80424
G1 X87.089 Y115.532 E1.80424
G1 X86.433 Y115.483 E1.82397
G1 X85.727 Y115.205 E1.84673
G1 X85.133 Y114.732 E1.86950
G1 X84.706 Y114.105 E1.89226
G1 X84.482 Y113.380 E1.91503
G1 X84.482 Y112.620 E1.93780
G1 X84.706 Y111.895 E1.96057
G1 X85.133 Y111.268 E1.98333
G1 X85.727 Y110.795 E2.00610
G1 X86.433 Y110.517 E2.02887
G1 X87.112 Y110.467 E2.04927
G1 F1800.000 E1.04927
G92 E0
G1 X89.894 Y109.377 F4200.000
G1 F1800.000 E1.00000
G1 X87.579 Y105.982 F900.000 E1.12326
G1 X86.368 Y102.055 E1.24652
G1 X86.368 Y97.945 E1.36978
G1 X87.579 Y94.018 E1.49304
G1 X89.894 Y90.623 E1.61630
G1 X93.107 Y88.061 E1.73955
G1 X96.932 Y86.559 E1.86281
G1 X101.030 Y86.252 E1.98607
G1 X105.037 Y87.166 E2.10933
G1 X108.596 Y89.221 E2.23259
G1 X111.391 Y92.234 E2.35585
G1 X113.174 Y95.936 E2.47911
G1 X113.786 Y100.000 E2.60237
G1 X113.174 Y104.064 E2.72563
G1 X111.391 Y107.766 E2.84888
G1 X108.596 Y110.779 E2.97214
G1 X105.037 Y112.834 E3.09540
G1 X101.030 Y113.748 E3.21866
G1 X96.932 Y113.441 E3.34192
G1 X93.107 Y111.939 E3.46518
G1 X89.955 Y109.426 E3.58608
G1 X90.276 Y109.023 F4200.000
G1 X88.048 Y105.756 F900.000 E3.70468
G1 X86.883 Y101.977 E3.82328
G1 X86.883 Y98.023 E3.94188
G1 X88.048 Y94.244 E4.06048
G1 X90.276 Y90.977 E4.17908
G1 X93.367 Y88.512 E4.29768
G1 X97.048 Y87.067 E4.41628
G1 X100.991 Y86.772 E4.53488
G1 X104.846 Y87.651 E4.65348
G1 X108.271 Y89.629 E4.77209
G1 X110.960 Y92.527 E4.89069
G1 X112.676 Y96.090 E5.00929
G1 X113.265 Y100.000 E5.12789
G1 X112.676 Y103.910 E5.24649
G1 X110.960 Y107.473 E5.36509
G1 X108.271 Y110.371 E5.48369
G1 X104.846 Y112.349 E5.60229
G1 X100.991 Y113.228 E5.72089
G1 X97.048 Y112.933 E5.83949
G1 X93.367 Y111.488 E5.95809
G1 X90.337 Y109.072 E6.07433
G1 F1800.000 E5.07433
G92 E0
G1 X109.967 Y112.543 F4200.000
G1 F1800.000 E1.00000
G1 X110.236 Y111.669 F900.000 E1.02743
G1 X110.751 Y110.914 E1.05484
G1 X111.466 Y110.344 E1.08227
G1 X112.318 Y110.009 E1.10970
G1 X113.229 Y109.941 E1.13712
G1 X114.121 Y110.145 E1.16454
G1 X114.912 Y110.602 E1.19197
G1 X115.534 Y111.272 E1.21940
G1 X115.931 Y112.096 E1.24681
G1 X116.067 Y113.000 E1.27424
G1 X115.931 Y113.904 E1.30166
G1 X115.534 Y114.728 E1.32908
G1 X114.912 Y115.398 E1.35651
G1 X114.121 Y115.855 E1.38393
G1 X113.229 Y116.059 E1.41136
G1 X112.318 Y115.991 E1.43878
G1 X111.466 Y115.656 E1.46621
G1 X110.751 Y115.086 E1.49363
G1 X110.236 Y114.331 E1.52105
G1 X109.967 Y113.457 E1.54848
G1 X109.967 Y112.622 E1.57354
G1 X110.482 Y112.620 F4200.000
G1 X110.706 Y111.895 F900.000 E1.59631
G1 X111.133 Y111.268 E1.61907
G1 X111.727 Y110.795 E1.64184
G1 X112.433 Y110.517 E1.66461
G1 X113.190 Y110.461 E1.68738
G1 X113.930 Y110.630 E1.71014
G1 X114.588 Y111.009 E1.73291
G1 X115.104 Y111.566 E1.75567
G1 X115.433 Y112.249 E1.77844
G1 X115.546 Y113.000 E1.80120
G1 X115.433 Y113.751 E1.82397
G1 X115.104 Y114.434 E1.84673
G1 X114.588 Y114.991 E1.86950
G1 X113.930 Y115.370 E1.89227
G1 X113.190 Y115.539 E1.91503
G1 X113.089 Y115.532 E1.91807
G1 X113.089 Y115.532 E1.91807
G1 X112.433 Y115.483 E1.93780
G1 X111.727 Y115.205 E1.96057
G1 X111.133 Y114.732 E1.98333
G1 X110.706 Y114.105 E2.00610
G1 X110.482 Y113.380 E2.02886
G1 X110.482 Y112.699 E2.04927
G1 F1800.000 E1.04927
G92 E0
G1 X114.473 Y118.149 F4200.000
G1 F1800.000 E1.00000
G1 X108.481 Y121.609 F900.000 E1.20754
G1 X106.722 Y122.010 E1.26164
G1 X106.722 Y140.222 E1.80789
G1 X103.278 Y140.222 E1.91120
G1 X103.278 Y122.796 E2.43387
G1 X101.735 Y123.149 E2.48134
G1 X96.722 Y122.773 E2.63210
G1 X96.722 Y140.222 E3.15547
G1 X93.278 Y140.222 E3.25878
G1 X93.278 Y122.020 E3.80472
G1 X88.393 Y120.103 E3.96210
G1 X82.983 Y115.789 E4.16964
G1 X79.085 Y110.072 E4.37718
G1 X78.052 Y106.722 E4.48232
G1 X59.778 Y106.722 E5.03043
G1 X59.778 Y103.278 E5.13375
G1 X77.046 Y103.278 E5.65168
G1 X77.046 Y96.722 E5.84830
G1 X59.778 Y96.722 E6.36623
G1 X59.778 Y93.278 E6.46954
G1 X78.052 Y93.278 E7.01765
G1 X79.085 Y89.928 E7.12279
G1 X82.983 Y84.211 E7.33033
G1 X88.393 Y79.897 E7.53788
G1 X93.278 Y77.980 E7.69526
G1 X93.278 Y59.778 E8.24119
G1 X96.722 Y59.778 E8.34451
G1 X96.722 Y77.227 E8.86788
G1 X101.735 Y76.851 E9.01864
G1 X103.278 Y77.204 E9.06611
G1 X103.278 Y59.778 E9.58877
G1 X106.722 Y59.778 E9.69209
G1 X106.722 Y77.990 E10.23833
G1 X108.481 Y78.391 E10.29243
G1 X114.473 Y81.851 E10.49997
G1 X119.180 Y86.923 E10.70752
G1 X122.240 Y93.278 E10.91905
G1 X140.222 Y93.278 E11.45840
G1 X140.222 Y96.722 E11.56172
G1 X122.720 Y96.722 E12.08669
G1 X123.214 Y100.000 E12.18611
G1 X122.720 Y103.278 E12.28553
G1 X140.222 Y103.278 E12.81050
G1 X140.222 Y106.722 E12.91381
G1 X122.240 Y106.722 E13.45316
G1 X119.180 Y113.077 E13.66470
G1 X114.527 Y118.091 E13.86988
G1 X114.798 Y118.556 F4200.000
G1 X108.671 Y122.094 F900.000 E14.08208
G1 X107.238 Y122.421 E14.12619
G1 X107.238 Y140.738 E14.67556
G1 X102.763 Y140.738 E14.80978
G1 X102.763 Y123.442 E15.32852
G1 X101.774 Y123.668 E15.35894
G1 X97.238 Y123.328 E15.49538
G1 X97.238 Y140.738 E16.01755
G1 X92.763 Y140.738 E16.15177
G1 X92.763 Y122.372 E16.70262
G1 X88.133 Y120.555 E16.85179
G1 X82.601 Y116.144 E17.06399
G1 X78.616 Y110.298 E17.27619
G1 X77.672 Y107.238 E17.37226
G1 X59.263 Y107.238 E17.92442
G1 X59.263 Y102.763 E18.05864
G1 X76.531 Y102.763 E18.57657
G1 X76.531 Y97.238 E18.74228
G1 X59.263 Y97.238 E19.26021
G1 X59.263 Y92.763 E19.39443
G1 X77.672 Y92.763 E19.94659
G1 X78.616 Y89.702 E20.04265
G1 X82.601 Y83.856 E20.25485
G1 X88.133 Y79.445 E20.46705
G1 X92.763 Y77.628 E20.61623
G1 X92.763 Y59.263 E21.16708
G1 X97.238 Y59.263 E21.30130
G1 X97.238 Y76.672 E21.82347
G1 X101.774 Y76.332 E21.95990
G1 X102.763 Y76.558 E21.99032
G1 X102.763 Y59.263 E22.50906
G1 X107.238 Y59.263 E22.64328
G1 X107.238 Y77.579 E23.19266
G1 X108.671 Y77.906 E23.23676
G1 X114.798 Y81.444 E23.44897
G1 X119.610 Y86.630 E23.66116
G1 X122.564 Y92.763 E23.86532
G1 X140.738 Y92.763 E24.41042
G1 X140.738 Y97.238 E24.54464
G1 X123.318 Y97.238 E25.06710
G1 X123.735 Y100.000 E25.15089
G1 X123.318 Y102.763 E25.23469
G1 X140.738 Y102.763 E25.75715
G1 X140.738 Y107.238 E25.89137
G1 X122.564 Y107.238 E26.43647
G1 X119.610 Y113.370 E26.64062
G1 X114.852 Y118.499 E26.85046
G1 X114.447 Y117.729 F4200.000
G1 X113.142 Y116.425 F1050.000 E26.90589
G1 X113.736 Y116.289 F4200.000
G1 X114.798 Y117.351 F1050.000 E26.95102
G1 X115.149 Y116.972 F4200.000
G1 X114.293 Y116.116 F1050.000 E26.98737
G1 X114.755 Y115.850 F4200.000
G1 X115.500 Y116.594 F1050.000 E27.01901
G1 X115.851 Y116.216 F4200.000
G1 X115.186 Y115.551 F1050.000 E27.04725
G1 X115.538 Y115.173 F4200.000
G1 X116.202 Y115.837 F1050.000 E27.07546
G1 X116.553 Y115.459 F4200.000
G1 X115.866 Y114.771 F1050.000 E27.10466
G1 X116.102 Y114.279 F4200.000
G1 X116.904 Y115.081 F1050.000 E27.13873
G1 X117.255 Y114.703 F4200.000
G1 X116.304 Y113.752 F1050.000 E27.17914
G1 X116.400 Y113.117 F4200.000
G1 X117.606 Y114.324 F1050.000 E27.23039
G1 X117.958 Y113.945 F4200.000
G1 X116.365 Y112.353 F1050.000 E27.29805
G1 X116.044 Y111.304 F4200.000
G1 X118.308 Y113.568 F1050.000 E27.39425
G1 X118.659 Y113.189 F4200.000
G1 X112.229 Y106.758 F1050.000 E27.66746
G1 X111.991 Y107.251 F4200.000
G1 X114.672 Y109.931 F1050.000 E27.78136
G1 X113.631 Y109.619 F4200.000
G1 X111.754 Y107.742 F1050.000 E27.86110
G1 X111.442 Y108.160 F4200.000
G1 X112.892 Y109.609 F1050.000 E27.92268
G1 X112.244 Y109.691 F4200.000
G1 X111.091 Y108.538 F1050.000 E27.97169
G1 X110.740 Y108.917 F4200.000
G1 X111.720 Y109.897 F1050.000 E28.01333
G1 X111.232 Y110.138 F4200.000
G1 X110.389 Y109.295 F1050.000 E28.04914
G1 X110.038 Y109.673 F4200.000
G1 X110.826 Y110.461 F1050.000 E28.08264
G1 X110.447 Y110.812 F4200.000
G1 X109.686 Y110.051 F1050.000 E28.11496
G1 X109.336 Y110.430 F4200.000
G1 X110.151 Y111.246 F1050.000 E28.14960
G1 X109.881 Y111.704 F4200.000
G1 X108.985 Y110.808 F1050.000 E28.18767
G1 X108.590 Y111.142 F4200.000
G1 X109.709 Y112.262 F1050.000 E28.23523
G1 X109.600 Y112.883 F4200.000
G1 X108.127 Y111.410 F1050.000 E28.29781
G1 X107.665 Y111.677 F4200.000
G1 X109.600 Y113.612 F1050.000 E28.38001
G1 X109.894 Y114.634 F4200.000
G1 X107.203 Y111.944 F1050.000 E28.49432
G1 X106.741 Y112.211 F4200.000
G1 X113.107 Y118.578 F1050.000 E28.76483
G1 X113.570 Y118.310 F4200.000
G1 X111.323 Y116.063 F1050.000 E28.86031
G1 X112.361 Y116.374 F4200.000
G1 X114.032 Y118.044 F1050.000 E28.93127
G1 X112.644 Y118.844 F4200.000
G1 X106.278 Y112.477 F1050.000 E29.20179
G1 X105.816 Y112.744 F4200.000
G1 X112.183 Y119.111 F1050.000 E29.47230
G1 X111.720 Y119.378 F4200.000
G1 X105.353 Y113.011 F1050.000 E29.74281
G1 X104.837 Y113.225 F4200.000
G1 X111.258 Y119.645 F1050.000 E30.01561
G1 X110.795 Y119.913 F4200.000
G1 X104.243 Y113.361 F1050.000 E30.29399
G1 X103.650 Y113.496 F4200.000
G1 X110.333 Y120.179 F1050.000 E30.57793
G1 X109.870 Y120.446 F4200.000
G1 X103.056 Y113.631 F1050.000 E30.86746
G1 X102.462 Y113.767 F4200.000
G1 X109.408 Y120.713 F1050.000 E31.16258
G1 X108.945 Y120.980 F4200.000
G1 X101.868 Y113.903 F1050.000 E31.46328
G1 X101.275 Y114.038 F4200.000
G1 X108.484 Y121.247 F1050.000 E31.76958
G1 X107.902 Y121.395 F4200.000
G1 X100.602 Y114.095 F1050.000 E32.07971
G1 X99.813 Y114.036 F4200.000
G1 X107.308 Y121.531 F1050.000 E32.39815
G1 X106.714 Y121.666 F4200.000
G1 X99.025 Y113.977 F1050.000 E32.72484
G1 X98.237 Y113.918 F4200.000
G1 X106.356 Y122.037 F1050.000 E33.06980
G1 X106.356 Y122.767 F4200.000
G1 X97.448 Y113.858 F1050.000 E33.44829
G1 X96.655 Y113.795 F4200.000
G1 X106.355 Y123.496 F1050.000 E33.86042
G1 X106.355 Y124.225 F4200.000
G1 X95.455 Y113.325 F1050.000 E34.32357
G1 X94.255 Y112.853 F4200.000
G1 X103.745 Y122.344 F1050.000 E34.72682
G1 X103.644 Y122.243 F4200.000
