; generated by Slic3r 0.7.3-dev on 2012-05-13 at 17:32:49

; layer_height = 0.4
; perimeters = 2
; solid_layers = 3
; fill_density = 0.15
; nozzle_diameter = 0.5
; filament_diameter = 3
; extrusion_multiplier = 1.02
; perimeter_speed = 30
; infill_speed = 40
; travel_speed = 70
; extrusion_width_ratio = 0
; scale = 1
; single wall width = 0.53mm

M104 S200 ; set temperature
M106
M104 S230
G28
M140 S60
G1 X205 Y105 F2000
M109 S230
G92 E0
G1 E5 F50
G1 X205 Y90 F2000
G90 ; use absolute coordinates
G21 ; set units to millimeters
G92 E0 ; reset extrusion distance
M82 ; use absolute distances for extrusion
G1 Z0.400 F4200.000
G1 X72.690 Y73.970
G1 F1800.000 E1.00000
G1 X93.920 Y54.650 F900.000 E1.86096
G1 X94.120 Y54.490 E1.86864
G1 X94.550 Y54.190 E1.88437
G1 X95.000 Y53.930 E1.89996
G1 X95.470 Y53.710 E1.91552
G1 X96.210 Y53.460 E1.93895
G1 X96.720 Y53.350 E1.95460
G1 X97.240 Y53.280 E1.97033
G1 X97.760 Y53.260 E1.98594
G1 X102.750 Y53.280 E2.13561
G1 X103.260 Y53.350 E2.15105
G1 X103.770 Y53.460 E2.16670
G1 X104.020 Y53.530 E2.17449
G1 X104.750 Y53.810 E2.19794
G1 X105.210 Y54.050 E2.21350
G1 X105.650 Y54.330 E2.22914
G1 X105.860 Y54.480 E2.23688
G1 X124.180 Y71.100 E2.97879
G1 X145.470 Y94.080 E3.91837
G1 X145.630 Y94.290 E3.92629
G1 X146.040 Y94.970 E3.95011
G1 X146.160 Y95.200 E3.95789
G1 X146.270 Y95.450 E3.96608
G1 X146.450 Y95.940 E3.98174
G1 X146.590 Y96.450 E3.99760
G1 X146.680 Y96.970 E4.01343
G1 X146.710 Y97.230 E4.02128
G1 X146.710 Y102.760 E4.18714
G1 X146.640 Y103.280 E4.20288
G1 X146.590 Y103.540 E4.21082
G1 X146.450 Y104.050 E4.22668
G1 X146.270 Y104.540 E4.24234
G1 X146.160 Y104.790 E4.25053
G1 X145.630 Y105.700 E4.28212
G1 X145.470 Y105.910 E4.29004
G1 X123.810 Y129.250 E5.24509
G1 X105.860 Y145.510 E5.97152
G1 X105.650 Y145.660 E5.97926
G1 X105.210 Y145.940 E5.99490
G1 X104.750 Y146.180 E6.01046
G1 X104.020 Y146.460 E6.03391
G1 X103.520 Y146.590 E6.04941
G1 X103.010 Y146.680 E6.06494
G1 X102.750 Y146.710 E6.07279
G1 X102.230 Y146.730 E6.08840
G1 X97.240 Y146.710 E6.23807
G1 X96.720 Y146.640 E6.25380
G1 X96.210 Y146.530 E6.26945
G1 X95.470 Y146.280 E6.29288
G1 X95.000 Y146.060 E6.30844
G1 X94.550 Y145.800 E6.32403
G1 X94.120 Y145.500 E6.33976
G1 X72.690 Y126.020 E7.20838
G1 X54.630 Y106.040 E8.01619
G1 X54.460 Y105.830 E8.02429
G1 X54.150 Y105.370 E8.04093
G1 X53.880 Y104.890 E8.05744
G1 X53.760 Y104.640 E8.06576
G1 X53.490 Y103.860 E8.09052
G1 X53.360 Y103.330 E8.10689
G1 X53.290 Y102.780 E8.12352
G1 X53.260 Y102.230 E8.14004
G1 X53.270 Y97.480 E8.28251
G1 X53.360 Y96.660 E8.30725
G1 X53.490 Y96.130 E8.32362
G1 X53.760 Y95.350 E8.34837
G1 X54.010 Y94.860 E8.36487
G1 X54.300 Y94.390 E8.38144
G1 X54.460 Y94.160 E8.38984
G1 X72.635 Y74.026 E9.20337
G1 F1800.000 E8.20337
G92 E0
G1 X126.183 Y98.884 F4200.000
G1 F1800.000 E1.00000
G1 X126.615 Y98.251 F900.000 E1.02300
G1 X127.214 Y97.773 E1.04599
G1 X127.928 Y97.493 E1.06898
G1 X128.692 Y97.435 E1.09197
G1 X129.440 Y97.606 E1.11497
G1 X130.103 Y97.989 E1.13796
G1 X130.625 Y98.551 E1.16095
G1 X130.958 Y99.242 E1.18395
G1 X131.072 Y100.000 E1.20694
G1 X130.958 Y100.758 E1.22993
G1 X130.625 Y101.449 E1.25292
G1 X130.103 Y102.011 E1.27592
G1 X129.440 Y102.394 E1.29891
G1 X128.692 Y102.565 E1.32190
G1 X127.928 Y102.507 E1.34489
G1 X127.214 Y102.227 E1.36788
G1 X126.615 Y101.749 E1.39088
G1 X126.183 Y101.116 E1.41387
G1 X125.957 Y100.383 E1.43687
G1 X125.957 Y99.617 E1.45985
G1 X126.160 Y98.959 E1.48048
G1 X126.652 Y99.110 F4200.000
G1 X126.997 Y98.605 F900.000 E1.49882
G1 X127.475 Y98.224 E1.51715
G1 X128.044 Y98.001 E1.53549
G1 X128.653 Y97.955 E1.55382
G1 X129.249 Y98.091 E1.57216
G1 X129.779 Y98.397 E1.59049
G1 X130.194 Y98.845 E1.60883
G1 X130.460 Y99.396 E1.62716
G1 X130.551 Y100.000 E1.64550
G1 X130.460 Y100.604 E1.66383
G1 X130.194 Y101.155 E1.68217
G1 X129.779 Y101.603 E1.70050
G1 X129.249 Y101.909 E1.71883
G1 X128.653 Y102.045 E1.73717
G1 X128.044 Y101.999 E1.75550
G1 X127.475 Y101.776 E1.77384
G1 X126.997 Y101.395 E1.79217
G1 X126.652 Y100.890 E1.81051
G1 X126.472 Y100.306 E1.82884
G1 X126.472 Y99.694 E1.84717
G1 X126.629 Y99.186 E1.86315
G1 F1800.000 E0.86315
G92 E0
G1 X101.749 Y73.385 F4200.000
G1 F1800.000 E1.00000
G1 X101.116 Y73.817 F900.000 E1.02300
G1 X100.383 Y74.043 E1.04599
G1 X99.617 Y74.043 E1.06898
G1 X98.884 Y73.817 E1.09197
G1 X98.251 Y73.385 E1.11496
G1 X97.773 Y72.786 E1.13796
G1 X97.493 Y72.072 E1.16095
G1 X97.435 Y71.308 E1.18394
G1 X97.606 Y70.560 E1.20693
G1 X97.989 Y69.897 E1.22992
G1 X98.551 Y69.375 E1.25292
G1 X99.242 Y69.042 E1.27591
G1 X100.000 Y68.928 E1.29890
G1 X100.758 Y69.042 E1.32190
G1 X101.449 Y69.375 E1.34489
G1 X102.011 Y69.897 E1.36788
G1 X102.394 Y70.560 E1.39087
G1 X102.565 Y71.308 E1.41387
G1 X102.507 Y72.072 E1.43686
G1 X102.227 Y72.786 E1.45985
G1 X101.798 Y73.324 E1.48048
G1 X101.395 Y73.003 F4200.000
G1 X100.890 Y73.348 F900.000 E1.49882
G1 X100.306 Y73.528 E1.51715
G1 X99.694 Y73.528 E1.53548
G1 X99.110 Y73.348 E1.55382
G1 X98.605 Y73.003 E1.57216
G1 X98.224 Y72.525 E1.59049
G1 X98.001 Y71.956 E1.60882
G1 X97.955 Y71.347 E1.62716
G1 X98.091 Y70.751 E1.64549
G1 X98.397 Y70.221 E1.66383
G1 X98.845 Y69.806 E1.68216
G1 X99.396 Y69.540 E1.70050
G1 X100.000 Y69.449 E1.71883
G1 X100.604 Y69.540 E1.73716
G1 X101.155 Y69.806 E1.75550
G1 X101.603 Y70.221 E1.77384
G1 X101.909 Y70.751 E1.79217
G1 X102.045 Y71.347 E1.81050
G1 X101.999 Y71.956 E1.82884
G1 X101.776 Y72.525 E1.84717
G1 X101.444 Y72.942 E1.86315
G1 F1800.000 E0.86315
G92 E0
G1 X73.385 Y98.251 F4200.000
G1 F1800.000 E1.00000
G1 X73.817 Y98.884 F900.000 E1.02300
G1 X74.043 Y99.617 E1.04599
G1 X74.043 Y100.383 E1.06898
G1 X73.817 Y101.116 E1.09197
G1 X73.385 Y101.749 E1.11496
G1 X72.786 Y102.227 E1.13796
G1 X72.112 Y102.492 E1.15966
G1 X72.112 Y102.748 E1.16736
G1 X71.289 Y102.560 E1.19269
G1 X71.289 Y102.560 E1.19269
G1 X71.188 Y102.537 E1.19580
G1 X71.188 Y102.537 E1.19580
G1 X70.560 Y102.394 E1.21510
G1 X69.897 Y102.011 E1.23809
G1 X69.375 Y101.449 E1.26108
G1 X69.042 Y100.758 E1.28408
G1 X68.928 Y100.000 E1.30707
G1 X69.042 Y99.242 E1.33006
G1 X69.375 Y98.551 E1.35305
G1 X69.897 Y97.989 E1.37605
G1 X70.560 Y97.606 E1.39904
G1 X71.308 Y97.435 E1.42203
G1 X72.072 Y97.493 E1.44502
G1 X72.786 Y97.773 E1.46801
G1 X73.324 Y98.202 E1.48865
G1 X73.003 Y98.605 F4200.000
G1 X73.348 Y99.110 F900.000 E1.50698
G1 X73.528 Y99.694 E1.52532
G1 X73.528 Y100.306 E1.54365
G1 X73.348 Y100.890 E1.56198
G1 X73.003 Y101.395 E1.58032
G1 X72.525 Y101.776 E1.59865
G1 X71.956 Y101.999 E1.61699
G1 X71.597 Y102.026 E1.62779
G1 X71.597 Y102.102 E1.63007
G1 X71.347 Y102.045 E1.63777
G1 X71.347 Y102.045 E1.63777
G1 X70.751 Y101.909 E1.65610
G1 X70.221 Y101.603 E1.67444
G1 X69.806 Y101.155 E1.69277
G1 X69.540 Y100.604 E1.71111
G1 X69.449 Y100.000 E1.72944
G1 X69.540 Y99.396 E1.74778
G1 X69.806 Y98.845 E1.76611
G1 X70.221 Y98.397 E1.78445
G1 X70.751 Y98.091 E1.80278
G1 X71.347 Y97.955 E1.82111
G1 X71.956 Y98.001 E1.83945
G1 X72.525 Y98.224 E1.85778
G1 X72.942 Y98.556 E1.87376
G1 X74.502 Y98.278 F4200.000
G1 X74.502 Y96.157 F900.000 E1.93737
G1 X76.767 Y88.812 E2.16792
G1 X81.097 Y82.461 E2.39846
G1 X87.107 Y77.668 E2.62901
G1 X94.262 Y74.860 E2.85955
G1 X101.927 Y74.286 E3.09010
G1 X109.421 Y75.996 E3.32065
G1 X116.078 Y79.839 E3.55119
G1 X121.306 Y85.474 E3.78174
G1 X124.641 Y92.399 E4.01228
G1 X125.527 Y98.278 E4.19059
G1 X106.108 Y98.278 E4.77304
G1 X103.551 Y93.849 E4.92640
G1 X96.449 Y93.849 E5.13942
G1 X93.892 Y98.278 E5.29278
G1 X74.580 Y98.278 E5.87202
G1 X75.017 Y97.763 F4200.000
G1 X75.017 Y96.234 F900.000 E5.91785
G1 X77.237 Y89.038 E6.14374
G1 X81.479 Y82.815 E6.36962
G1 X87.367 Y78.120 E6.59551
G1 X94.378 Y75.368 E6.82140
G1 X101.888 Y74.805 E7.04729
G1 X109.231 Y76.481 E7.27318
G1 X115.753 Y80.247 E7.49906
G1 X120.875 Y85.767 E7.72495
G1 X124.143 Y92.553 E7.95084
G1 X124.928 Y97.763 E8.10886
G1 X106.405 Y97.763 E8.66443
G1 X103.848 Y93.334 E8.81780
G1 X96.152 Y93.334 E9.04865
G1 X93.595 Y97.763 E9.20202
G1 X75.095 Y97.763 E9.75688
G1 F1800.000 E8.75688
G92 E0
G1 X95.490 Y99.320 F4200.000
G1 F1800.000 E1.00000
G1 X95.890 Y98.021 F900.000 E1.04078
G1 X96.656 Y96.898 E1.08156
G1 X97.719 Y96.050 E1.12234
G1 X98.985 Y95.553 E1.16312
G1 X100.341 Y95.452 E1.20390
G1 X101.666 Y95.754 E1.24468
G1 X102.844 Y96.434 E1.28546
G1 X103.769 Y97.431 E1.32624
G1 X104.359 Y98.656 E1.36702
G1 X104.561 Y100.000 E1.40780
G1 X104.359 Y101.344 E1.44858
G1 X103.769 Y102.569 E1.48936
G1 X102.844 Y103.566 E1.53014
G1 X101.666 Y104.246 E1.57092
G1 X100.598 Y104.490 E1.60379
G1 X100.598 Y104.568 E1.60613
G1 X100.341 Y104.548 E1.61386
G1 X100.341 Y104.548 E1.61386
G1 X98.985 Y104.447 E1.65464
G1 X97.719 Y103.950 E1.69542
G1 X96.656 Y103.102 E1.73620
G1 X95.890 Y101.979 E1.77699
G1 X95.490 Y100.680 E1.81777
G1 X95.490 Y99.399 E1.85618
G1 X96.005 Y99.398 F4200.000
G1 X96.360 Y98.247 F900.000 E1.89231
G1 X97.038 Y97.252 E1.92843
G1 X97.980 Y96.501 E1.96455
G1 X99.101 Y96.061 E2.00067
G1 X100.302 Y95.971 E2.03679
G1 X101.476 Y96.239 E2.07292
G1 X102.519 Y96.841 E2.10904
G1 X103.338 Y97.724 E2.14516
G1 X103.861 Y98.809 E2.18128
G1 X104.040 Y100.000 E2.21740
G1 X103.861 Y101.191 E2.25353
G1 X103.338 Y102.276 E2.28965
G1 X102.519 Y103.159 E2.32577
G1 X101.476 Y103.761 E2.36189
G1 X100.302 Y104.029 E2.39801
G1 X100.083 Y104.013 E2.40460
G1 X100.083 Y104.013 E2.40460
G1 X99.101 Y103.939 E2.43414
G1 X97.980 Y103.499 E2.47026
G1 X97.038 Y102.748 E2.50638
G1 X96.360 Y101.753 E2.54250
G1 X96.005 Y100.602 E2.57863
G1 X96.005 Y99.477 E2.61239
G1 F1800.000 E1.61239
G92 E0
G1 X93.892 Y101.722 F4200.000
G1 F1800.000 E1.00000
G1 X96.449 Y106.151 F900.000 E1.15336
G1 X103.551 Y106.151 E1.36638
G1 X106.108 Y101.722 E1.51974
G1 X125.527 Y101.722 E2.10219
G1 X124.641 Y107.601 E2.28050
G1 X121.306 Y114.526 E2.51104
G1 X116.078 Y120.161 E2.74159
G1 X109.421 Y124.004 E2.97213
G1 X101.927 Y125.714 E3.20268
G1 X94.262 Y125.140 E3.43322
G1 X87.107 Y122.332 E3.66377
G1 X81.097 Y117.539 E3.89432
G1 X76.767 Y111.188 E4.12486
G1 X74.502 Y103.843 E4.35541
G1 X74.502 Y101.722 E4.41902
G1 X93.814 Y101.722 E4.99826
G1 X93.595 Y102.238 F4200.000
G1 X96.152 Y106.666 F900.000 E5.15162
G1 X103.848 Y106.666 E5.38248
G1 X106.405 Y102.238 E5.53584
G1 X124.928 Y102.238 E6.09142
G1 X124.143 Y107.447 E6.24944
G1 X120.875 Y114.233 E6.47532
G1 X115.753 Y119.753 E6.70121
G1 X109.231 Y123.519 E6.92710
G1 X101.888 Y125.195 E7.15299
G1 X94.378 Y124.632 E7.37887
G1 X87.367 Y121.880 E7.60476
G1 X81.479 Y117.185 E7.83065
G1 X77.237 Y110.962 E8.05654
G1 X75.017 Y103.766 E8.28243
G1 X75.017 Y102.238 E8.32826
G1 X93.516 Y102.238 E8.88312
G1 F1800.000 E7.88312
G92 E0
G1 X99.617 Y125.957 F4200.000
G1 F1800.000 E1.00000
G1 X100.383 Y125.957 F900.000 E1.02299
G1 X101.116 Y126.183 E1.04598
G1 X101.749 Y126.615 E1.06898
G1 X102.227 Y127.214 E1.09197
G1 X102.507 Y127.928 E1.11496
G1 X102.565 Y128.692 E1.13795
G1 X102.394 Y129.440 E1.16094
G1 X102.011 Y130.103 E1.18393
G1 X101.449 Y130.625 E1.20693
G1 X100.758 Y130.958 E1.22992
G1 X100.000 Y131.072 E1.25292
G1 X99.242 Y130.958 E1.27591
G1 X98.551 Y130.625 E1.29890
G1 X97.989 Y130.103 E1.32190
G1 X97.606 Y129.440 E1.34489
G1 X97.435 Y128.692 E1.36788
G1 X97.493 Y127.928 E1.39087
G1 X97.773 Y127.214 E1.41386
G1 X98.251 Y126.615 E1.43686
G1 X98.884 Y126.183 E1.45985
G1 X99.542 Y125.980 E1.48048
G1 X99.694 Y126.472 F4200.000
G1 X100.306 Y126.472 F900.000 E1.49881
G1 X100.890 Y126.652 E1.51715
G1 X101.395 Y126.997 E1.53548
G1 X101.776 Y127.475 E1.55382
G1 X101.999 Y128.044 E1.57215
G1 X102.045 Y128.653 E1.59049
G1 X101.909 Y129.249 E1.60882
G1 X101.603 Y129.779 E1.62715
G1 X101.155 Y130.194 E1.64549
G1 X100.604 Y130.460 E1.66383
G1 X100.000 Y130.551 E1.68216
G1 X99.396 Y130.460 E1.70049
G1 X98.845 Y130.194 E1.71883
G1 X98.397 Y129.779 E1.73717
G1 X98.091 Y129.249 E1.75550
G1 X97.955 Y128.653 E1.77383
G1 X98.001 Y128.044 E1.79217
G1 X98.224 Y127.475 E1.81050
G1 X98.605 Y126.997 E1.82884
G1 X99.110 Y126.652 E1.84717
G1 X99.619 Y126.495 E1.86315
G1 F1800.000 E0.86315
G92 E0
G1 X98.278 Y130.822 F4200.000
G1 F1800.000 E1.00000
G1 X93.054 Y130.431 F900.000 E1.15711
G1 X84.393 Y127.032 E1.43617
G1 X77.119 Y121.231 E1.71524
G1 X71.878 Y113.543 E1.99431
G1 X69.135 Y104.652 E2.27337
G1 X69.135 Y101.722 E2.36125
G1 X59.778 Y101.722 E2.64191
G1 X59.778 Y98.278 E2.74523
G1 X69.135 Y98.278 E3.02589
G1 X69.135 Y95.348 E3.11376
G1 X71.878 Y86.457 E3.39283
G1 X77.119 Y78.769 E3.67189
G1 X84.393 Y72.968 E3.95096
G1 X93.054 Y69.569 E4.23003
G1 X98.278 Y69.178 E4.38714
G1 X98.278 Y59.778 E4.66907
G1 X101.722 Y59.778 E4.77239
G1 X101.722 Y68.734 E5.04103
G1 X111.404 Y70.944 E5.33887
G1 X119.461 Y75.596 E5.61794
G1 X125.790 Y82.417 E5.89701
G1 X129.827 Y90.800 E6.17607
G1 X130.954 Y98.278 E6.40290
G1 X140.222 Y98.278 E6.68089
G1 X140.222 Y101.722 E6.78421
G1 X130.954 Y101.722 E7.06220
G1 X129.827 Y109.200 E7.28902
G1 X125.790 Y117.583 E7.56809
G1 X119.461 Y124.404 E7.84715
G1 X111.404 Y129.056 E8.12622
G1 X101.722 Y131.266 E8.42406
G1 X101.722 Y140.222 E8.69271
G1 X98.278 Y140.222 E8.79603
G1 X98.278 Y130.901 E9.07560
G1 X97.763 Y131.300 F4200.000
G1 X92.938 Y130.939 F900.000 E9.22070
G1 X84.133 Y127.483 E9.50442
G1 X76.737 Y121.585 E9.78815
G1 X71.408 Y113.769 E10.07187
G1 X68.620 Y104.730 E10.35560
G1 X68.620 Y102.238 E10.43035
G1 X59.263 Y102.238 E10.71101
G1 X59.263 Y97.763 E10.84523
G1 X68.620 Y97.763 E11.12589
G1 X68.620 Y95.270 E11.20064
G1 X71.408 Y86.231 E11.48437
G1 X76.737 Y78.415 E11.76809
G1 X84.133 Y72.517 E12.05182
G1 X92.938 Y69.061 E12.33554
G1 X97.763 Y68.700 E12.48064
G1 X97.763 Y59.263 E12.76369
G1 X102.238 Y59.263 E12.89791
G1 X102.238 Y68.324 E13.16969
G1 X111.594 Y70.459 E13.45753
G1 X119.786 Y75.189 E13.74126
G1 X126.220 Y82.123 E14.02498
G1 X130.325 Y90.646 E14.30871
G1 X131.397 Y97.763 E14.52457
G1 X140.738 Y97.763 E14.80471
G1 X140.738 Y102.238 E14.93893
G1 X131.397 Y102.238 E15.21907
G1 X130.325 Y109.354 E15.43493
G1 X126.220 Y117.877 E15.71866
G1 X119.786 Y124.811 E16.00238
G1 X111.594 Y129.541 E16.28611
G1 X102.238 Y131.676 E16.57395
G1 X102.238 Y140.738 E16.84573
G1 X97.763 Y140.738 E16.97995
G1 X97.763 Y131.379 E17.26064
G1 X98.644 Y131.494 F4200.000
G1 X101.355 Y134.205 F1050.000 E17.38570
G1 X101.355 Y133.435 F4200.000
G1 X99.278 Y131.358 F1050.000 E17.48153
G1 X100.097 Y131.407 F4200.000
G1 X101.355 Y132.666 F1050.000 E17.53960
G1 X101.355 Y131.897 F4200.000
G1 X100.766 Y131.307 F1050.000 E17.56680
G1 X98.644 Y132.263 F4200.000
G1 X101.356 Y134.975 F1050.000 E17.69190
G1 X101.356 Y135.744 F4200.000
G1 X98.644 Y133.032 F1050.000 E17.81699
G1 X98.645 Y133.802 F4200.000
G1 X101.356 Y136.513 F1050.000 E17.94205
G1 X101.355 Y137.283 F4200.000
G1 X98.644 Y134.572 F1050.000 E18.06711
G1 X98.644 Y135.342 F4200.000
G1 X101.355 Y138.053 F1050.000 E18.19218
G1 X101.355 Y138.822 F4200.000
G1 X98.644 Y136.111 F1050.000 E18.31724
G1 X98.644 Y136.880 F4200.000
G1 X101.355 Y139.591 F1050.000 E18.44230
G1 X100.850 Y139.855 F4200.000
G1 X98.644 Y137.650 F1050.000 E18.54404
G1 X98.644 Y138.419 F4200.000
G1 X100.080 Y139.855 F1050.000 E18.61029
G1 X99.311 Y139.855 F4200.000
G1 X98.645 Y139.189 F1050.000 E18.64102
G1 X97.384 Y130.376 F4200.000
G1 X91.544 Y124.536 F1050.000 E18.90645
G1 X92.797 Y125.029 F4200.000
G1 X97.187 Y129.418 F1050.000 E19.10596
G1 X97.089 Y128.558 F4200.000
G1 X94.033 Y125.502 F1050.000 E19.24483
G1 X94.857 Y125.564 F4200.000
G1 X97.167 Y127.874 F1050.000 E19.34983
G1 X97.382 Y127.327 F4200.000
G1 X95.681 Y125.625 F1050.000 E19.42715
G1 X96.505 Y125.687 F4200.000
G1 X97.670 Y126.852 F1050.000 E19.48012
G1 X98.008 Y126.428 F4200.000
G1 X97.328 Y125.748 F1050.000 E19.51100
G1 X96.560 Y130.314 F4200.000
G1 X90.289 Y124.044 F1050.000 E19.79600
G1 X89.035 Y123.551 F4200.000
G1 X95.736 Y130.253 F1050.000 E20.10058
G1 X94.912 Y130.191 F4200.000
G1 X87.780 Y123.059 F1050.000 E20.42472
G1 X86.182 Y122.223 F4200.000
G1 X94.088 Y130.130 F1050.000 E20.78406
G1 X93.236 Y130.039 F4200.000
G1 X82.420 Y119.223 F1050.000 E21.27565
G1 X80.059 Y116.863 F4200.000
G1 X70.340 Y107.143 F1050.000 E21.71742
G1 X70.000 Y106.041 F4200.000
G1 X78.427 Y114.468 F1050.000 E22.10043
G1 X76.794 Y112.073 F4200.000
