; generated by Slic3r 0.7.3-dev on 2012-05-13 at 16:05:36

; layer_height = 0.4
; perimeters = 2
; solid_layers = 3
; fill_density = 0.15
; nozzle_diameter = 0.5
; filament_diameter = 3
; extrusion_multiplier = 1.02
; perimeter_speed = 30
; infill_speed = 40
; travel_speed = 70
; extrusion_width_ratio = 0
; scale = 1
; single wall width = 0.53mm

M104 S200 ; set temperature
M106
M104 S230
G28
M140 S60
G1 X205 Y105 F2000
M109 S230
G92 E0
G1 E5 F50
G1 X205 Y90 F2000
G90 ; use absolute coordinates
G21 ; set units to millimeters
G92 E0 ; reset extrusion distance
M82 ; use absolute distances for extrusion
G1 Z0.400 F4200.000
G1 X21.685 Y65.912
G1 F1800.000 E1.00000
G1 X63.635 Y55.272 F900.000 E2.29806
G1 X64.645 Y55.112 E2.32874
G1 X66.255 Y55.002 E2.37714
G1 X136.755 Y55.022 E4.49167
G1 X137.015 Y55.052 E4.49952
G1 X179.155 Y66.192 E5.80687
G1 X179.455 Y66.292 E5.81635
G1 X179.745 Y66.412 E5.82576
G1 X181.515 Y67.402 E5.88659
G1 X182.005 Y67.752 E5.90465
G1 X182.465 Y68.152 E5.92294
G1 X183.635 Y69.422 E5.97473
G1 X183.825 Y69.652 E5.98368
G1 X183.995 Y69.892 E5.99250
G1 X184.445 Y70.672 E6.01951
G1 X185.045 Y71.942 E6.06164
G1 X185.155 Y72.222 E6.07066
G1 X185.245 Y72.492 E6.07920
G1 X185.395 Y73.062 E6.09687
G1 X185.615 Y74.452 E6.13908
G1 X185.685 Y75.372 E6.16676
G1 X185.685 Y123.282 E7.60374
G1 X185.615 Y124.202 E7.63142
G1 X185.395 Y125.582 E7.67333
G1 X185.155 Y126.422 E7.69953
G1 X185.055 Y126.692 E7.70817
G1 X184.315 Y128.242 E7.75969
G1 X183.995 Y128.772 E7.77825
G1 X183.815 Y129.022 E7.78749
G1 X183.415 Y129.502 E7.80624
G1 X182.655 Y130.312 E7.83955
G1 X182.235 Y130.712 E7.85695
G1 X181.785 Y131.072 E7.87423
G1 X180.075 Y132.092 E7.93395
G1 X179.515 Y132.342 E7.95234
G1 X179.225 Y132.452 E7.96165
G1 X134.895 Y144.842 E9.34221
G1 X134.365 Y144.942 E9.35839
G1 X134.095 Y144.972 E9.36654
G1 X133.555 Y144.992 E9.38274
G1 X63.125 Y144.972 E11.49518
G1 X61.725 Y144.862 E11.53730
G1 X61.205 Y144.772 E11.55313
G1 X21.015 Y132.522 E12.81332
G1 X19.685 Y132.002 E12.85615
G1 X19.405 Y131.872 E12.86541
G1 X18.865 Y131.562 E12.88409
G1 X17.265 Y130.302 E12.94517
G1 X17.045 Y130.102 E12.95409
G1 X16.635 Y129.652 E12.97235
G1 X15.505 Y128.012 E13.03208
G1 X15.355 Y127.762 E13.04083
G1 X15.105 Y127.232 E13.05840
G1 X14.995 Y126.962 E13.06715
G1 X14.495 Y125.332 E13.11828
G1 X14.425 Y125.042 E13.12723
G1 X14.335 Y124.442 E13.14543
G1 X14.315 Y74.512 E14.64300
G1 X14.335 Y74.212 E14.65202
G1 X14.425 Y73.612 E14.67022
G1 X14.995 Y71.692 E14.73029
G1 X15.225 Y71.152 E14.74789
G1 X15.355 Y70.892 E14.75661
G1 X16.455 Y69.232 E14.81634
G1 X16.855 Y68.752 E14.83508
G1 X17.065 Y68.532 E14.84420
G1 X18.635 Y67.262 E14.90477
G1 X19.125 Y66.942 E14.92232
G1 X19.655 Y66.672 E14.94016
G1 X20.965 Y66.152 E14.98244
G1 X21.610 Y65.937 E15.00284
G1 F1800.000 E14.00284
G92 E0
G1 X104.070 Y101.083 F4200.000
G1 F1800.000 E1.00000
G1 X103.638 Y100.449 F900.000 E1.02299
G1 X103.412 Y99.717 E1.04598
G1 X103.412 Y98.950 E1.06898
G1 X103.638 Y98.218 E1.09197
G1 X104.070 Y97.584 E1.11496
G1 X104.669 Y97.106 E1.13796
G1 X105.383 Y96.826 E1.16095
G1 X106.148 Y96.769 E1.18394
G1 X106.895 Y96.939 E1.20693
G1 X107.559 Y97.323 E1.22993
G1 X108.080 Y97.885 E1.25292
G1 X108.413 Y98.575 E1.27591
G1 X108.527 Y99.333 E1.29890
G1 X108.413 Y100.091 E1.32190
G1 X108.080 Y100.782 E1.34489
G1 X107.559 Y101.344 E1.36788
G1 X106.895 Y101.727 E1.39087
G1 X106.148 Y101.898 E1.41387
G1 X105.383 Y101.841 E1.43686
G1 X104.669 Y101.560 E1.45985
G1 X104.132 Y101.132 E1.48048
G1 X104.452 Y100.728 F4200.000
G1 X104.108 Y100.223 F900.000 E1.49882
G1 X103.928 Y99.639 E1.51715
G1 X103.928 Y99.028 E1.53548
G1 X104.108 Y98.444 E1.55382
G1 X104.452 Y97.939 E1.57215
G1 X104.930 Y97.557 E1.59049
G1 X105.499 Y97.334 E1.60882
G1 X106.109 Y97.288 E1.62716
G1 X106.705 Y97.424 E1.64549
G1 X107.234 Y97.730 E1.66383
G1 X107.650 Y98.178 E1.68216
G1 X107.915 Y98.729 E1.70049
G1 X108.006 Y99.333 E1.71883
G1 X107.915 Y99.938 E1.73716
G1 X107.650 Y100.489 E1.75550
G1 X107.234 Y100.937 E1.77383
G1 X106.705 Y101.242 E1.79217
G1 X106.109 Y101.378 E1.81050
G1 X105.499 Y101.333 E1.82884
G1 X104.930 Y101.109 E1.84717
G1 X104.514 Y100.777 E1.86314
G1 F1800.000 E0.86314
G92 E0
G1 X173.412 Y99.717 F4200.000
G1 F1800.000 E1.00000
G1 X173.412 Y98.950 F900.000 E1.02299
G1 X173.638 Y98.218 E1.04598
G1 X174.070 Y97.584 E1.06898
G1 X174.669 Y97.106 E1.09197
G1 X175.383 Y96.826 E1.11496
G1 X176.148 Y96.769 E1.13795
G1 X176.895 Y96.939 E1.16094
G1 X177.559 Y97.323 E1.18393
G1 X178.080 Y97.885 E1.20693
G1 X178.413 Y98.575 E1.22992
G1 X178.527 Y99.333 E1.25292
G1 X178.413 Y100.091 E1.27591
G1 X178.080 Y100.782 E1.29890
G1 X177.559 Y101.344 E1.32190
G1 X176.895 Y101.727 E1.34489
G1 X176.148 Y101.898 E1.36788
G1 X175.383 Y101.841 E1.39087
G1 X174.669 Y101.560 E1.41386
G1 X174.070 Y101.083 E1.43686
G1 X173.638 Y100.449 E1.45985
G1 X173.436 Y99.792 E1.48048
G1 X173.928 Y99.639 F4200.000
G1 X173.928 Y99.028 F900.000 E1.49881
G1 X174.108 Y98.444 E1.51715
G1 X174.452 Y97.938 E1.53548
G1 X174.930 Y97.557 E1.55382
G1 X175.499 Y97.334 E1.57215
G1 X176.109 Y97.288 E1.59049
G1 X176.705 Y97.424 E1.60882
G1 X177.234 Y97.730 E1.62715
G1 X177.650 Y98.178 E1.64549
G1 X177.915 Y98.729 E1.66383
G1 X178.006 Y99.333 E1.68216
G1 X177.915 Y99.938 E1.70049
G1 X177.650 Y100.489 E1.71883
G1 X177.234 Y100.937 E1.73717
G1 X176.705 Y101.242 E1.75550
G1 X176.109 Y101.378 E1.77383
G1 X175.499 Y101.333 E1.79217
G1 X174.930 Y101.109 E1.81050
G1 X174.452 Y100.728 E1.82884
G1 X174.108 Y100.223 E1.84717
G1 X173.951 Y99.714 E1.86315
G1 F1800.000 E0.86315
G92 E0
G1 X176.167 Y102.544 F4200.000
G1 F1800.000 E1.00000
G1 X106.283 Y102.544 F900.000 E3.09604
G1 X105.240 Y102.466 E3.12741
G1 X104.349 Y102.116 E3.15614
G1 X103.600 Y101.519 E3.18487
G1 X103.060 Y100.728 E3.21361
G1 X102.778 Y99.812 E3.24234
G1 X102.778 Y98.854 E3.27107
G1 X103.060 Y97.939 E3.29980
G1 X103.600 Y97.148 E3.32853
G1 X104.349 Y96.550 E3.35726
G1 X105.240 Y96.200 E3.38599
G1 X106.283 Y96.122 E3.41736
G1 X176.167 Y96.122 E5.51340
G1 X177.129 Y96.342 E5.54302
G1 X177.959 Y96.821 E5.57175
G1 X178.611 Y97.523 E5.60048
G1 X179.026 Y98.386 E5.62921
G1 X179.169 Y99.333 E5.65795
G1 X179.026 Y100.281 E5.68668
G1 X178.611 Y101.144 E5.71541
G1 X177.959 Y101.846 E5.74414
G1 X177.129 Y102.325 E5.77287
G1 X176.243 Y102.527 E5.80013
G1 X176.225 Y103.060 F4200.000
G1 X106.264 Y103.060 F900.000 E7.89848
G1 X105.124 Y102.974 E7.93277
G1 X104.088 Y102.568 E7.96615
G1 X103.218 Y101.873 E7.99954
G1 X102.591 Y100.954 E8.03293
G1 X102.263 Y99.890 E8.06632
G1 X102.263 Y98.777 E8.09971
G1 X102.591 Y97.713 E8.13310
G1 X103.218 Y96.793 E8.16649
G1 X104.088 Y96.099 E8.19988
G1 X105.124 Y95.692 E8.23326
G1 X106.264 Y95.607 E8.26755
G1 X176.225 Y95.607 E10.36590
G1 X177.320 Y95.857 E10.39959
G1 X178.284 Y96.414 E10.43298
G1 X179.041 Y97.230 E10.46637
G1 X179.524 Y98.233 E10.49976
G1 X179.690 Y99.333 E10.53315
G1 X179.524 Y100.434 E10.56654
G1 X179.041 Y101.437 E10.59993
G1 X178.284 Y102.253 E10.63332
G1 X177.320 Y102.810 E10.66670
G1 X176.301 Y103.042 E10.69803
G1 X173.239 Y98.393 F4200.000
G1 X171.335 Y96.489 F1050.000 E10.77901
G1 X170.605 Y96.489 E10.80095
G1 X173.067 Y98.951 E10.90565
G1 X173.045 Y99.659 E10.92695
G1 X169.875 Y96.489 E11.06175
G1 X169.146 Y96.489 E11.08369
G1 X173.245 Y100.588 E11.25800
G1 X174.105 Y102.178 E11.31234
G1 X168.416 Y96.489 E11.55425
G1 X167.686 Y96.489 E11.57619
G1 X173.375 Y102.178 E11.81810
G1 X172.645 Y102.178 E11.84004
G1 X166.956 Y96.489 E12.08195
G1 X166.227 Y96.489 E12.10390
G1 X171.915 Y102.178 E12.34580
G1 X171.186 Y102.178 E12.36775
G1 X165.497 Y96.489 E12.60965
G1 X164.767 Y96.489 E12.63160
G1 X170.456 Y102.178 E12.87350
G1 X169.726 Y102.178 E12.89545
G1 X164.037 Y96.489 E13.13735
G1 X163.308 Y96.489 E13.15930
G1 X168.996 Y102.178 E13.40120
G1 X168.267 Y102.178 E13.42315
G1 X162.578 Y96.489 E13.66505
G1 X161.848 Y96.488 E13.68702
G1 X167.537 Y102.178 E13.92896
G1 X166.807 Y102.178 E13.95090
G1 X161.118 Y96.488 E14.19284
G1 X160.388 Y96.488 E14.21478
G1 X166.077 Y102.178 E14.45672
G1 X165.348 Y102.178 E14.47866
G1 X159.658 Y96.488 E14.72060
G1 X158.929 Y96.488 E14.74254
G1 X164.618 Y102.178 E14.98448
G1 X163.888 Y102.178 E15.00642
G1 X158.199 Y96.488 E15.24836
G1 X157.469 Y96.488 E15.27030
G1 X163.159 Y102.178 E15.51224
G1 X162.429 Y102.178 E15.53418
G1 X156.739 Y96.488 E15.77612
G1 X156.010 Y96.488 E15.79806
G1 X161.699 Y102.178 E16.04000
G1 X160.969 Y102.178 E16.06194
G1 X155.280 Y96.488 E16.30388
G1 X154.550 Y96.488 E16.32582
G1 X160.240 Y102.178 E16.56776
G1 X159.510 Y102.178 E16.58970
G1 X153.820 Y96.488 E16.83164
G1 X153.091 Y96.488 E16.85358
G1 X158.780 Y102.178 E17.09552
G1 X158.050 Y102.178 E17.11746
G1 X152.361 Y96.488 E17.35940
G1 X151.631 Y96.488 E17.38134
G1 X157.321 Y102.178 E17.62328
G1 X156.591 Y102.178 E17.64522
G1 X150.902 Y96.488 E17.88716
G1 X150.172 Y96.488 E17.90910
G1 X155.861 Y102.178 E18.15104
G1 X155.131 Y102.177 E18.17301
G1 X149.442 Y96.488 E18.41491
G1 X148.712 Y96.488 E18.43686
G1 X154.401 Y102.177 E18.67876
G1 X153.671 Y102.177 E18.70071
G1 X147.983 Y96.488 E18.94261
G1 X147.253 Y96.488 E18.96456
G1 X152.942 Y102.177 E19.20646
G1 X152.212 Y102.177 E19.22841
G1 X146.523 Y96.488 E19.47031
G1 X145.793 Y96.489 F4200.000
G1 X151.481 Y102.178 F1050.000 E19.71222
G1 X150.752 Y102.178 E19.73416
G1 X145.063 Y96.489 E19.97607
G1 X144.333 Y96.489 E19.99801
G1 X150.022 Y102.178 E20.23992
G1 X149.292 Y102.178 E20.26187
G1 X143.604 Y96.489 E20.50377
G1 X142.874 Y96.489 E20.52572
G1 X148.562 Y102.178 E20.76762
G1 X147.833 Y102.178 E20.78957
G1 X142.144 Y96.489 E21.03147
G1 X141.414 Y96.489 E21.05342
G1 X147.103 Y102.178 E21.29532
G1 X146.373 Y102.178 E21.31727
G1 X140.685 Y96.489 E21.55917
G1 X139.955 Y96.489 E21.58112
G1 X145.644 Y102.178 E21.82302
G1 X144.914 Y102.178 E21.84497
G1 X139.225 Y96.489 E22.08687
G1 X138.495 Y96.489 E22.10882
G1 X144.184 Y102.178 E22.35072
G1 X143.454 Y102.178 E22.37267
G1 X137.766 Y96.489 E22.61458
G1 X137.036 Y96.489 E22.63652
G1 X142.725 Y102.178 E22.87843
G1 X141.995 Y102.178 E22.90037
G1 X136.306 Y96.489 E23.14228
G1 X135.576 Y96.489 E23.16422
G1 X141.265 Y102.178 E23.40613
G1 X140.535 Y102.178 E23.42807
G1 X134.847 Y96.489 E23.66998
G1 X134.117 Y96.489 E23.69192
G1 X139.806 Y102.178 E23.93383
G1 X139.076 Y102.178 E23.95577
G1 X133.387 Y96.489 E24.19768
G1 X132.657 Y96.489 E24.21962
G1 X138.346 Y102.178 E24.46153
G1 X137.616 Y102.178 E24.48347
G1 X131.928 Y96.489 E24.72538
G1 X131.198 Y96.489 E24.74732
G1 X136.887 Y102.178 E24.98923
G1 X136.157 Y102.178 E25.01117
G1 X130.468 Y96.489 E25.25308
G1 X129.739 Y96.489 E25.27502
G1 X135.427 Y102.178 E25.51693
G1 X134.697 Y102.178 E25.53887
G1 X129.009 Y96.489 E25.78078
G1 X128.279 Y96.489 E25.80272
G1 X133.968 Y102.178 E26.04463
G1 X133.238 Y102.178 E26.06657
G1 X127.549 Y96.489 E26.30848
G1 X126.820 Y96.489 E26.33042
G1 X132.508 Y102.178 E26.57233
G1 X131.779 Y102.178 E26.59427
G1 X126.090 Y96.489 E26.83618
G1 X125.360 Y96.489 E26.85812
G1 X131.049 Y102.178 E27.10003
G1 X130.319 Y102.178 E27.12197
G1 X124.630 Y96.488 E27.36391
G1 X123.900 Y96.488 E27.38585
G1 X129.589 Y102.178 E27.62779
G1 X128.860 Y102.178 E27.64973
G1 X123.170 Y96.488 E27.89167
G1 X122.441 Y96.488 E27.91361
G1 X128.130 Y102.178 E28.15555
G1 X127.400 Y102.178 E28.17749
G1 X121.711 Y96.488 E28.41943
G1 X120.981 Y96.488 E28.44137
G1 X126.670 Y102.178 E28.68331
G1 X125.941 Y102.178 E28.70525
G1 X120.251 Y96.488 E28.94719
G1 X119.522 Y96.488 E28.96914
G1 X125.211 Y102.178 E29.21107
G1 X124.481 Y102.178 E29.23302
G1 X118.792 Y96.488 E29.47495
G1 X118.062 Y96.488 E29.49690
G1 X123.751 Y102.178 E29.73883
G1 X123.022 Y102.178 E29.76078
G1 X117.332 Y96.488 E30.00271
G1 X116.603 Y96.488 E30.02466
G1 X122.292 Y102.178 E30.26659
G1 X121.562 Y102.178 E30.28854
G1 X115.873 Y96.488 E30.53047
G1 X115.143 Y96.488 E30.55242
G1 X120.833 Y102.178 E30.79436
G1 X120.103 Y102.178 E30.81630
G1 X114.413 Y96.488 E31.05824
G1 X113.684 Y96.488 E31.08018
G1 X119.373 Y102.178 E31.32212
G1 X118.643 Y102.178 E31.34406
G1 X112.954 Y96.488 E31.58600
G1 X112.224 Y96.488 E31.60794
G1 X117.914 Y102.178 E31.84988
G1 X117.183 Y102.177 E31.87184
G1 X111.494 Y96.488 E32.11375
G1 X110.765 Y96.488 E32.13569
G1 X116.453 Y102.177 E32.37760
G1 X115.724 Y102.177 E32.39954
G1 X110.035 Y96.488 E32.64145
G1 X109.305 Y96.489 E32.66339
G1 X114.994 Y102.177 E32.90529
G1 X114.264 Y102.177 E32.92724
G1 X108.576 Y96.489 E33.16914
G1 X107.845 Y96.489 F4200.000
G1 X113.534 Y102.178 F1050.000 E33.41105
G1 X108.426 Y102.178 F4200.000
G1 X107.791 Y101.543 F1050.000 E33.43805
G1 X108.142 Y101.165 F4200.000
G1 X109.155 Y102.178 F1050.000 E33.48114
G1 X109.885 Y102.178 E33.50308
G1 X108.450 Y100.743 E33.56409
G1 X108.688 Y100.251 E33.58053
G1 X110.615 Y102.178 E33.66247
G1 X111.345 Y102.178 E33.68441
G1 X108.827 Y99.661 E33.79145
G1 X108.867 Y98.970 E33.81224
G1 X112.074 Y102.178 E33.94864
G1 X112.804 Y102.178 E33.97058
G1 X108.634 Y98.007 E34.14793
G1 F1800.000 E33.14793
G92 E0
G1 X173.479 Y97.903 F4200.000
G1 F1800.000 E1.00000
G1 X172.065 Y96.489 F1050.000 E1.06014
G1 X172.794 Y96.489 E1.08208
G1 X173.774 Y97.469 E1.12376
G1 X174.158 Y97.123 F4200.000
G1 X173.524 Y96.489 F1050.000 E1.15070
G1 F1800.000 E0.15070
G92 E0
G1 X26.572 Y99.333 F4200.000
G1 F1800.000 E1.00000
G1 X26.457 Y100.091 F900.000 E1.02299
G1 X26.125 Y100.782 E1.04598
G1 X25.603 Y101.344 E1.06898
G1 X24.940 Y101.727 E1.09197
G1 X24.192 Y101.898 E1.11496
G1 X23.428 Y101.841 E1.13796
G1 X22.714 Y101.560 E1.16095
G1 X22.115 Y101.083 E1.18394
G1 X21.683 Y100.449 E1.20693
G1 X21.457 Y99.717 E1.22993
G1 X21.457 Y98.950 E1.25292
G1 X21.683 Y98.218 E1.27591
G1 X22.115 Y97.584 E1.29890
G1 X22.714 Y97.106 E1.32190
G1 X23.428 Y96.826 E1.34489
G1 X24.192 Y96.769 E1.36788
G1 X24.940 Y96.939 E1.39087
G1 X25.603 Y97.323 E1.41387
G1 X26.125 Y97.885 E1.43686
G1 X26.457 Y98.575 E1.45985
G1 X26.560 Y99.255 E1.48048
G1 X26.051 Y99.333 F4200.000
G1 X25.960 Y99.938 F900.000 E1.49882
G1 X25.694 Y100.489 E1.51715
G1 X25.279 Y100.937 E1.53548
G1 X24.749 Y101.242 E1.55382
G1 X24.153 Y101.378 E1.57215
G1 X23.544 Y101.333 E1.59049
G1 X22.975 Y101.109 E1.60882
G1 X22.497 Y100.728 E1.62716
G1 X22.152 Y100.223 E1.64549
G1 X21.972 Y99.639 E1.66383
G1 X21.972 Y99.028 E1.68216
G1 X22.152 Y98.444 E1.70050
G1 X22.497 Y97.939 E1.71883
G1 X22.975 Y97.557 E1.73716
G1 X23.544 Y97.334 E1.75550
G1 X24.153 Y97.288 E1.77383
G1 X24.749 Y97.424 E1.79217
G1 X25.279 Y97.730 E1.81050
G1 X25.694 Y98.178 E1.82884
G1 X25.960 Y98.729 E1.84717
G1 X26.039 Y99.255 E1.86314
G1 F1800.000 E0.86314
G92 E0
G1 X91.457 Y98.950 F4200.000
G1 F1800.000 E1.00000
G1 X91.683 Y98.218 F900.000 E1.02299
G1 X92.115 Y97.584 E1.04599
G1 X92.714 Y97.106 E1.06898
G1 X93.428 Y96.826 E1.09197
G1 X94.192 Y96.769 E1.11497
G1 X94.940 Y96.939 E1.13796
G1 X95.603 Y97.323 E1.16095
G1 X96.125 Y97.885 E1.18394
G1 X96.458 Y98.575 E1.20694
G1 X96.572 Y99.333 E1.22993
G1 X96.458 Y100.091 E1.25292
G1 X96.125 Y100.782 E1.27592
G1 X95.603 Y101.344 E1.29891
G1 X94.940 Y101.727 E1.32190
G1 X94.192 Y101.898 E1.34489
G1 X93.428 Y101.841 E1.36789
G1 X92.714 Y101.560 E1.39088
G1 X92.115 Y101.083 E1.41387
G1 X91.683 Y100.449 E1.43687
G1 X91.457 Y99.717 E1.45986
G1 X91.457 Y99.029 E1.48048
G1 X91.972 Y99.028 F4200.000
G1 X92.152 Y98.444 F900.000 E1.49882
G1 X92.497 Y97.938 E1.51715
G1 X92.975 Y97.557 E1.53549
G1 X93.544 Y97.334 E1.55382
G1 X94.153 Y97.288 E1.57216
G1 X94.749 Y97.424 E1.59049
G1 X95.279 Y97.730 E1.60882
G1 X95.694 Y98.178 E1.62716
G1 X95.960 Y98.729 E1.64550
G1 X96.051 Y99.333 E1.66383
G1 X95.960 Y99.938 E1.68216
G1 X95.694 Y100.489 E1.70050
G1 X95.279 Y100.937 E1.71884
G1 X94.749 Y101.242 E1.73717
G1 X94.153 Y101.378 E1.75550
G1 X93.544 Y101.333 E1.77384
G1 X92.975 Y101.109 E1.79217
G1 X92.497 Y100.728 E1.81051
G1 X92.152 Y100.223 E1.82884
G1 X91.972 Y99.639 E1.84718
G1 X91.972 Y99.106 E1.86315
G1 F1800.000 E0.86315
G92 E0
G1 X94.211 Y96.122 F4200.000
G1 F1800.000 E1.00000
G1 X95.174 Y96.342 F900.000 E1.02962
G1 X96.004 Y96.821 E1.05835
G1 X96.655 Y97.523 E1.08708
G1 X97.071 Y98.386 E1.11581
G1 X97.214 Y99.333 E1.14454
G1 X97.071 Y100.281 E1.17327
