; generated by Slic3r 0.7.3-dev on 2012-05-14 at 15:43:42

; layer_height = 0.4
; perimeters = 2
; solid_layers = 3
; fill_density = 0.15
; nozzle_diameter = 0.5
; filament_diameter = 3
; extrusion_multiplier = 1.02
; perimeter_speed = 30
; infill_speed = 40
; travel_speed = 70
; extrusion_width_ratio = 0
; scale = 1
; single wall width = 0.53mm

M104 S200 ; set temperature
M106
M104 S230
G28
M140 S60
G1 X205 Y105 F2000
M109 S230
G92 E0
G1 E5 F50
G1 X205 Y90 F2000
G90 ; use absolute coordinates
G21 ; set units to millimeters
G92 E0 ; reset extrusion distance
M82 ; use absolute distances for extrusion
G1 Z0.400 F4200.000
G1 X78.724 Y79.157
G1 F1800.000 E1.00000
G1 X84.494 Y74.567 F900.000 E1.22114
G1 X84.994 Y74.237 E1.23911
G1 X85.804 Y73.847 E1.26607
G1 X92.674 Y71.167 E1.48725
G1 X92.964 Y71.077 E1.49636
G1 X93.544 Y70.947 E1.51419
G1 X101.484 Y70.327 E1.75306
G1 X101.784 Y70.327 E1.76206
G1 X102.674 Y70.417 E1.78889
G1 X110.154 Y72.117 E2.01896
G1 X110.724 Y72.307 E2.03698
G1 X111.274 Y72.557 E2.05510
G1 X117.924 Y76.397 E2.28542
G1 X118.404 Y76.747 E2.30324
G1 X118.634 Y76.937 E2.31219
G1 X124.074 Y82.777 E2.55157
G1 X124.434 Y83.247 E2.56933
G1 X124.744 Y83.757 E2.58723
G1 X128.074 Y90.667 E2.81730
G1 X128.184 Y90.947 E2.82632
G1 X128.364 Y91.517 E2.84425
G1 X129.564 Y99.407 E3.08362
G1 X129.594 Y99.997 E3.10134
G1 X129.564 Y100.597 E3.11935
G1 X128.424 Y108.177 E3.34926
G1 X128.364 Y108.467 E3.35814
G1 X128.184 Y109.037 E3.37607
G1 X127.954 Y109.587 E3.39395
G1 X124.744 Y116.237 E3.61543
G1 X124.434 Y116.747 E3.63333
G1 X124.074 Y117.227 E3.65133
G1 X118.854 Y122.847 E3.88138
G1 X118.404 Y123.237 E3.89925
G1 X117.924 Y123.587 E3.91706
G1 X111.274 Y127.427 E4.14738
G1 X111.004 Y127.557 E4.15637
G1 X110.444 Y127.777 E4.17442
G1 X102.684 Y129.577 E4.41335
G1 X101.784 Y129.667 E4.44048
G1 X101.484 Y129.667 E4.44947
G1 X93.834 Y129.087 E4.67958
G1 X93.544 Y129.047 E4.68836
G1 X92.954 Y128.917 E4.70648
G1 X92.674 Y128.827 E4.71530
G1 X85.524 Y126.017 E4.94572
G1 X84.994 Y125.747 E4.96357
G1 X84.734 Y125.587 E4.97272
G1 X78.494 Y120.637 E5.21162
G1 X78.274 Y120.437 E5.22054
G1 X77.684 Y119.767 E5.24731
G1 X73.354 Y113.427 E5.47759
G1 X73.064 Y112.897 E5.49571
G1 X72.834 Y112.347 E5.51359
G1 X70.574 Y105.017 E5.74365
G1 X70.424 Y104.137 E5.77043
G1 X70.404 Y96.157 E6.00978
G1 X70.424 Y95.857 E6.01879
G1 X70.514 Y95.267 E6.03670
G1 X70.574 Y94.977 E6.04558
G1 X72.834 Y87.647 E6.27564
G1 X73.064 Y87.097 E6.29352
G1 X73.354 Y86.567 E6.31164
G1 X77.864 Y79.987 E6.55091
G1 X78.274 Y79.547 E6.56895
G1 X78.663 Y79.207 E6.58445
G1 F1800.000 E5.58445
G92 E0
G1 X109.833 Y86.543 F4200.000
G1 F1800.000 E1.00000
G1 X110.102 Y85.669 F900.000 E1.02743
G1 X110.617 Y84.914 E1.05484
G1 X111.332 Y84.344 E1.08227
G1 X112.183 Y84.009 E1.10970
G1 X113.095 Y83.941 E1.13712
G1 X113.987 Y84.145 E1.16454
G1 X114.778 Y84.602 E1.19197
G1 X115.400 Y85.272 E1.21940
G1 X115.797 Y86.096 E1.24681
G1 X115.933 Y87.000 E1.27424
G1 X115.797 Y87.904 E1.30166
G1 X115.400 Y88.728 E1.32908
G1 X114.778 Y89.398 E1.35651
G1 X113.987 Y89.855 E1.38393
G1 X113.095 Y90.059 E1.41136
G1 X112.183 Y89.991 E1.43878
G1 X111.332 Y89.656 E1.46621
G1 X110.617 Y89.086 E1.49363
G1 X110.102 Y88.331 E1.52105
G1 X109.833 Y87.457 E1.54848
G1 X109.833 Y86.622 E1.57354
G1 X110.348 Y86.620 F4200.000
G1 X110.572 Y85.895 F900.000 E1.59631
G1 X110.999 Y85.268 E1.61907
G1 X111.593 Y84.795 E1.64184
G1 X112.299 Y84.517 E1.66461
G1 X113.056 Y84.461 E1.68738
G1 X113.796 Y84.630 E1.71014
G1 X114.454 Y85.009 E1.73291
G1 X114.970 Y85.566 E1.75567
G1 X115.299 Y86.249 E1.77844
G1 X115.412 Y87.000 E1.80120
G1 X115.299 Y87.751 E1.82397
G1 X114.970 Y88.434 E1.84673
G1 X114.454 Y88.991 E1.86950
G1 X113.796 Y89.370 E1.89227
G1 X113.056 Y89.539 E1.91503
G1 X112.299 Y89.483 E1.93780
G1 X111.593 Y89.205 E1.96057
G1 X110.999 Y88.732 E1.98333
G1 X110.572 Y88.105 E2.00610
G1 X110.348 Y87.380 E2.02886
G1 X110.348 Y86.699 E2.04927
G1 F1800.000 E1.04927
G92 E0
G1 X89.933 Y87.000 F4200.000
G1 F1800.000 E1.00000
G1 X89.797 Y87.904 F900.000 E1.02742
G1 X89.400 Y88.728 E1.05484
G1 X88.778 Y89.398 E1.08227
G1 X87.987 Y89.855 E1.10970
G1 X87.095 Y90.059 E1.13712
G1 X86.183 Y89.991 E1.16454
G1 X85.332 Y89.656 E1.19197
G1 X84.617 Y89.086 E1.21940
G1 X84.102 Y88.331 E1.24681
G1 X83.833 Y87.457 E1.27424
G1 X83.833 Y86.543 E1.30167
G1 X84.102 Y85.669 E1.32909
G1 X84.617 Y84.914 E1.35651
G1 X85.332 Y84.344 E1.38394
G1 X86.183 Y84.009 E1.41137
G1 X87.095 Y83.941 E1.43879
G1 X87.987 Y84.145 E1.46621
G1 X88.778 Y84.602 E1.49363
G1 X89.400 Y85.272 E1.52106
G1 X89.797 Y86.096 E1.54848
G1 X89.922 Y86.922 E1.57354
G1 X89.412 Y87.000 F4200.000
G1 X89.299 Y87.751 F900.000 E1.59631
G1 X88.970 Y88.434 E1.61907
G1 X88.454 Y88.991 E1.64184
G1 X87.796 Y89.370 E1.66461
G1 X87.056 Y89.539 E1.68737
G1 X86.299 Y89.483 E1.71014
G1 X85.593 Y89.205 E1.73291
G1 X84.999 Y88.732 E1.75567
G1 X84.572 Y88.105 E1.77844
G1 X84.348 Y87.380 E1.80120
G1 X84.348 Y86.620 E1.82397
G1 X84.572 Y85.895 E1.84674
G1 X84.999 Y85.268 E1.86950
G1 X85.593 Y84.795 E1.89227
G1 X86.299 Y84.517 E1.91504
G1 X87.056 Y84.461 E1.93780
G1 X87.796 Y84.630 E1.96057
G1 X88.454 Y85.009 E1.98333
G1 X88.970 Y85.566 E2.00610
G1 X89.299 Y86.249 E2.02887
G1 X89.401 Y86.922 E2.04927
G1 F1800.000 E1.04927
G92 E0
G1 X87.095 Y109.941 F4200.000
G1 F1800.000 E1.00000
G1 X87.987 Y110.145 F900.000 E1.02742
G1 X88.778 Y110.602 E1.05484
G1 X89.400 Y111.272 E1.08227
G1 X89.797 Y112.096 E1.10969
G1 X89.933 Y113.000 E1.13712
G1 X89.797 Y113.904 E1.16454
G1 X89.400 Y114.728 E1.19196
G1 X88.778 Y115.398 E1.21939
G1 X87.987 Y115.855 E1.24681
G1 X87.095 Y116.059 E1.27423
G1 X86.183 Y115.991 E1.30166
G1 X85.332 Y115.656 E1.32909
G1 X84.617 Y115.086 E1.35651
G1 X84.102 Y114.331 E1.38393
G1 X83.833 Y113.457 E1.41136
G1 X83.833 Y112.543 E1.43878
G1 X84.102 Y111.669 E1.46621
G1 X84.617 Y110.914 E1.49363
G1 X85.332 Y110.344 E1.52105
G1 X86.183 Y110.009 E1.54848
G1 X87.017 Y109.947 E1.57354
G1 X87.056 Y110.461 F4200.000
G1 X87.796 Y110.630 F900.000 E1.59631
G1 X88.454 Y111.009 E1.61907
G1 X88.970 Y111.566 E1.64184
G1 X89.299 Y112.249 E1.66461
G1 X89.412 Y113.000 E1.68737
G1 X89.299 Y113.751 E1.71014
G1 X88.970 Y114.434 E1.73290
G1 X88.454 Y114.991 E1.75567
G1 X87.796 Y115.370 E1.77843
G1 X87.056 Y115.539 E1.80120
G1 X86.299 Y115.483 E1.82397
G1 X85.593 Y115.205 E1.84673
G1 X84.999 Y114.732 E1.86950
G1 X84.572 Y114.105 E1.89226
G1 X84.348 Y113.380 E1.91503
G1 X84.348 Y112.620 E1.93780
G1 X84.572 Y111.895 E1.96057
G1 X84.999 Y111.268 E1.98333
G1 X85.593 Y110.795 E2.00610
G1 X86.299 Y110.517 E2.02887
G1 X86.978 Y110.467 E2.04927
G1 F1800.000 E1.04927
G92 E0
G1 X89.760 Y109.377 F4200.000
G1 F1800.000 E1.00000
G1 X87.445 Y105.982 F900.000 E1.12326
G1 X86.233 Y102.055 E1.24652
G1 X86.233 Y97.945 E1.36978
G1 X87.445 Y94.018 E1.49304
G1 X89.760 Y90.623 E1.61630
G1 X92.973 Y88.061 E1.73955
G1 X96.798 Y86.559 E1.86281
G1 X100.896 Y86.252 E1.98607
G1 X104.903 Y87.166 E2.10933
G1 X108.462 Y89.221 E2.23259
G1 X111.257 Y92.234 E2.35585
G1 X113.040 Y95.936 E2.47911
G1 X113.652 Y100.000 E2.60237
G1 X113.040 Y104.064 E2.72563
G1 X111.257 Y107.766 E2.84888
G1 X108.462 Y110.779 E2.97214
G1 X104.903 Y112.834 E3.09540
G1 X100.896 Y113.748 E3.21866
G1 X96.798 Y113.441 E3.34192
G1 X92.973 Y111.939 E3.46518
G1 X89.821 Y109.426 E3.58608
G1 X90.142 Y109.023 F4200.000
G1 X87.914 Y105.756 F900.000 E3.70468
G1 X86.749 Y101.977 E3.82328
G1 X86.749 Y98.023 E3.94188
G1 X87.914 Y94.244 E4.06048
G1 X90.142 Y90.977 E4.17908
G1 X93.233 Y88.512 E4.29768
G1 X96.914 Y87.067 E4.41628
G1 X100.857 Y86.772 E4.53488
G1 X104.712 Y87.651 E4.65348
G1 X108.137 Y89.629 E4.77209
G1 X110.826 Y92.527 E4.89069
G1 X112.542 Y96.090 E5.00929
G1 X113.131 Y100.000 E5.12789
G1 X112.542 Y103.910 E5.24649
G1 X110.826 Y107.473 E5.36509
G1 X108.137 Y110.371 E5.48369
G1 X104.712 Y112.349 E5.60229
G1 X100.857 Y113.228 E5.72089
G1 X96.914 Y112.933 E5.83949
G1 X93.233 Y111.488 E5.95809
G1 X90.203 Y109.072 E6.07433
G1 F1800.000 E5.07433
G92 E0
G1 X109.833 Y112.543 F4200.000
G1 F1800.000 E1.00000
G1 X110.102 Y111.669 F900.000 E1.02743
G1 X110.617 Y110.914 E1.05484
G1 X111.332 Y110.344 E1.08227
G1 X112.183 Y110.009 E1.10970
G1 X113.095 Y109.941 E1.13712
G1 X113.987 Y110.145 E1.16454
G1 X114.778 Y110.602 E1.19197
G1 X115.400 Y111.272 E1.21940
G1 X115.797 Y112.096 E1.24681
G1 X115.933 Y113.000 E1.27424
G1 X115.797 Y113.904 E1.30166
G1 X115.400 Y114.728 E1.32908
G1 X114.778 Y115.398 E1.35651
G1 X113.987 Y115.855 E1.38393
G1 X113.095 Y116.059 E1.41136
G1 X112.183 Y115.991 E1.43878
G1 X111.332 Y115.656 E1.46621
G1 X110.617 Y115.086 E1.49363
G1 X110.102 Y114.331 E1.52105
G1 X109.833 Y113.457 E1.54848
G1 X109.833 Y112.622 E1.57354
G1 X110.348 Y112.620 F4200.000
G1 X110.572 Y111.895 F900.000 E1.59631
G1 X110.999 Y111.268 E1.61907
G1 X111.593 Y110.795 E1.64184
G1 X112.299 Y110.517 E1.66461
G1 X113.056 Y110.461 E1.68738
G1 X113.796 Y110.630 E1.71014
G1 X114.454 Y111.009 E1.73291
G1 X114.970 Y111.566 E1.75567
G1 X115.299 Y112.249 E1.77844
G1 X115.412 Y113.000 E1.80120
G1 X115.299 Y113.751 E1.82397
G1 X114.970 Y114.434 E1.84673
G1 X114.454 Y114.991 E1.86950
G1 X113.796 Y115.370 E1.89227
G1 X113.056 Y115.539 E1.91503
G1 X112.299 Y115.483 E1.93780
G1 X111.593 Y115.205 E1.96057
G1 X110.999 Y114.732 E1.98333
G1 X110.572 Y114.105 E2.00610
G1 X110.348 Y113.380 E2.02886
G1 X110.348 Y112.699 E2.04927
G1 F1800.000 E1.04927
G92 E0
G1 X114.339 Y118.149 F4200.000
G1 F1800.000 E1.00000
G1 X108.347 Y121.609 F900.000 E1.20754
G1 X101.601 Y123.149 E1.41509
G1 X94.700 Y122.632 E1.62263
G1 X88.259 Y120.104 E1.83017
G1 X82.849 Y115.789 E2.03771
G1 X78.951 Y110.072 E2.24526
G1 X76.912 Y103.460 E2.45280
G1 X76.912 Y96.540 E2.66034
G1 X78.951 Y89.928 E2.86788
G1 X82.849 Y84.211 E3.07542
G1 X88.259 Y79.896 E3.28297
G1 X94.700 Y77.368 E3.49051
G1 X101.601 Y76.851 E3.69805
G1 X108.347 Y78.391 E3.90559
G1 X114.339 Y81.851 E4.11314
G1 X119.046 Y86.923 E4.32068
G1 X122.048 Y93.158 E4.52822
G1 X123.079 Y100.000 E4.73576
G1 X122.048 Y106.842 E4.94331
G1 X119.046 Y113.077 E5.15085
G1 X114.393 Y118.091 E5.35603
G1 X114.664 Y118.556 F4200.000
G1 X108.537 Y122.094 F900.000 E5.56823
G1 X101.640 Y123.668 E5.78043
G1 X94.585 Y123.139 E5.99263
G1 X87.999 Y120.555 E6.20483
G1 X82.467 Y116.144 E6.41703
G1 X78.482 Y110.298 E6.62923
G1 X76.397 Y103.537 E6.84143
G1 X76.397 Y96.463 E7.05363
G1 X78.482 Y89.702 E7.26583
G1 X82.467 Y83.856 E7.47803
G1 X87.999 Y79.445 E7.69023
G1 X94.585 Y76.861 E7.90243
G1 X101.640 Y76.332 E8.11463
G1 X108.537 Y77.906 E8.32683
G1 X114.664 Y81.444 E8.53904
G1 X119.476 Y86.630 E8.75124
G1 X122.546 Y93.004 E8.96344
G1 X123.600 Y100.000 E9.17564
G1 X122.546 Y106.996 E9.38784
G1 X119.476 Y113.370 E9.60004
G1 X114.718 Y118.499 E9.80988
G1 X114.059 Y117.950 F4200.000
G1 X112.503 Y116.394 F1050.000 E9.87657
G1 X111.601 Y116.225 F4200.000
G1 X113.594 Y118.219 F1050.000 E9.96198
G1 X113.129 Y118.487 F4200.000
G1 X106.763 Y112.120 F1050.000 E10.23476
G1 X106.298 Y112.389 F4200.000
G1 X112.665 Y118.755 F1050.000 E10.50754
G1 X112.200 Y119.024 F4200.000
G1 X105.833 Y112.657 F1050.000 E10.78033
G1 X105.368 Y112.925 F4200.000
G1 X111.735 Y119.292 F1050.000 E11.05311
G1 X111.270 Y119.561 F4200.000
G1 X104.891 Y113.182 F1050.000 E11.32640
G1 X104.294 Y113.318 F4200.000
G1 X110.805 Y119.829 F1050.000 E11.60535
G1 X110.340 Y120.097 F4200.000
G1 X103.697 Y113.455 F1050.000 E11.88996
G1 X103.100 Y113.591 F4200.000
G1 X109.875 Y120.366 F1050.000 E12.18023
G1 X109.410 Y120.634 F4200.000
G1 X102.503 Y113.727 F1050.000 E12.47617
G1 X101.906 Y113.863 F4200.000
G1 X108.945 Y120.903 F1050.000 E12.77776
G1 X108.481 Y121.171 F4200.000
G1 X101.309 Y114.000 F1050.000 E13.08502
G1 X100.688 Y114.111 F4200.000
G1 X107.933 Y121.357 F1050.000 E13.39547
G1 X107.336 Y121.493 F4200.000
G1 X99.895 Y114.052 F1050.000 E13.71429
G1 X99.102 Y113.993 F4200.000
G1 X106.739 Y121.630 F1050.000 E14.04150
G1 X106.142 Y121.766 F4200.000
G1 X98.310 Y113.933 F1050.000 E14.37709
G1 X97.517 Y113.874 F4200.000
G1 X105.545 Y121.902 F1050.000 E14.72106
G1 X104.948 Y122.039 F4200.000
G1 X96.724 Y113.815 F1050.000 E15.07342
G1 X95.617 Y113.440 F4200.000
G1 X104.351 Y122.175 F1050.000 E15.44765
G1 X103.754 Y122.311 F4200.000
G1 X94.410 Y112.967 F1050.000 E15.84801
G1 X93.203 Y112.493 F4200.000
G1 X103.157 Y122.447 F1050.000 E16.27450
G1 X101.253 Y122.743 F4200.000
G1 X90.000 Y111.490 F1050.000 E16.75665
G1 X90.249 Y112.472 F4200.000
G1 X100.461 Y122.684 F1050.000 E17.19418
G1 X99.668 Y122.625 F4200.000
G1 X90.252 Y113.209 F1050.000 E17.59761
G1 X90.156 Y113.846 F4200.000
G1 X98.875 Y122.565 F1050.000 E17.97119
G1 X98.082 Y122.506 F4200.000
G1 X89.932 Y114.355 F1050.000 E18.32041
G1 X89.693 Y114.850 F4200.000
G1 X97.290 Y122.446 F1050.000 E18.64588
G1 X96.497 Y122.387 F4200.000
G1 X89.346 Y115.236 F1050.000 E18.95228
G1 X88.993 Y115.616 F4200.000
G1 X95.704 Y122.328 F1050.000 E19.23983
G1 X94.884 Y122.240 F4200.000
G1 X88.540 Y115.896 F1050.000 E19.51164
G1 X88.075 Y116.165 F4200.000
G1 X93.677 Y121.767 F1050.000 E19.75165
G1 X92.470 Y121.293 F4200.000
G1 X87.491 Y116.314 F1050.000 E19.96495
G1 X86.864 Y116.421 F4200.000
G1 X91.263 Y120.819 F1050.000 E20.15340
G1 X90.056 Y120.345 F4200.000
G1 X86.072 Y116.361 F1050.000 E20.32410
G1 X85.589 Y117.345 F4200.000
G1 X82.124 Y113.880 F1050.000 E20.47257
G1 X83.498 Y113.788 F4200.000
G1 X79.212 Y109.501 F1050.000 E20.65624
G1 X78.885 Y108.441 E20.68986
G1 X83.466 Y113.022 E20.88616
G1 X83.543 Y112.366 F4200.000
G1 X78.557 Y107.380 F1050.000 E21.09975
G1 X78.230 Y106.320 E21.13336
G1 X83.716 Y111.805 E21.36837
G1 X83.965 Y111.322 F4200.000
G1 X77.903 Y105.260 F1050.000 E21.62810
G1 X77.576 Y104.199 E21.66172
G1 X84.263 Y110.886 E21.94820
G1 X84.625 Y110.515 F4200.000
G1 X77.278 Y103.168 F1050.000 E22.26298
G1 X77.278 Y102.435 E22.28520
G1 X85.033 Y110.190 E22.61746
G1 X85.506 Y109.929 F4200.000
G1 X77.278 Y101.702 F1050.000 E22.96995
G1 X77.278 Y100.968 E22.99217
G1 X86.032 Y109.722 E23.36723
G1 X86.660 Y109.617 F4200.000
G1 X77.278 Y100.235 F1050.000 E23.76919
G1 X77.278 Y99.502 E23.79141
G1 X87.366 Y109.589 E24.22360
G1 X88.316 Y109.806 E24.25313
G1 X77.278 Y98.768 E24.72604
G1 X77.278 Y98.035 E24.74825
G1 X101.963 Y122.720 E25.80587
G1 X102.560 Y122.584 E25.82442
G1 X90.860 Y110.883 E26.32572
G1 X88.819 Y108.842 F4200.000
G1 X77.278 Y97.302 F1050.000 E26.82017
G1 X79.371 Y89.861 F4200.000
G1 X86.258 Y96.748 F1050.000 E27.11525
G1 X86.085 Y97.309 E27.13302
G1 X79.157 Y90.380 E27.42987
G1 X78.984 Y90.941 E27.44763
G1 X85.912 Y97.869 E27.74448
G1 X85.867 Y98.557 E27.76537
G1 X78.811 Y91.501 E28.06769
G1 X78.638 Y92.062 E28.08545
G1 X85.867 Y99.291 E28.39517
G1 X85.867 Y100.024 E28.41739
G1 X78.465 Y92.622 E28.73452
G1 X78.292 Y93.183 E28.75228
G1 X85.867 Y100.757 E29.07682
G1 X85.867 Y101.490 E29.09903
G1 X78.119 Y93.743 E29.43097
G1 X77.946 Y94.303 E29.44874
G1 X85.867 Y102.224 E29.78809
G1 X86.168 Y103.259 E29.82075
G1 X77.774 Y94.864 E30.18042
G1 X77.601 Y95.424 E30.19819
G1 X86.495 Y104.319 E30.57928
G1 X86.823 Y105.379 E30.61290
G1 X77.428 Y95.985 E31.01541
G1 X77.278 Y96.569 E31.03367
G1 X87.248 Y106.538 E31.46080
G1 X80.553 Y111.576 F4200.000
G1 X83.993 Y115.016 F1050.000 E31.60822
G1 X84.945 Y115.968 F4200.000
G1 X88.849 Y119.872 F1050.000 E31.77549
G1 F1800.000 E30.77549
G92 E0
G1 X107.228 Y111.852 F4200.000
G1 F1800.000 E1.00000
G1 X109.648 Y114.272 F1050.000 E1.10369
G1 X109.466 Y113.357 F4200.000
G1 X107.693 Y111.583 F1050.000 E1.17968
G1 X108.157 Y111.315 F4200.000
G1 X109.466 Y112.624 F1050.000 E1.23575
G1 X109.637 Y112.061 F4200.000
G1 X108.622 Y111.047 F1050.000 E1.27921
G1 X108.979 Y110.670 F4200.000
G1 X109.830 Y111.521 F1050.000 E1.31566
G1 X110.127 Y111.085 F4200.000
G1 X109.332 Y110.290 F1050.000 E1.34973
G1 X109.685 Y109.909 F4200.000
G1 X110.439 Y110.664 F1050.000 E1.38205
G1 X110.847 Y110.338 F4200.000
G1 X110.038 Y109.529 F1050.000 E1.41673
G1 X110.391 Y109.149 F4200.000
G1 X111.265 Y110.023 F1050.000 E1.45420
G1 X111.792 Y109.817 F4200.000
G1 X110.744 Y108.768 F1050.000 E1.49911
G1 X111.097 Y108.388 F4200.000
G1 X112.349 Y109.640 F1050.000 E1.55277
