; generated by Slic3r 0.7.3-dev on 2012-05-14 at 16:01:40

; layer_height = 0.4
; perimeters = 2
; solid_layers = 3
; fill_density = 0.15
; nozzle_diameter = 0.5
; filament_diameter = 3
; extrusion_multiplier = 1.02
; perimeter_speed = 30
; infill_speed = 40
; travel_speed = 70
; extrusion_width_ratio = 0
; scale = 1
; single wall width = 0.53mm

M104 S200 ; set temperature
M106
M104 S230
G28
M140 S60
G1 X205 Y105 F4000
M109 S230
G92 E0
G1 E5 F50
G1 X205 Y90 F2000
G90 ; use absolute coordinates
G21 ; set units to millimeters
G92 E0 ; reset extrusion distance
M82 ; use absolute distances for extrusion
G1 Z0.400 F4200.000
G1 X40.930 Y78.110
G1 F1800.000 E1.00000
G1 X41.110 Y77.930 F900.000 E1.00764
G1 X41.490 Y77.590 E1.02293
G1 X42.110 Y77.150 E1.04573
G1 X42.330 Y77.020 E1.05340
G1 X42.790 Y76.790 E1.06882
G1 X43.260 Y76.600 E1.08403
G1 X43.750 Y76.450 E1.09940
G1 X44.000 Y76.390 E1.10711
G1 X44.750 Y76.280 E1.12984
G1 X45.260 Y76.260 E1.14515
G1 X155.240 Y76.280 E4.44383
G1 X155.990 Y76.390 E4.46657
G1 X156.490 Y76.520 E4.48206
G1 X156.970 Y76.690 E4.49733
G1 X157.430 Y76.900 E4.51250
G1 X157.660 Y77.020 E4.52028
G1 X157.880 Y77.150 E4.52795
G1 X158.500 Y77.590 E4.55075
G1 X158.880 Y77.930 E4.56604
G1 X159.060 Y78.110 E4.57368
G1 X159.400 Y78.490 E4.58897
G1 X159.840 Y79.110 E4.61177
G1 X159.970 Y79.330 E4.61944
G1 X160.200 Y79.790 E4.63486
G1 X160.390 Y80.260 E4.65007
G1 X160.540 Y80.750 E4.66544
G1 X160.600 Y81.000 E4.67315
G1 X160.710 Y81.750 E4.69589
G1 X160.710 Y118.240 E5.79035
G1 X160.600 Y118.990 E5.81308
G1 X160.470 Y119.490 E5.82858
G1 X160.300 Y119.970 E5.84385
G1 X160.090 Y120.430 E5.85902
G1 X159.970 Y120.660 E5.86680
G1 X159.840 Y120.880 E5.87446
G1 X159.400 Y121.500 E5.89727
G1 X159.060 Y121.880 E5.91256
G1 X158.880 Y122.060 E5.92019
G1 X158.500 Y122.400 E5.93549
G1 X157.880 Y122.840 E5.95829
G1 X157.660 Y122.970 E5.96596
G1 X157.200 Y123.200 E5.98138
G1 X156.730 Y123.390 E5.99659
G1 X156.240 Y123.540 E6.01196
G1 X155.990 Y123.600 E6.01967
G1 X155.240 Y123.710 E6.04240
G1 X154.730 Y123.730 E6.05771
G1 X44.750 Y123.710 E9.35639
G1 X44.000 Y123.600 E9.37913
G1 X43.500 Y123.470 E9.39462
G1 X43.020 Y123.300 E9.40989
G1 X42.560 Y123.090 E9.42506
G1 X42.330 Y122.970 E9.43284
G1 X42.110 Y122.840 E9.44051
G1 X41.490 Y122.400 E9.46331
G1 X41.110 Y122.060 E9.47860
G1 X40.930 Y121.880 E9.48624
G1 X40.590 Y121.500 E9.50153
G1 X40.150 Y120.880 E9.52433
G1 X40.020 Y120.660 E9.53200
G1 X39.790 Y120.200 E9.54742
G1 X39.600 Y119.730 E9.56263
G1 X39.450 Y119.240 E9.57800
G1 X39.390 Y118.990 E9.58571
G1 X39.280 Y118.240 E9.60845
G1 X39.280 Y81.750 E10.70291
G1 X39.390 Y81.000 E10.72564
G1 X39.520 Y80.500 E10.74114
G1 X39.690 Y80.020 E10.75641
G1 X39.900 Y79.560 E10.77158
G1 X40.020 Y79.330 E10.77936
G1 X40.150 Y79.110 E10.78702
G1 X40.590 Y78.490 E10.80983
G1 X40.877 Y78.169 E10.82276
G1 F1800.000 E9.82276
G92 E0
G1 X47.714 Y111.773 F4200.000
G1 F1800.000 E1.00000
G1 X48.428 Y111.493 F900.000 E1.02299
G1 X49.192 Y111.435 E1.04599
G1 X49.940 Y111.606 E1.06898
G1 X50.603 Y111.989 E1.09197
G1 X51.125 Y112.551 E1.11496
G1 X51.458 Y113.242 E1.13796
G1 X51.572 Y114.000 E1.16095
G1 X51.458 Y114.758 E1.18394
G1 X51.125 Y115.449 E1.20693
G1 X50.603 Y116.011 E1.22993
G1 X49.940 Y116.394 E1.25292
G1 X49.192 Y116.565 E1.27591
G1 X48.428 Y116.507 E1.29890
G1 X47.714 Y116.227 E1.32190
G1 X47.115 Y115.749 E1.34489
G1 X46.683 Y115.116 E1.36788
G1 X46.457 Y114.383 E1.39088
G1 X46.457 Y113.617 E1.41386
G1 X46.683 Y112.884 E1.43686
G1 X47.115 Y112.251 E1.45985
G1 X47.653 Y111.822 E1.48048
G1 X47.975 Y112.224 F4200.000
G1 X48.544 Y112.001 F900.000 E1.49882
G1 X49.153 Y111.955 E1.51715
G1 X49.749 Y112.091 E1.53549
G1 X50.279 Y112.397 E1.55382
G1 X50.694 Y112.845 E1.57215
G1 X50.960 Y113.396 E1.59049
G1 X51.051 Y114.000 E1.60882
G1 X50.960 Y114.604 E1.62716
G1 X50.694 Y115.155 E1.64549
G1 X50.279 Y115.603 E1.66383
G1 X49.749 Y115.909 E1.68216
G1 X49.153 Y116.045 E1.70050
G1 X48.544 Y115.999 E1.71883
G1 X47.975 Y115.776 E1.73717
G1 X47.497 Y115.395 E1.75550
G1 X47.152 Y114.890 E1.77384
G1 X46.972 Y114.306 E1.79217
G1 X46.972 Y113.694 E1.81050
G1 X47.152 Y113.110 E1.82884
G1 X47.497 Y112.605 E1.84717
G1 X47.913 Y112.273 E1.86315
G1 F1800.000 E0.86315
G92 E0
G1 X48.428 Y108.507 F4200.000
G1 F1800.000 E1.00000
G1 X47.714 Y108.227 F900.000 E1.02299
G1 X47.115 Y107.749 E1.04598
G1 X46.683 Y107.116 E1.06898
G1 X46.457 Y106.383 E1.09197
G1 X46.457 Y105.617 E1.11496
G1 X46.683 Y104.884 E1.13795
G1 X47.115 Y104.251 E1.16095
G1 X47.714 Y103.773 E1.18394
G1 X48.428 Y103.493 E1.20693
G1 X49.192 Y103.435 E1.22993
G1 X49.940 Y103.606 E1.25292
G1 X50.603 Y103.989 E1.27591
G1 X51.125 Y104.551 E1.29890
G1 X51.458 Y105.242 E1.32190
G1 X51.572 Y106.000 E1.34489
G1 X51.458 Y106.758 E1.36788
G1 X51.125 Y107.449 E1.39087
G1 X50.603 Y108.011 E1.41387
G1 X49.940 Y108.394 E1.43686
G1 X49.192 Y108.565 E1.45985
G1 X48.506 Y108.513 E1.48048
G1 X48.544 Y107.999 F4200.000
G1 X47.975 Y107.776 F900.000 E1.49882
G1 X47.497 Y107.395 E1.51715
G1 X47.152 Y106.890 E1.53549
G1 X46.972 Y106.306 E1.55382
G1 X46.972 Y105.694 E1.57215
G1 X47.152 Y105.110 E1.59049
G1 X47.497 Y104.605 E1.60882
G1 X47.975 Y104.224 E1.62716
G1 X48.544 Y104.001 E1.64549
G1 X49.153 Y103.955 E1.66383
G1 X49.749 Y104.091 E1.68216
G1 X50.279 Y104.397 E1.70049
G1 X50.694 Y104.845 E1.71883
G1 X50.960 Y105.396 E1.73717
G1 X51.051 Y106.000 E1.75550
G1 X50.960 Y106.604 E1.77383
G1 X50.694 Y107.155 E1.79217
G1 X50.279 Y107.603 E1.81051
G1 X49.749 Y107.909 E1.82884
G1 X49.153 Y108.045 E1.84717
G1 X48.622 Y108.005 E1.86315
G1 F1800.000 E0.86315
G92 E0
G1 X148.457 Y106.383 F4200.000
G1 F1800.000 E1.00000
G1 X148.457 Y105.617 F900.000 E1.02299
G1 X148.683 Y104.884 E1.04598
G1 X149.115 Y104.251 E1.06898
G1 X149.714 Y103.773 E1.09197
G1 X150.428 Y103.493 E1.11496
G1 X151.192 Y103.435 E1.13795
G1 X151.940 Y103.606 E1.16094
G1 X152.603 Y103.989 E1.18393
G1 X153.125 Y104.551 E1.20693
G1 X153.458 Y105.242 E1.22992
G1 X153.572 Y106.000 E1.25292
G1 X153.458 Y106.758 E1.27591
G1 X153.125 Y107.449 E1.29890
G1 X152.603 Y108.011 E1.32190
G1 X151.940 Y108.394 E1.34489
G1 X151.192 Y108.565 E1.36788
G1 X150.428 Y108.507 E1.39087
G1 X149.714 Y108.227 E1.41386
G1 X149.115 Y107.749 E1.43686
G1 X148.683 Y107.116 E1.45985
G1 X148.480 Y106.458 E1.48048
G1 X148.972 Y106.306 F4200.000
G1 X148.972 Y105.694 F900.000 E1.49881
G1 X149.152 Y105.110 E1.51715
G1 X149.497 Y104.605 E1.53548
G1 X149.975 Y104.224 E1.55382
G1 X150.544 Y104.001 E1.57215
G1 X151.153 Y103.955 E1.59049
G1 X151.749 Y104.091 E1.60882
G1 X152.279 Y104.397 E1.62715
G1 X152.694 Y104.845 E1.64549
G1 X152.960 Y105.396 E1.66383
G1 X153.051 Y106.000 E1.68216
G1 X152.960 Y106.604 E1.70049
G1 X152.694 Y107.155 E1.71883
G1 X152.279 Y107.603 E1.73717
G1 X151.749 Y107.909 E1.75550
G1 X151.153 Y108.045 E1.77383
G1 X150.544 Y107.999 E1.79217
G1 X149.975 Y107.776 E1.81050
G1 X149.497 Y107.395 E1.82884
G1 X149.152 Y106.890 E1.84717
G1 X148.995 Y106.381 E1.86315
G1 F1800.000 E0.86315
G92 E0
G1 X150.428 Y111.493 F4200.000
G1 F1800.000 E1.00000
G1 X151.192 Y111.435 F900.000 E1.02299
G1 X151.940 Y111.606 E1.04599
G1 X152.603 Y111.989 E1.06898
G1 X153.125 Y112.551 E1.09197
G1 X153.458 Y113.242 E1.11497
G1 X153.572 Y114.000 E1.13796
G1 X153.458 Y114.758 E1.16095
G1 X153.125 Y115.449 E1.18394
G1 X152.603 Y116.011 E1.20694
G1 X151.940 Y116.394 E1.22993
G1 X151.192 Y116.565 E1.25292
G1 X150.428 Y116.507 E1.27591
G1 X149.714 Y116.227 E1.29890
G1 X149.115 Y115.749 E1.32190
G1 X148.683 Y115.116 E1.34489
G1 X148.457 Y114.383 E1.36789
G1 X148.457 Y113.617 E1.39087
G1 X148.683 Y112.884 E1.41386
G1 X149.115 Y112.251 E1.43686
G1 X149.714 Y111.773 E1.45985
G1 X150.354 Y111.522 E1.48048
G1 X150.544 Y112.001 F4200.000
G1 X151.153 Y111.955 F900.000 E1.49882
G1 X151.749 Y112.091 E1.51715
G1 X152.279 Y112.397 E1.53548
G1 X152.694 Y112.845 E1.55382
G1 X152.960 Y113.396 E1.57216
G1 X153.051 Y114.000 E1.59049
G1 X152.960 Y114.604 E1.60882
G1 X152.694 Y115.155 E1.62716
G1 X152.279 Y115.603 E1.64550
G1 X151.749 Y115.909 E1.66383
G1 X151.153 Y116.045 E1.68216
G1 X150.544 Y115.999 E1.70050
G1 X149.975 Y115.776 E1.71883
G1 X149.497 Y115.395 E1.73717
G1 X149.152 Y114.890 E1.75550
G1 X148.972 Y114.306 E1.77384
G1 X148.972 Y113.694 E1.79217
G1 X149.152 Y113.110 E1.81050
G1 X149.497 Y112.605 E1.82884
G1 X149.975 Y112.224 E1.84717
G1 X150.470 Y112.029 E1.86315
G1 F1800.000 E0.86315
G92 E0
G1 X154.222 Y117.222 F4200.000
G1 F1800.000 E1.00000
G1 X45.778 Y117.222 F900.000 E4.25263
G1 X45.778 Y102.778 E4.68587
G1 X154.222 Y102.778 E7.93850
G1 X154.222 Y117.144 E8.36938
G1 X154.738 Y117.737 F4200.000
G1 X45.263 Y117.737 F900.000 E11.65291
G1 X45.263 Y102.263 E12.11706
G1 X154.738 Y102.263 E15.40059
G1 X154.738 Y117.659 E15.86238
G1 F1800.000 E14.86238
G92 E0
G1 X46.962 Y116.856 F4200.000
G1 F1800.000 E1.00000
G1 X46.144 Y116.038 F1050.000 E1.04895
G1 X46.752 Y112.148 F4200.000
G1 X46.144 Y111.540 F1050.000 E1.07476
G1 X46.145 Y110.811 F4200.000
G1 X47.158 Y111.824 F1050.000 E1.11780
G1 X47.563 Y111.501 F4200.000
G1 X46.144 Y110.082 F1050.000 E1.17808
G1 X46.144 Y109.353 F4200.000
G1 X48.076 Y111.284 F1050.000 E1.26011
G1 X48.641 Y111.120 F4200.000
G1 X46.145 Y108.623 F1050.000 E1.36613
G1 X46.144 Y107.895 F4200.000
G1 X49.319 Y111.069 F1050.000 E1.50095
G1 X50.240 Y111.261 F4200.000
G1 X47.641 Y108.661 F1050.000 E1.61135
G1 X48.608 Y108.900 F4200.000
G1 X56.564 Y116.856 F1050.000 E1.94924
G1 X55.835 Y116.856 F4200.000
G1 X51.703 Y112.723 F1050.000 E2.12474
G1 X51.916 Y113.666 F4200.000
G1 X55.105 Y116.856 F1050.000 E2.26019
G1 X54.377 Y116.855 F4200.000
G1 X51.870 Y114.348 F1050.000 E2.36668
G1 X51.725 Y114.933 F4200.000
G1 X53.647 Y116.856 F1050.000 E2.44832
G1 X52.918 Y116.856 F4200.000
G1 X51.488 Y115.426 F1050.000 E2.50907
G1 X51.176 Y115.842 F4200.000
G1 X52.189 Y116.855 F1050.000 E2.55209
G1 X51.460 Y116.856 F4200.000
G1 X50.825 Y116.221 F1050.000 E2.57905
G1 X57.293 Y116.856 F4200.000
G1 X49.319 Y108.882 F1050.000 E2.91772
G1 X49.913 Y108.746 F4200.000
G1 X58.023 Y116.855 F1050.000 E3.26215
G1 X58.751 Y116.856 F4200.000
G1 X50.390 Y108.495 F1050.000 E3.61726
G1 X50.835 Y108.210 F4200.000
G1 X59.481 Y116.856 F1050.000 E3.98446
G1 X60.210 Y116.856 F4200.000
G1 X51.186 Y107.832 F1050.000 E4.36771
G1 X51.495 Y107.411 F4200.000
G1 X60.939 Y116.856 F1050.000 E4.76883
G1 X61.668 Y116.855 F4200.000
G1 X51.732 Y106.919 F1050.000 E5.19085
G1 X51.872 Y106.331 F4200.000
G1 X62.397 Y116.856 F1050.000 E5.63787
G1 X63.127 Y116.856 F4200.000
G1 X51.913 Y105.642 F1050.000 E6.11414
G1 X51.683 Y104.683 F4200.000
G1 X63.855 Y116.856 F1050.000 E6.63113
G1 X64.585 Y116.856 F4200.000
G1 X50.874 Y103.144 F1050.000 E7.21346
G1 X51.603 Y103.144 F4200.000
G1 X65.314 Y116.855 F1050.000 E7.79580
G1 X66.043 Y116.856 F4200.000
G1 X52.332 Y103.145 F1050.000 E8.37814
G1 X53.061 Y103.144 F4200.000
G1 X66.773 Y116.856 F1050.000 E8.96048
G1 X67.502 Y116.855 F4200.000
G1 X53.791 Y103.144 F1050.000 E9.54282
G1 X54.519 Y103.144 F4200.000
G1 X68.231 Y116.856 F1050.000 E10.12515
G1 X68.960 Y116.855 F4200.000
G1 X55.249 Y103.144 F1050.000 E10.70749
G1 X55.978 Y103.145 F4200.000
G1 X69.689 Y116.856 F1050.000 E11.28983
G1 X70.418 Y116.856 F4200.000
G1 X56.707 Y103.144 F1050.000 E11.87217
G1 X57.437 Y103.144 F4200.000
G1 X71.148 Y116.855 F1050.000 E12.45451
G1 X71.877 Y116.856 F4200.000
G1 X58.165 Y103.144 F1050.000 E13.03685
G1 X58.895 Y103.144 F4200.000
G1 X72.606 Y116.855 F1050.000 E13.61918
G1 X73.335 Y116.856 F4200.000
G1 X59.623 Y103.145 F1050.000 E14.20152
G1 X60.353 Y103.144 F4200.000
G1 X74.064 Y116.856 F1050.000 E14.78386
G1 X74.794 Y116.855 F4200.000
G1 X61.082 Y103.144 F1050.000 E15.36620
G1 X61.811 Y103.144 F4200.000
G1 X75.522 Y116.856 F1050.000 E15.94854
G1 X76.252 Y116.855 F4200.000
G1 X62.541 Y103.144 F1050.000 E16.53088
G1 X63.269 Y103.145 F4200.000
G1 X76.981 Y116.856 F1050.000 E17.11322
G1 X77.710 Y116.856 F4200.000
G1 X63.999 Y103.144 F1050.000 E17.69555
G1 X64.728 Y103.144 F4200.000
G1 X78.440 Y116.855 F1050.000 E18.27789
G1 X79.168 Y116.856 F4200.000
G1 X65.457 Y103.145 F1050.000 E18.86023
G1 X66.186 Y103.144 F4200.000
G1 X79.898 Y116.856 F1050.000 E19.44257
G1 X80.627 Y116.856 F4200.000
G1 X66.915 Y103.145 F1050.000 E20.02491
G1 X67.645 Y103.144 F4200.000
G1 X81.356 Y116.856 F1050.000 E20.60726
G1 X82.085 Y116.855 F4200.000
G1 X68.374 Y103.144 F1050.000 E21.18959
G1 X69.103 Y103.145 F4200.000
G1 X82.814 Y116.856 F1050.000 E21.77193
G1 X83.543 Y116.855 F4200.000
G1 X69.832 Y103.144 F1050.000 E22.35426
G1 X70.561 Y103.145 F4200.000
G1 X84.272 Y116.856 F1050.000 E22.93660
G1 X85.002 Y116.856 F4200.000
G1 X71.291 Y103.144 F1050.000 E23.51895
G1 X72.020 Y103.144 F4200.000
G1 X85.731 Y116.855 F1050.000 E24.10128
G1 X86.460 Y116.856 F4200.000
G1 X72.749 Y103.145 F1050.000 E24.68363
G1 X73.478 Y103.144 F4200.000
G1 X87.189 Y116.855 F1050.000 E25.26595
G1 X87.918 Y116.856 F4200.000
G1 X74.207 Y103.145 F1050.000 E25.84829
G1 X74.936 Y103.144 F4200.000
G1 X88.648 Y116.856 F1050.000 E26.43064
G1 X89.377 Y116.855 F4200.000
G1 X75.666 Y103.144 F1050.000 E27.01297
G1 X76.395 Y103.145 F4200.000
G1 X90.106 Y116.856 F1050.000 E27.59531
G1 X90.835 Y116.855 F4200.000
G1 X77.124 Y103.144 F1050.000 E28.17763
G1 X77.854 Y103.144 F4200.000
G1 X91.565 Y116.855 F1050.000 E28.75997
G1 X92.294 Y116.856 F4200.000
G1 X78.582 Y103.144 F1050.000 E29.34232
G1 X79.312 Y103.144 F4200.000
G1 X93.023 Y116.855 F1050.000 E29.92464
G1 X93.752 Y116.856 F4200.000
G1 X80.040 Y103.145 F1050.000 E30.50699
G1 X80.770 Y103.144 F4200.000
G1 X94.481 Y116.855 F1050.000 E31.08931
G1 X95.211 Y116.855 F4200.000
G1 X81.499 Y103.144 F1050.000 E31.67164
G1 X82.228 Y103.144 F4200.000
G1 X95.940 Y116.856 F1050.000 E32.25399
G1 X96.669 Y116.855 F4200.000
G1 X82.958 Y103.144 F1050.000 E32.83632
G1 X83.686 Y103.145 F4200.000
G1 X97.398 Y116.856 F1050.000 E33.41866
G1 X98.127 Y116.856 F4200.000
G1 X84.416 Y103.144 F1050.000 E34.00102
G1 X85.145 Y103.144 F4200.000
G1 X98.856 Y116.855 F1050.000 E34.58335
G1 X99.585 Y116.856 F4200.000
G1 X85.874 Y103.144 F1050.000 E35.16570
G1 X86.603 Y103.144 F4200.000
G1 X100.314 Y116.855 F1050.000 E35.74803
G1 X101.044 Y116.856 F4200.000
G1 X87.332 Y103.145 F1050.000 E36.33036
G1 X88.062 Y103.144 F4200.000
G1 X101.773 Y116.856 F1050.000 E36.91271
G1 X102.502 Y116.855 F4200.000
G1 X88.791 Y103.144 F1050.000 E37.49505
G1 X89.520 Y103.145 F4200.000
G1 X103.231 Y116.856 F1050.000 E38.07739
G1 X103.960 Y116.855 F4200.000
G1 X90.249 Y103.144 F1050.000 E38.65972
G1 X90.978 Y103.145 F4200.000
G1 X104.689 Y116.856 F1050.000 E39.24206
G1 X105.419 Y116.856 F4200.000
G1 X91.708 Y103.144 F1050.000 E39.82441
G1 X92.437 Y103.144 F4200.000
G1 X106.148 Y116.855 F1050.000 E40.40674
G1 X106.877 Y116.856 F4200.000
G1 X93.166 Y103.145 F1050.000 E40.98908
G1 X93.895 Y103.144 F4200.000
G1 X107.606 Y116.855 F1050.000 E41.57140
G1 X108.335 Y116.856 F4200.000
G1 X94.624 Y103.144 F1050.000 E42.15375
G1 X95.353 Y103.144 F4200.000
G1 X109.065 Y116.856 F1050.000 E42.73609
G1 X109.794 Y116.855 F4200.000
G1 X96.083 Y103.144 F1050.000 E43.31841
G1 X96.811 Y103.144 F4200.000
G1 X110.523 Y116.856 F1050.000 E43.90076
G1 X111.252 Y116.855 F4200.000
G1 X97.541 Y103.144 F1050.000 E44.48308
G1 X98.270 Y103.144 F4200.000
G1 X111.981 Y116.856 F1050.000 E45.06542
G1 X112.711 Y116.856 F4200.000
G1 X98.999 Y103.144 F1050.000 E45.64777
G1 X99.729 Y103.144 F4200.000
G1 X113.440 Y116.855 F1050.000 E46.23009
G1 X114.169 Y116.856 F4200.000
G1 X100.457 Y103.144 F1050.000 E46.81244
G1 X101.187 Y103.144 F4200.000
G1 X114.898 Y116.855 F1050.000 E47.39475
G1 X115.628 Y116.855 F4200.000
G1 X101.916 Y103.144 F1050.000 E47.97710
G1 X102.645 Y103.144 F4200.000
G1 X116.357 Y116.856 F1050.000 E48.55945
G1 X117.086 Y116.855 F4200.000
G1 X103.375 Y103.144 F1050.000 E49.14177
G1 X104.103 Y103.144 F4200.000
G1 X117.815 Y116.856 F1050.000 E49.72411
G1 X118.544 Y116.856 F4200.000
G1 X104.833 Y103.144 F1050.000 E50.30646
G1 X105.562 Y103.144 F4200.000
G1 X119.273 Y116.855 F1050.000 E50.88881
G1 X120.002 Y116.856 F4200.000
G1 X106.291 Y103.144 F1050.000 E51.47116
G1 X107.021 Y103.144 F4200.000
