; generated by Slic3r 0.7.3-dev on 2012-06-05 at 14:18:11

; layer_height = 0.4
; perimeters = 2
; solid_layers = 3
; fill_density = 0.15
; nozzle_diameter = 0.5
; filament_diameter = 3
; extrusion_multiplier = 1.02
; perimeter_speed = 30
; infill_speed = 40
; travel_speed = 70
; extrusion_width_ratio = 0
; scale = 1
; single wall width = 0.53mm

M104 S200 ; set temperature
M106
M104 S230
G28
M140 S60
G1 X205 Y105 F4000
M109 S230
G92 E0
G1 E5 F50
G1 X205 Y90 F2000
G90 ; use absolute coordinates
G21 ; set units to millimeters
G92 E0 ; reset extrusion distance
M82 ; use absolute distances for extrusion
G1 Z0.400 F4200.000
G1 X64.580 Y93.665
G1 F1800.000 E1.00000
G1 X65.370 Y93.395 F900.000 E1.02504
G1 X115.680 Y80.645 E2.58171
G1 X116.180 Y80.585 E2.59682
G1 X116.680 Y80.565 E2.61183
G1 X121.310 Y80.585 E2.75070
G1 X121.810 Y80.645 E2.76580
G1 X126.330 Y81.615 E2.90446
G1 X126.810 Y81.755 E2.91946
G1 X131.270 Y83.715 E3.06557
G1 X131.500 Y83.835 E3.07335
G1 X131.930 Y84.095 E3.08843
G1 X135.680 Y86.825 E3.22755
G1 X136.060 Y87.155 E3.24265
G1 X139.330 Y90.755 E3.38852
G1 X139.490 Y90.955 E3.39620
G1 X139.780 Y91.375 E3.41151
G1 X142.090 Y95.385 E3.55031
G1 X142.300 Y95.835 E3.56520
G1 X143.830 Y100.465 E3.71146
G1 X143.990 Y101.205 E3.73417
G1 X144.470 Y105.825 E3.87348
G1 X144.480 Y106.325 E3.88848
G1 X143.990 Y111.175 E4.03469
G1 X143.830 Y111.915 E4.05740
G1 X142.650 Y115.525 E4.17131
G1 X142.450 Y116.005 E4.18691
G1 X142.070 Y116.685 E4.21027
G1 X141.920 Y116.905 E4.21826
G1 X141.600 Y117.315 E4.23386
G1 X141.250 Y117.695 E4.24935
G1 X141.060 Y117.875 E4.25720
G1 X140.660 Y118.205 E4.27276
G1 X140.450 Y118.355 E4.28050
G1 X140.010 Y118.635 E4.29614
G1 X139.550 Y118.875 E4.31170
G1 X138.820 Y119.155 E4.33515
G1 X138.320 Y119.285 E4.35065
G1 X137.810 Y119.375 E4.36618
G1 X137.550 Y119.405 E4.37403
G1 X137.030 Y119.425 E4.38964
G1 X68.760 Y119.425 E6.43729
G1 X67.970 Y119.375 E6.46103
G1 X65.770 Y119.075 E6.52763
G1 X64.870 Y118.835 E6.55557
G1 X62.550 Y117.875 E6.63087
G1 X62.000 Y117.575 E6.64966
G1 X61.730 Y117.405 E6.65923
G1 X59.730 Y115.865 E6.73494
G1 X59.280 Y115.435 E6.75361
G1 X59.070 Y115.205 E6.76295
G1 X57.530 Y113.205 E6.83866
G1 X57.360 Y112.935 E6.84823
G1 X57.060 Y112.385 E6.86702
G1 X56.100 Y110.065 E6.94233
G1 X55.930 Y109.475 E6.96075
G1 X55.860 Y109.165 E6.97028
G1 X55.530 Y106.675 E7.04562
G1 X55.510 Y106.355 E7.05523
G1 X55.510 Y106.035 E7.06483
G1 X55.560 Y105.405 E7.08378
G1 X55.860 Y103.215 E7.15008
G1 X56.010 Y102.605 E7.16892
G1 X56.100 Y102.315 E7.17803
G1 X57.060 Y99.995 E7.25334
G1 X57.360 Y99.445 E7.27213
G1 X57.530 Y99.175 E7.28170
G1 X59.070 Y97.175 E7.35741
G1 X59.500 Y96.725 E7.37608
G1 X59.730 Y96.515 E7.38542
G1 X61.730 Y94.975 E7.46113
G1 X62.000 Y94.805 E7.47070
G1 X62.550 Y94.505 E7.48949
G1 X64.507 Y93.695 E7.55302
G1 F1800.000 E6.55302
G92 E0
G1 X63.316 Y102.911 F4200.000
G1 F1800.000 E1.00000
G1 X66.784 Y102.911 F900.000 E1.10404
G1 X66.784 Y103.755 E1.12936
G1 X67.733 Y103.066 E1.16454
G1 X69.767 Y103.066 E1.22553
G1 X71.412 Y104.261 E1.28653
G1 X72.041 Y106.195 E1.34753
G1 X71.412 Y108.129 E1.40852
G1 X69.767 Y109.325 E1.46952
G1 X67.733 Y109.325 E1.53051
G1 X66.784 Y108.635 E1.56569
G1 X66.784 Y109.480 E1.59101
G1 X63.316 Y109.480 E1.69505
G1 X63.316 Y102.990 E1.88971
G1 F1800.000 E0.88971
G92 E0
G1 X100.041 Y106.195 F4200.000
G1 F1800.000 E1.00000
G1 X101.271 Y104.066 F900.000 E1.07375
G1 X103.729 Y104.066 E1.14749
G1 X104.959 Y106.195 E1.22123
G1 X103.729 Y108.324 E1.29498
G1 X101.271 Y108.324 E1.36872
G1 X100.081 Y106.263 E1.44010
G1 F1800.000 E0.44010
G92 E0
G1 X109.396 Y94.252 F4200.000
G1 F1800.000 E1.00000
G1 X108.166 Y92.122 F900.000 E1.07375
G1 X109.396 Y89.993 E1.14749
G1 X111.854 Y89.993 E1.22123
G1 X113.084 Y92.122 E1.29498
G1 X111.854 Y94.252 E1.36872
G1 X109.474 Y94.252 E1.44010
G1 F1800.000 E0.44010
G92 E0
G1 X124.416 Y92.122 F4200.000
G1 F1800.000 E1.00000
G1 X125.646 Y89.993 F900.000 E1.07375
G1 X128.104 Y89.993 E1.14749
G1 X129.334 Y92.122 E1.22123
G1 X128.104 Y94.252 E1.29498
G1 X125.646 Y94.252 E1.36872
G1 X124.456 Y92.190 E1.44010
G1 F1800.000 E0.44010
G92 E0
G1 X133.771 Y104.066 F4200.000
G1 F1800.000 E1.00000
G1 X136.229 Y104.066 F900.000 E1.07374
G1 X137.459 Y106.195 E1.14749
G1 X136.229 Y108.324 E1.22123
G1 X133.771 Y108.324 E1.29497
G1 X132.541 Y106.195 E1.36872
G1 X133.731 Y104.134 E1.44010
G1 F1800.000 E0.44010
G92 E0
G1 X62.800 Y103.160 F4200.000
G1 F1800.000 E1.00000
G1 X62.800 Y109.230 F900.000 E1.18207
G1 X62.263 Y107.933 E1.22417
G1 X62.034 Y106.195 E1.27676
G1 X62.263 Y104.457 E1.32934
G1 X62.770 Y103.233 E1.36908
G1 F1800.000 E0.36908
G92 E0
G1 X130.122 Y112.918 F4200.000
G1 F1800.000 E1.00000
G1 X130.884 Y111.597 F900.000 E1.04572
G1 X131.742 Y108.957 E1.12900
G1 X132.019 Y106.321 E1.20850
G1 X133.473 Y108.840 E1.29575
G1 X136.527 Y108.840 E1.38733
G1 X137.949 Y106.376 E1.47264
G1 X137.548 Y110.191 E1.58768
G1 X136.662 Y112.918 E1.67367
G1 X130.200 Y112.918 E1.86748
G1 F1800.000 E0.86748
G92 E0
G1 X132.019 Y106.070 F4200.000
G1 F1800.000 E1.00000
G1 X131.742 Y103.434 F900.000 E1.07950
G1 X130.884 Y100.793 E1.16278
G1 X129.495 Y98.388 E1.24607
G1 X127.637 Y96.325 E1.32935
G1 X125.493 Y94.767 E1.40885
G1 X128.402 Y94.767 E1.49610
G1 X129.929 Y92.122 E1.58768
G1 X128.506 Y89.659 E1.67300
G1 X131.609 Y91.913 E1.78805
G1 X134.298 Y94.899 E1.90855
G1 X136.307 Y98.379 E2.02906
G1 X137.548 Y102.200 E2.14956
G1 X137.949 Y106.014 E2.26460
G1 X136.527 Y103.551 E2.34991
G1 X133.473 Y103.551 E2.44149
G1 X132.058 Y106.002 E2.52638
G1 F1800.000 E1.52638
G92 E0
G1 X112.007 Y94.767 F4200.000
G1 F1800.000 E1.00000
G1 X109.863 Y96.325 F900.000 E1.07950
G1 X108.005 Y98.388 E1.16279
G1 X106.616 Y100.793 E1.24607
G1 X105.758 Y103.434 E1.32935
G1 X105.481 Y106.070 E1.40885
G1 X104.027 Y103.551 E1.49610
G1 X100.973 Y103.551 E1.58768
G1 X99.446 Y106.195 E1.67927
G1 X100.973 Y108.840 E1.77086
G1 X104.027 Y108.840 E1.86244
G1 X105.481 Y106.321 E1.94968
G1 X105.758 Y108.957 E2.02918
G1 X106.616 Y111.597 E2.11247
G1 X107.378 Y112.918 E2.15818
G1 X68.801 Y112.918 E3.31526
G1 X67.012 Y112.682 E3.36938
G1 X65.392 Y112.011 E3.42196
G1 X64.001 Y110.944 E3.47454
G1 X63.273 Y109.995 E3.51043
G1 X67.300 Y109.995 E3.63119
G1 X67.300 Y109.646 E3.64164
G1 X67.566 Y109.840 E3.65151
G1 X69.934 Y109.840 E3.72255
G1 X71.850 Y108.448 E3.79359
G1 X72.582 Y106.195 E3.86462
G1 X71.850 Y103.943 E3.93566
G1 X69.934 Y102.551 E4.00670
G1 X67.566 Y102.551 E4.07774
G1 X67.300 Y102.744 E4.08761
G1 X67.300 Y102.396 E4.09805
G1 X63.273 Y102.396 E4.21882
G1 X64.001 Y101.447 E4.25470
G1 X65.392 Y100.379 E4.30729
G1 X67.012 Y99.708 E4.35987
G1 X68.801 Y99.473 E4.41399
G1 X100.838 Y99.473 E5.37489
G1 X101.193 Y98.379 E5.40940
G1 X103.202 Y94.899 E5.52991
G1 X105.891 Y91.913 E5.65041
G1 X108.994 Y89.659 E5.76546
G1 X107.571 Y92.122 E5.85077
G1 X109.098 Y94.767 E5.94236
G1 X111.928 Y94.767 E6.02725
G1 X112.224 Y94.641 F4200.000
G1 X113.679 Y92.122 F900.000 E6.11450
G1 X112.152 Y89.478 E6.20608
G1 X109.307 Y89.478 E6.29140
G1 X112.811 Y87.918 E6.40644
G1 X116.741 Y87.082 E6.52694
G1 X120.759 Y87.082 E6.64745
G1 X124.689 Y87.918 E6.76795
G1 X128.193 Y89.478 E6.88299
G1 X125.348 Y89.478 E6.96831
G1 X123.821 Y92.122 E7.05990
G1 X125.276 Y94.641 E7.14715
G1 X122.854 Y93.563 E7.22665
G1 X120.138 Y92.986 E7.30993
G1 X117.362 Y92.986 E7.39322
G1 X114.646 Y93.563 E7.47650
G1 X112.296 Y94.609 E7.55364
G1 X112.368 Y95.141 F4200.000
G1 X110.209 Y96.710 F900.000 E7.63367
G1 X108.424 Y98.693 E7.71371
G1 X107.090 Y101.004 E7.79374
G1 X106.265 Y103.541 E7.87378
G1 X105.986 Y106.195 E7.95381
G1 X106.265 Y108.849 E8.03385
G1 X107.090 Y111.387 E8.11388
G1 X108.271 Y113.433 E8.18474
G1 X68.767 Y113.433 E9.36959
G1 X66.877 Y113.184 E9.42676
G1 X65.132 Y112.461 E9.48341
G1 X63.634 Y111.311 E9.54006
G1 X62.484 Y109.813 E9.59671
G1 X61.761 Y108.068 E9.65336
G1 X61.515 Y106.195 E9.71001
G1 X61.761 Y104.323 E9.76666
G1 X62.484 Y102.578 E9.82331
G1 X63.634 Y101.079 E9.87996
G1 X65.132 Y99.929 E9.93661
G1 X66.877 Y99.207 E9.99327
G1 X68.767 Y98.958 E10.05044
G1 X100.464 Y98.958 E11.00112
G1 X100.720 Y98.168 E11.02603
G1 X102.783 Y94.595 E11.14978
G1 X105.544 Y91.528 E11.27353
G1 X108.882 Y89.103 E11.39729
G1 X112.651 Y87.425 E11.52104
G1 X116.687 Y86.567 E11.64479
G1 X120.813 Y86.567 E11.76854
G1 X124.849 Y87.425 E11.89229
G1 X128.618 Y89.103 E12.01604
G1 X131.956 Y91.528 E12.13979
G1 X134.717 Y94.595 E12.26355
G1 X136.780 Y98.168 E12.38730
G1 X138.055 Y102.092 E12.51105
G1 X138.486 Y106.195 E12.63480
G1 X138.055 Y110.299 E12.75855
G1 X137.036 Y113.433 E12.85739
G1 X129.229 Y113.433 E13.09156
G1 X130.410 Y111.387 E13.16242
G1 X131.235 Y108.849 E13.24245
G1 X131.514 Y106.195 E13.32248
G1 X131.235 Y103.541 E13.40252
G1 X130.410 Y101.004 E13.48255
G1 X129.076 Y98.693 E13.56259
G1 X127.291 Y96.710 E13.64262
G1 X125.132 Y95.141 E13.72265
G1 X122.694 Y94.056 E13.80269
G1 X120.084 Y93.501 E13.88272
G1 X117.416 Y93.501 E13.96276
G1 X114.806 Y94.056 E14.04279
G1 X112.440 Y95.109 E14.12046
G1 F1800.000 E13.12046
G92 E0
G1 X132.131 Y108.617 F4200.000
G1 F1800.000 E1.00000
G1 X136.066 Y112.551 F1050.000 E1.18468
G1 X136.536 Y112.243 F4200.000
G1 X133.499 Y109.206 F1050.000 E1.32725
G1 X134.278 Y109.206 F4200.000
G1 X136.728 Y111.656 F1050.000 E1.44223
G1 X136.918 Y111.068 F4200.000
G1 X135.056 Y109.206 F1050.000 E1.52962
G1 X135.835 Y109.207 F4200.000
G1 X137.109 Y110.481 F1050.000 E1.58944
G1 X137.233 Y109.826 F4200.000
G1 X136.613 Y109.206 F1050.000 E1.61851
G1 X135.287 Y112.551 F4200.000
G1 X131.990 Y109.254 F1050.000 E1.77326
G1 X131.799 Y109.841 F4200.000
G1 X134.509 Y112.551 F1050.000 E1.90045
G1 X133.730 Y112.551 F4200.000
G1 X131.608 Y110.430 F1050.000 E2.00003
G1 X131.417 Y111.016 F4200.000
G1 X132.952 Y112.551 F1050.000 E2.07206
G1 X132.172 Y112.551 F4200.000
G1 X131.226 Y111.605 F1050.000 E2.11647
G1 X130.951 Y112.107 F4200.000
G1 X131.395 Y112.551 F1050.000 E2.13731
G1 X132.798 Y104.096 F4200.000
G1 X132.126 Y103.424 F1050.000 E2.16734
G1 X133.074 Y103.618 F4200.000
G1 X131.843 Y102.387 F1050.000 E2.22232
G1 X131.481 Y101.271 F4200.000
G1 X133.394 Y103.184 F1050.000 E2.30773
G1 X134.147 Y103.185 F4200.000
G1 X130.951 Y99.989 F1050.000 E2.45042
G1 X129.923 Y98.207 F4200.000
G1 X134.900 Y103.184 F1050.000 E2.67266
G1 X135.653 Y103.185 F4200.000
G1 X127.602 Y95.134 F1050.000 E3.03217
G1 X128.356 Y95.133 F4200.000
G1 X136.406 Y103.184 F1050.000 E3.39166
G1 X137.160 Y103.184 F4200.000
G1 X128.755 Y94.779 F1050.000 E3.76697
G1 X129.030 Y94.302 F4200.000
G1 X137.190 Y102.462 F1050.000 E4.13134
G1 X136.830 Y101.348 F4200.000
G1 X129.306 Y93.824 F1050.000 E4.46732
G1 X129.582 Y93.347 F4200.000
G1 X136.467 Y100.232 F1050.000 E4.77477
G1 X136.105 Y99.117 F4200.000
G1 X129.858 Y92.870 F1050.000 E5.05374
G1 X130.134 Y92.392 F4200.000
G1 X135.302 Y97.560 F1050.000 E5.28454
G1 X134.273 Y95.778 F4200.000
G1 X130.410 Y91.914 F1050.000 E5.45707
G1 X125.207 Y89.098 F4200.000
G1 X124.368 Y88.259 F1050.000 E5.49488
G1 X123.405 Y88.055 F4200.000
G1 X124.929 Y89.579 F1050.000 E5.56355
G1 X124.652 Y90.059 F4200.000
G1 X122.443 Y87.850 F1050.000 E5.66308
G1 X121.481 Y87.645 F4200.000
G1 X124.375 Y90.539 F1050.000 E5.79346
G1 X124.097 Y91.020 F4200.000
G1 X120.527 Y87.449 F1050.000 E5.95435
G1 X119.769 Y87.449 F4200.000
G1 X123.820 Y91.500 F1050.000 E6.13688
G1 X123.542 Y91.981 F4200.000
G1 X119.011 Y87.449 F1050.000 E6.34105
G1 X118.253 Y87.449 F4200.000
G1 X123.784 Y92.981 F1050.000 E6.59027
G1 X123.349 Y93.302 F4200.000
G1 X117.496 Y87.449 F1050.000 E6.85398
G1 X116.738 Y87.449 F4200.000
G1 X122.331 Y93.042 F1050.000 E7.10600
G1 X121.369 Y92.838 F4200.000
G1 X116.097 Y87.566 F1050.000 E7.34354
G1 X115.472 Y87.699 F4200.000
G1 X120.407 Y92.634 F1050.000 E7.56588
G1 X119.636 Y92.619 F4200.000
G1 X114.848 Y87.831 F1050.000 E7.78161
G1 X114.223 Y87.964 F4200.000
G1 X118.878 Y92.619 F1050.000 E7.99135
G1 X118.120 Y92.619 F4200.000
G1 X113.598 Y88.097 F1050.000 E8.19510
G1 X112.973 Y88.230 F4200.000
G1 X117.378 Y92.636 F1050.000 E8.39361
G1 X116.753 Y92.769 F4200.000
G1 X112.424 Y88.440 F1050.000 E8.58868
G1 X112.655 Y89.427 F4200.000
G1 X116.129 Y92.901 F1050.000 E8.74522
G1 X115.504 Y93.034 F4200.000
G1 X113.690 Y91.220 F1050.000 E8.82695
G1 X113.964 Y92.252 F4200.000
G1 X114.879 Y93.167 F1050.000 E8.86817
G1 X114.315 Y93.361 F4200.000
G1 X113.687 Y92.733 F1050.000 E8.89649
G1 X110.219 Y95.638 F4200.000
G1 X109.714 Y95.133 F1050.000 E8.91822
G1 X108.978 Y95.134 F4200.000
G1 X109.820 Y95.975 F1050.000 E8.95445
G1 X109.443 Y96.334 F4200.000
G1 X105.696 Y92.586 F1050.000 E9.11575
G1 X105.347 Y92.973 F4200.000
G1 X109.095 Y96.721 F1050.000 E9.27705
G1 X108.746 Y97.108 F4200.000
G1 X104.999 Y93.360 F1050.000 E9.43836
G1 X104.650 Y93.747 F4200.000
G1 X108.398 Y97.495 F1050.000 E9.59966
G1 X108.050 Y97.882 F4200.000
G1 X104.302 Y94.134 F1050.000 E9.76096
G1 X103.953 Y94.521 F4200.000
G1 X107.709 Y98.276 F1050.000 E9.92258
G1 X107.439 Y98.743 F4200.000
G1 X103.605 Y94.908 F1050.000 E10.08762
G1 X103.306 Y95.344 F4200.000
G1 X107.170 Y99.209 F1050.000 E10.25395
G1 X106.901 Y99.675 F4200.000
G1 X103.037 Y95.811 F1050.000 E10.42028
G1 X102.768 Y96.277 F4200.000
G1 X106.632 Y100.141 F1050.000 E10.58661
G1 X106.363 Y100.607 F4200.000
G1 X102.498 Y96.743 F1050.000 E10.75294
G1 X102.229 Y97.209 F4200.000
G1 X106.159 Y101.139 F1050.000 E10.92208
G1 X105.345 Y104.002 F4200.000
G1 X101.093 Y99.750 F1050.000 E11.10509
G1 X101.273 Y99.195 E11.12286
G1 X105.438 Y103.359 E11.30210
G1 X105.618 Y102.804 E11.31986
G1 X101.454 Y98.640 E11.49910
G1 X101.691 Y98.142 F4200.000
G1 X105.798 Y102.249 F1050.000 E11.67589
G1 X105.979 Y101.694 E11.69365
G1 X101.960 Y97.676 E11.86662
G1 X100.447 Y99.839 F4200.000
G1 X103.791 Y103.184 F1050.000 E12.01057
G1 X103.056 Y103.184 F4200.000
G1 X99.711 Y99.839 F1050.000 E12.15453
G1 X98.975 Y99.840 F4200.000
G1 X102.320 Y103.184 F1050.000 E12.29848
G1 X101.584 Y103.184 F4200.000
G1 X98.240 Y99.840 F1050.000 E12.44243
G1 X97.504 Y99.840 F4200.000
G1 X100.849 Y103.184 F1050.000 E12.58639
G1 X100.564 Y103.635 F4200.000
G1 X96.769 Y99.840 F1050.000 E12.74973
G1 X96.033 Y99.840 F4200.000
G1 X100.295 Y104.101 F1050.000 E12.93315
G1 X100.026 Y104.567 F4200.000
G1 X95.298 Y99.840 F1050.000 E13.13663
G1 X94.563 Y99.840 F4200.000
G1 X99.756 Y105.033 F1050.000 E13.36018
G1 X99.487 Y105.500 F4200.000
G1 X93.827 Y99.840 F1050.000 E13.60380
G1 X93.092 Y99.840 F4200.000
G1 X99.218 Y105.966 F1050.000 E13.86748
G1 X99.191 Y106.674 F4200.000
G1 X92.356 Y99.840 F1050.000 E14.16164
G1 X85.737 Y99.839 F4200.000
G1 X98.449 Y112.551 F1050.000 E14.70875
G1 X99.184 Y112.551 E14.73114
G1 X86.473 Y99.839 E15.27825
G1 X87.208 Y99.839 E15.30063
G1 X99.920 Y112.551 E15.84774
G1 X100.655 Y112.551 E15.87013
G1 X87.944 Y99.839 E16.41724
G1 X88.679 Y99.839 E16.43962
G1 X101.391 Y112.551 E16.98673
G1 X102.126 Y112.551 E17.00912
G1 X89.415 Y99.839 E17.55623
G1 X90.150 Y99.839 E17.57861
G1 X102.861 Y112.551 E18.12573
G1 X103.597 Y112.551 E18.14811
G1 X90.886 Y99.839 E18.69522
G1 X91.621 Y99.839 E18.71760
G1 X100.195 Y108.414 E19.08667
G1 X100.988 Y109.206 F4200.000
G1 X104.332 Y112.551 F1050.000 E19.23062
G1 X105.068 Y112.551 E19.25300
G1 X101.723 Y109.206 E19.39696
G1 X102.459 Y109.206 E19.41934
G1 X105.803 Y112.551 E19.56329
G1 X106.539 Y112.551 E19.58568
G1 X103.194 Y109.206 E19.72963
G1 X103.929 Y109.206 E19.75201
G1 X106.105 Y111.382 E19.84564
G1 X105.751 Y110.292 E19.88050
G1 X104.355 Y108.896 E19.94059
G1 X104.624 Y108.430 F4200.000
G1 X105.399 Y109.205 F1050.000 E19.97396
G1 F1800.000 E18.97396
G92 E0
G1 X108.503 Y94.659 F4200.000
G1 F1800.000 E1.00000
G1 X106.044 Y92.199 F1050.000 E1.10584
G1 X106.461 Y91.879 F4200.000
G1 X107.499 Y92.918 F1050.000 E1.15053
G1 F1800.000 E0.15053
G92 E0
G1 X85.001 Y99.840 F4200.000
G1 F1800.000 E1.00000
G1 X97.713 Y112.551 F1050.000 E1.54711
G1 X96.977 Y112.551 E1.56950
G1 X84.266 Y99.840 E2.11661
G1 X83.531 Y99.840 E2.13899
G1 X96.242 Y112.551 E2.68610
G1 X95.506 Y112.551 E2.70848
G1 X82.795 Y99.840 E3.25559
G1 X82.060 Y99.840 E3.27798
G1 X94.771 Y112.551 E3.82509
G1 X94.036 Y112.551 E3.84747
