; generated by Slic3r 0.7.3-dev on 2012-06-05 at 13:02:31

; layer_height = 0.4
; perimeters = 2
; solid_layers = 3
; fill_density = 0.15
; nozzle_diameter = 0.5
; filament_diameter = 3
; extrusion_multiplier = 1.02
; perimeter_speed = 30
; infill_speed = 40
; travel_speed = 70
; extrusion_width_ratio = 0
; scale = 1
; single wall width = 0.53mm

M104 S200 ; set temperature
M106
M104 S230
G28
M140 S60
G1 X205 Y105 F4000
M109 S230
G92 E0
G1 E5 F50
G1 X205 Y90 F2000
G90 ; use absolute coordinates
G21 ; set units to millimeters
G92 E0 ; reset extrusion distance
M82 ; use absolute distances for extrusion
G1 Z0.400 F4200.000
G1 X90.740 Y90.540
G1 F1800.000 E1.00000
G1 X91.210 Y90.130 F900.000 E1.01871
G1 X93.240 Y88.610 E1.09477
G1 X93.800 Y88.310 E1.11382
G1 X96.120 Y87.350 E1.18913
G1 X97.020 Y87.110 E1.21707
G1 X99.530 Y86.780 E1.29300
G1 X99.840 Y86.760 E1.30232
G1 X100.160 Y86.760 E1.31192
G1 X100.800 Y86.810 E1.33117
G1 X102.970 Y87.110 E1.39687
G1 X103.580 Y87.260 E1.41572
G1 X103.870 Y87.350 E1.42482
G1 X106.190 Y88.310 E1.50013
G1 X106.740 Y88.610 E1.51892
G1 X107.010 Y88.780 E1.52849
G1 X109.010 Y90.320 E1.60420
G1 X109.460 Y90.750 E1.62287
G1 X109.670 Y90.980 E1.63221
G1 X111.210 Y92.980 E1.70792
G1 X111.380 Y93.250 E1.71749
G1 X111.680 Y93.800 E1.73628
G1 X112.640 Y96.120 E1.81159
G1 X112.880 Y97.020 E1.83952
G1 X113.210 Y99.530 E1.91546
G1 X113.230 Y99.840 E1.92477
G1 X113.230 Y100.160 E1.93437
G1 X113.180 Y100.800 E1.95362
G1 X112.880 Y102.970 E2.01933
G1 X112.730 Y103.580 E2.03817
G1 X112.640 Y103.870 E2.04728
G1 X111.680 Y106.190 E2.12258
G1 X111.380 Y106.740 E2.14138
G1 X111.210 Y107.010 E2.15095
G1 X109.670 Y109.010 E2.22665
G1 X109.240 Y109.460 E2.24532
G1 X109.010 Y109.670 E2.25466
G1 X107.010 Y111.200 E2.33019
G1 X106.480 Y111.530 E2.34892
G1 X105.920 Y111.800 E2.36756
G1 X103.870 Y112.640 E2.43401
G1 X103.570 Y112.740 E2.44350
G1 X102.940 Y112.890 E2.46292
G1 X100.460 Y113.210 E2.53792
G1 X100.140 Y113.230 E2.54754
G1 X99.830 Y113.230 E2.55684
G1 X97.020 Y112.880 E2.64177
G1 X96.410 Y112.730 E2.66061
G1 X96.120 Y112.640 E2.66972
G1 X93.800 Y111.680 E2.74502
G1 X93.250 Y111.380 E2.76381
G1 X92.980 Y111.210 E2.77338
G1 X90.980 Y109.670 E2.84909
G1 X90.530 Y109.240 E2.86776
G1 X90.320 Y109.010 E2.87710
G1 X88.780 Y107.010 E2.95281
G1 X88.610 Y106.740 E2.96238
G1 X88.310 Y106.190 E2.98117
G1 X87.350 Y103.870 E3.05648
G1 X87.180 Y103.280 E3.07490
G1 X87.110 Y102.970 E3.08443
G1 X86.780 Y100.480 E3.15977
G1 X86.760 Y100.160 E3.16938
G1 X86.760 Y99.840 E3.17898
G1 X86.810 Y99.210 E3.19794
G1 X87.110 Y97.020 E3.26423
G1 X87.260 Y96.410 E3.28308
G1 X87.350 Y96.120 E3.29218
G1 X88.310 Y93.800 E3.36749
G1 X88.450 Y93.520 E3.37688
G1 X88.960 Y92.730 E3.40508
G1 X90.300 Y91.000 E3.47072
G1 X90.510 Y90.760 E3.48028
G1 X90.683 Y90.594 E3.48747
G1 F1800.000 E2.48747
G92 E0
G1 X97.338 Y98.066 F4200.000
G1 F1800.000 E1.00000
G1 X98.983 Y96.871 F900.000 E1.06100
G1 X101.017 Y96.871 E1.12199
G1 X101.966 Y97.560 E1.15717
G1 X101.966 Y96.716 E1.18249
G1 X105.434 Y96.716 E1.28653
G1 X105.434 Y103.284 E1.48355
G1 X101.966 Y103.284 E1.58759
G1 X101.966 Y102.440 E1.61291
G1 X101.017 Y103.129 E1.64809
G1 X98.983 Y103.129 E1.70908
G1 X97.338 Y101.934 E1.77008
G1 X96.709 Y100.000 E1.83107
G1 X97.314 Y98.141 E1.88971
G1 X96.900 Y97.747 F4200.000
G1 X96.168 Y100.000 F900.000 E1.96075
G1 X96.900 Y102.253 E2.03178
G1 X98.816 Y103.645 E2.10282
G1 X101.184 Y103.645 E2.17386
G1 X101.450 Y103.451 E2.18373
G1 X101.450 Y103.800 E2.19418
G1 X105.477 Y103.800 E2.31494
G1 X104.749 Y104.749 E2.35083
G1 X103.358 Y105.815 E2.40339
G1 X101.726 Y106.488 E2.45633
G1 X100.000 Y106.716 E2.50856
G1 X98.262 Y106.487 E2.56114
G1 X96.642 Y105.816 E2.61372
G1 X95.251 Y104.749 E2.66631
G1 X94.184 Y103.358 E2.71889
G1 X93.513 Y101.738 E2.77147
G1 X93.284 Y100.000 E2.82405
G1 X93.513 Y98.262 E2.87664
G1 X94.184 Y96.642 E2.92922
G1 X95.244 Y95.261 E2.98145
G1 X96.643 Y94.184 E3.03439
G1 X98.262 Y93.513 E3.08695
G1 X100.000 Y93.284 E3.13953
G1 X101.738 Y93.513 E3.19212
G1 X103.358 Y94.184 E3.24470
G1 X104.749 Y95.251 E3.29728
G1 X105.477 Y96.200 E3.33316
G1 X101.450 Y96.200 E3.45393
G1 X101.450 Y96.549 E3.46438
G1 X101.184 Y96.355 E3.47425
G1 X98.816 Y96.355 E3.54529
G1 X96.963 Y97.701 E3.61396
G1 F1800.000 E2.61396
G92 E0
G1 X105.950 Y96.965 F4200.000
G1 F1800.000 E1.00000
G1 X106.487 Y98.262 F900.000 E1.04211
G1 X106.716 Y100.000 E1.09469
G1 X106.487 Y101.738 E1.14727
G1 X105.950 Y103.035 E1.18938
G1 X105.950 Y97.044 E1.36908
G1 X106.266 Y96.382 F4200.000
G1 X106.989 Y98.127 F900.000 E1.42573
G1 X107.235 Y100.000 E1.48238
G1 X106.989 Y101.873 E1.53903
G1 X106.266 Y103.618 E1.59569
G1 X105.116 Y105.116 E1.65234
G1 X103.618 Y106.266 E1.70898
G1 X101.861 Y106.990 E1.76599
G1 X100.000 Y107.235 E1.82228
G1 X98.127 Y106.989 E1.87893
G1 X96.382 Y106.266 E1.93558
G1 X94.884 Y105.116 E1.99223
G1 X93.734 Y103.618 E2.04888
G1 X93.011 Y101.873 E2.10553
G1 X92.765 Y100.000 E2.16218
G1 X93.011 Y98.127 E2.21883
G1 X93.734 Y96.382 E2.27548
G1 X94.876 Y94.894 E2.33177
G1 X96.383 Y93.734 E2.38878
G1 X98.127 Y93.011 E2.44542
G1 X100.000 Y92.765 E2.50207
G1 X101.873 Y93.011 E2.55872
G1 X103.618 Y93.734 E2.61538
G1 X105.116 Y94.884 E2.67203
G1 X106.218 Y96.320 E2.72631
G1 X102.610 Y94.345 F4200.000
G1 X104.099 Y95.834 F1050.000 E2.79273
G1 X103.346 Y95.834 E2.81647
G1 X101.367 Y93.855 E2.90473
G1 X100.500 Y93.741 E2.93231
G1 X102.593 Y95.834 E3.02566
G1 X101.840 Y95.834 E3.04940
G1 X99.684 Y93.677 E3.14559
G1 X99.019 Y93.765 E3.16675
G1 X101.088 Y95.834 E3.25903
G1 X100.490 Y95.989 E3.27850
G1 X98.354 Y93.853 E3.37378
G1 X97.800 Y94.052 E3.39234
G1 X99.737 Y95.989 E3.47873
G1 X98.985 Y95.989 E3.50246
G1 X97.268 Y94.272 E3.57902
G1 X96.740 Y94.497 F4200.000
G1 X98.470 Y96.226 F1050.000 E3.65618
G1 X98.034 Y96.543 F4200.000
G1 X96.314 Y94.824 F1050.000 E3.73287
G1 X95.889 Y95.151 F4200.000
G1 X97.598 Y96.860 F1050.000 E3.80908
G1 X97.162 Y97.177 F4200.000
G1 X95.464 Y95.479 F1050.000 E3.88481
G1 X95.137 Y95.905 F4200.000
G1 X96.726 Y97.493 F1050.000 E3.95568
G1 X96.474 Y97.995 F4200.000
G1 X94.810 Y96.331 F1050.000 E4.02992
G1 X94.484 Y96.757 F4200.000
G1 X96.290 Y98.563 F1050.000 E4.11046
G1 X96.105 Y99.131 E4.12931
G1 X94.264 Y97.290 E4.21145
G1 X94.043 Y97.822 E4.22962
G1 X95.921 Y99.699 E4.31337
G1 X95.850 Y100.382 F4200.000
G1 X93.849 Y98.381 F1050.000 E4.40264
G1 X93.762 Y99.046 E4.42380
G1 X96.213 Y101.497 E4.53313
G1 X96.575 Y102.612 F4200.000
G1 X93.674 Y99.711 F1050.000 E4.66253
G1 X93.746 Y100.535 E4.68863
G1 X99.465 Y106.255 E4.94375
G1 X98.598 Y106.140 E4.97132
G1 X93.860 Y101.402 E5.18269
G1 X94.366 Y102.661 E5.22550
G1 X97.339 Y105.634 E5.35810
G1 X96.578 Y102.615 F4200.000
G1 X100.289 Y106.326 F1050.000 E5.52362
G1 X100.954 Y106.238 E5.54478
G1 X98.727 Y104.011 E5.64412
G1 X99.480 Y104.011 E5.66787
G1 X101.619 Y106.151 E5.76330
G1 X102.177 Y105.955 E5.78192
G1 X100.233 Y104.011 E5.86863
G1 X101.140 Y104.166 E5.89767
G1 X102.709 Y105.735 E5.96767
G1 X103.243 Y105.516 F4200.000
G1 X101.893 Y104.166 F1050.000 E6.02787
G1 X102.646 Y104.166 E6.05161
G1 X103.669 Y105.190 E6.09727
G1 X104.095 Y104.863 F4200.000
G1 X103.398 Y104.166 F1050.000 E6.12836
M104 S230 ; set temperature
G1 F1800.000 E5.12836
G92 E0
G1 Z0.800 F4200.000
G1 X101.966 Y103.284
G1 F1800.000 E1.00000
G1 X101.966 Y102.440 F1800.000 E1.02532
G1 X101.017 Y103.129 E1.06050
G1 X98.983 Y103.129 E1.12149
G1 X97.338 Y101.934 E1.18249
G1 X96.709 Y100.000 E1.24349
G1 X97.338 Y98.066 E1.30448
G1 X98.983 Y96.871 E1.36548
G1 X101.017 Y96.871 E1.42648
G1 X101.966 Y97.560 E1.46165
G1 X101.966 Y96.716 E1.48697
G1 X105.434 Y96.716 E1.59101
G1 X105.434 Y103.284 E1.78803
G1 X102.044 Y103.284 E1.88971
G1 X101.450 Y103.451 F4200.000
G1 X101.450 Y103.800 F1800.000 E1.90016
G1 X105.477 Y103.800 E2.02092
G1 X104.749 Y104.749 E2.05680
G1 X103.359 Y105.815 E2.10933
G1 X101.703 Y106.491 E2.16299
G1 X100.000 Y106.716 E2.21451
G1 X98.262 Y106.487 E2.26710
G1 X96.642 Y105.816 E2.31968
G1 X95.251 Y104.749 E2.37226
G1 X94.184 Y103.358 E2.42484
G1 X93.513 Y101.738 E2.47743
G1 X93.284 Y100.000 E2.53001
G1 X93.513 Y98.262 E2.58259
G1 X94.184 Y96.642 E2.63517
G1 X95.230 Y95.279 E2.68669
G1 X96.644 Y94.183 E2.74036
G1 X98.262 Y93.513 E2.79288
G1 X100.000 Y93.284 E2.84546
G1 X101.738 Y93.513 E2.89805
G1 X103.358 Y94.184 E2.95063
G1 X104.749 Y95.251 E3.00321
G1 X105.477 Y96.200 E3.03909
G1 X101.450 Y96.200 E3.15986
G1 X101.450 Y96.549 E3.17031
G1 X101.184 Y96.355 E3.18018
G1 X98.816 Y96.355 E3.25121
G1 X96.900 Y97.747 E3.32225
G1 X96.168 Y100.000 E3.39329
G1 X96.900 Y102.253 E3.46433
G1 X98.816 Y103.645 E3.53537
G1 X101.184 Y103.645 E3.60640
G1 X101.387 Y103.498 E3.61391
G1 F1800.000 E2.61391
G92 E0
G1 X105.950 Y103.035 F4200.000
G1 F1800.000 E1.00000
G1 X105.950 Y96.965 F1800.000 E1.18207
G1 X106.487 Y98.262 E1.22417
G1 X106.716 Y100.000 E1.27676
G1 X106.487 Y101.738 E1.32934
G1 X105.980 Y102.962 E1.36908
G1 X106.266 Y103.618 F4200.000
G1 X105.116 Y105.116 F1800.000 E1.42573
G1 X103.618 Y106.266 E1.48236
G1 X101.836 Y106.993 E1.54010
G1 X100.000 Y107.235 E1.59565
G1 X98.127 Y106.989 E1.65230
G1 X96.382 Y106.266 E1.70895
G1 X94.884 Y105.116 E1.76560
G1 X93.734 Y103.618 E1.82225
G1 X93.011 Y101.873 E1.87890
G1 X92.765 Y100.000 E1.93555
G1 X93.011 Y98.127 E1.99220
G1 X93.734 Y96.382 E2.04885
G1 X94.862 Y94.913 E2.10441
G1 X96.383 Y93.734 E2.16214
G1 X98.127 Y93.011 E2.21877
G1 X100.000 Y92.765 E2.27542
G1 X101.873 Y93.011 E2.33207
G1 X103.618 Y93.734 E2.38872
G1 X105.116 Y94.884 E2.44537
G1 X106.266 Y96.382 E2.50202
G1 X106.989 Y98.127 E2.55867
G1 X107.235 Y100.000 E2.61533
G1 X106.989 Y101.873 E2.67198
G1 X106.296 Y103.545 E2.72627
G1 X104.128 Y104.166 F4200.000
G1 X102.664 Y105.630 F2100.000 E2.79170
G1 X101.400 Y106.141 E2.83479
G1 X103.374 Y104.166 E2.92304
G1 X102.620 Y104.166 E2.94686
G1 X100.532 Y106.255 E3.04022
G1 X99.707 Y106.325 E3.06636
G1 X101.867 Y104.166 E3.16287
G1 X101.113 Y104.166 E3.18670
G1 X99.041 Y106.238 E3.27929
G1 X98.375 Y106.150 E3.30052
G1 X100.514 Y104.011 E3.39611
G1 X99.760 Y104.011 E3.41993
G1 X97.817 Y105.955 E3.50680
G1 X97.284 Y105.734 E3.52503
G1 X99.007 Y104.011 E3.60204
G1 X98.482 Y103.782 F4200.000
G1 X96.751 Y105.513 F2100.000 E3.67938
G1 X96.325 Y105.186 F4200.000
G1 X98.045 Y103.465 F2100.000 E3.75627
G1 X97.609 Y103.148 F4200.000
G1 X95.899 Y104.858 F2100.000 E3.83271
G1 X95.472 Y104.531 F4200.000
G1 X97.172 Y102.831 F2100.000 E3.90870
G1 X96.736 Y102.514 F4200.000
G1 X95.144 Y104.105 F2100.000 E3.97982
G1 X94.817 Y103.679 F4200.000
G1 X96.478 Y102.017 F2100.000 E4.05407
G1 X96.293 Y101.449 E4.07297
G1 X94.490 Y103.252 E4.15358
G1 X94.268 Y102.721 F4200.000
G1 X96.109 Y100.880 F2100.000 E4.23586
G1 X95.924 Y100.311 E4.25477
G1 X94.047 Y102.188 E4.33865
G1 X93.851 Y101.630 E4.35733
G1 X95.844 Y99.636 E4.44645
G1 X96.207 Y98.520 E4.48355
G1 X93.763 Y100.964 E4.59280
G1 X93.675 Y100.298 E4.61403
G1 X96.570 Y97.403 E4.74342
G1 X96.616 Y97.357 F4200.000
G1 X100.298 Y93.675 F2100.000 E4.90799
G1 X100.964 Y93.763 F4200.000
G1 X98.739 Y95.989 F2100.000 E5.00747
G1 X99.492 Y95.989 F4200.000
G1 X101.630 Y93.851 F2100.000 E5.10304
G1 X102.188 Y94.047 F4200.000
G1 X100.246 Y95.989 F2100.000 E5.18982
G1 X101.155 Y95.834 F4200.000
G1 X102.721 Y94.268 F2100.000 E5.25981
G1 X103.252 Y94.490 F4200.000
G1 X101.908 Y95.834 F2100.000 E5.31988
G1 X102.662 Y95.834 F4200.000
G1 X103.679 Y94.817 F2100.000 E5.36531
G1 X104.105 Y95.144 F4200.000
G1 X103.416 Y95.834 F2100.000 E5.39613
G1 X104.169 Y95.834 F4200.000
G1 X104.531 Y95.472 F2100.000 E5.41229
G1 X99.476 Y93.744 F4200.000
G1 X93.744 Y99.476 F2100.000 E5.66847
G1 X93.858 Y98.608 E5.69615
G1 X98.608 Y93.858 E5.90842
G1 X97.351 Y94.361 E5.95119
G1 X94.361 Y97.351 E6.08485
G1 F1800.000 E5.08485
G92 E0
G1 Z1.200 F4200.000
G1 X97.338 Y98.066
G1 F1800.000 E1.00000
G1 X98.983 Y96.871 F1800.000 E1.06100
G1 X101.017 Y96.871 E1.12199
G1 X101.966 Y97.560 E1.15717
G1 X101.966 Y96.716 E1.18249
G1 X105.434 Y96.716 E1.28653
G1 X105.434 Y103.284 E1.48355
G1 X101.966 Y103.284 E1.58759
G1 X101.966 Y102.440 E1.61291
G1 X101.017 Y103.129 E1.64809
G1 X98.983 Y103.129 E1.70908
G1 X97.338 Y101.934 E1.77008
G1 X96.709 Y100.000 E1.83107
G1 X97.314 Y98.141 E1.88971
G1 X96.900 Y97.747 F4200.000
G1 X96.168 Y100.000 F1800.000 E1.96075
G1 X96.900 Y102.253 E2.03178
G1 X98.816 Y103.645 E2.10282
G1 X101.184 Y103.645 E2.17386
G1 X101.450 Y103.451 E2.18373
G1 X101.450 Y103.800 E2.19418
G1 X105.477 Y103.800 E2.31494
G1 X104.749 Y104.749 E2.35083
G1 X103.358 Y105.816 E2.40341
G1 X101.738 Y106.487 E2.45599
G1 X100.000 Y106.716 E2.50857
G1 X98.262 Y106.487 E2.56115
G1 X96.642 Y105.816 E2.61374
G1 X95.251 Y104.749 E2.66632
G1 X94.184 Y103.358 E2.71890
G1 X93.513 Y101.738 E2.77148
G1 X93.284 Y100.000 E2.82407
G1 X93.513 Y98.262 E2.87665
G1 X94.184 Y96.642 E2.92923
G1 X95.251 Y95.251 E2.98181
G1 X96.642 Y94.184 E3.03439
G1 X98.262 Y93.513 E3.08698
G1 X100.000 Y93.284 E3.13956
G1 X101.738 Y93.513 E3.19214
G1 X103.358 Y94.184 E3.24472
G1 X104.749 Y95.251 E3.29731
G1 X105.477 Y96.200 E3.33319
G1 X101.450 Y96.200 E3.45395
G1 X101.450 Y96.549 E3.46440
G1 X101.184 Y96.355 E3.47427
G1 X98.816 Y96.355 E3.54531
G1 X96.963 Y97.701 E3.61399
G1 F1800.000 E2.61399
G92 E0
G1 X105.950 Y96.965 F4200.000
G1 F1800.000 E1.00000
G1 X106.487 Y98.262 F1800.000 E1.04211
G1 X106.716 Y100.000 E1.09469
G1 X106.487 Y101.738 E1.14727
G1 X105.950 Y103.035 E1.18938
G1 X105.950 Y97.044 E1.36908
G1 X106.266 Y96.382 F4200.000
G1 X106.989 Y98.127 F1800.000 E1.42573
G1 X107.235 Y100.000 E1.48238
G1 X106.989 Y101.873 E1.53903
G1 X106.266 Y103.618 E1.59569
G1 X105.116 Y105.116 E1.65234
G1 X103.618 Y106.266 E1.70899
G1 X101.873 Y106.989 E1.76564
G1 X100.000 Y107.235 E1.82229
G1 X98.127 Y106.989 E1.87894
G1 X96.382 Y106.266 E1.93559
G1 X94.884 Y105.116 E1.99224
G1 X93.734 Y103.618 E2.04889
G1 X93.011 Y101.873 E2.10554
G1 X92.765 Y100.000 E2.16219
G1 X93.011 Y98.127 E2.21884
G1 X93.734 Y96.382 E2.27550
G1 X94.884 Y94.884 E2.33215
G1 X96.382 Y93.734 E2.38880
G1 X98.127 Y93.011 E2.44545
G1 X100.000 Y92.765 E2.50210
G1 X101.873 Y93.011 E2.55875
G1 X103.618 Y93.734 E2.61540
G1 X105.116 Y94.884 E2.67205
G1 X106.218 Y96.320 E2.72634
G1 X104.128 Y95.834 F4200.000
G1 X102.659 Y94.365 F2100.000 E2.79201
G1 X101.399 Y93.859 F4200.000
G1 X103.374 Y95.834 F2100.000 E2.88031
G1 X102.620 Y95.834 F4200.000
G1 X100.531 Y93.745 F2100.000 E2.97373
G1 X99.706 Y93.675 F4200.000
G1 X101.866 Y95.834 F2100.000 E3.07029
G1 X101.112 Y95.834 F4200.000
G1 X99.040 Y93.762 F2100.000 E3.16292
G1 X98.374 Y93.850 F4200.000
G1 X100.513 Y95.989 F2100.000 E3.25856
G1 X99.759 Y95.989 F4200.000
G1 X97.816 Y94.046 F2100.000 E3.34545
G1 X97.282 Y94.266 F4200.000
G1 X99.005 Y95.989 F2100.000 E3.42246
G1 X98.480 Y96.219 F4200.000
G1 X96.750 Y94.488 F2100.000 E3.49985
G1 X96.324 Y94.816 F4200.000
G1 X98.044 Y96.536 F2100.000 E3.57678
G1 X97.607 Y96.853 F4200.000
G1 X95.897 Y95.143 F2100.000 E3.65326
G1 X95.470 Y95.470 F4200.000
G1 X97.170 Y97.170 F2100.000 E3.72929
G1 X96.734 Y97.488 F4200.000
G1 X95.143 Y95.897 F2100.000 E3.80043
G1 X94.816 Y96.324 F4200.000
G1 X96.477 Y97.985 F2100.000 E3.87474
G1 X96.293 Y98.554 F4200.000
G1 X94.488 Y96.750 F2100.000 E3.95543
G1 X94.266 Y97.282 F4200.000
G1 X96.108 Y99.124 F2100.000 E4.03777
G1 X95.923 Y99.693 F4200.000
G1 X94.046 Y97.816 F2100.000 E4.12171
G1 X93.850 Y98.374 F4200.000
G1 X95.847 Y100.371 F2100.000 E4.21100
G1 X96.210 Y101.488 F4200.000
G1 X93.762 Y99.040 F2100.000 E4.32045
G1 X96.573 Y102.604 F4200.000
G1 X93.675 Y99.706 F2100.000 E4.45005
G1 X93.745 Y100.531 E4.47621
G1 X99.469 Y106.255 E4.73220
G1 X98.601 Y106.141 E4.75989
G1 X93.859 Y101.399 E4.97194
G1 X94.365 Y102.659 E5.01488
G1 X97.341 Y105.635 E5.14795
G1 X96.597 Y102.629 F4200.000
G1 X100.294 Y106.325 F2100.000 E5.31327
G1 X100.960 Y106.238 E5.33452
G1 X98.734 Y104.011 E5.43408
G1 X99.487 Y104.011 E5.45792
G1 X101.626 Y106.150 E5.55357
G1 X102.184 Y105.954 E5.57227
G1 X100.241 Y104.011 E5.65916
G1 X101.150 Y104.166 E5.68831
G1 X102.718 Y105.734 E5.75840
G1 X103.250 Y105.512 F4200.000
G1 X101.904 Y104.166 F2100.000 E5.81858
G1 X102.658 Y104.166 E5.84242
