; generated by Slic3r 0.7.3-dev on 2012-06-10 at 19:04:15

; layer_height = 0.4
; perimeters = 2
; solid_layers = 3
; fill_density = 0.15
; nozzle_diameter = 0.5
; filament_diameter = 3
; extrusion_multiplier = 1.02
; perimeter_speed = 30
; infill_speed = 40
; travel_speed = 70
; extrusion_width_ratio = 0
; scale = 1
; single wall width = 0.53mm

M104 S200 ; set temperature
M106
M104 S230
G28
M140 S60
G1 X205 Y105 F4000
M109 S230
G92 E0
G1 E5 F50
G1 X205 Y90 F2000
G90 ; use absolute coordinates
G21 ; set units to millimeters
G92 E0 ; reset extrusion distance
M82 ; use absolute distances for extrusion
G1 Z0.400 F4200.000
G1 X45.979 Y75.845
G1 F1800.000 E1.00000
G1 X47.969 Y75.215 F900.000 E1.06261
G1 X48.559 Y75.085 E1.08073
G1 X49.159 Y75.015 E1.09885
G1 X149.099 Y68.795 E4.10219
G1 X150.109 Y68.815 E4.13249
G1 X152.159 Y69.045 E4.19436
G1 X152.699 Y69.155 E4.21089
G1 X152.969 Y69.225 E4.21926
G1 X153.239 Y69.315 E4.22779
G1 X153.749 Y69.525 E4.24433
G1 X156.009 Y70.795 E4.32209
G1 X156.469 Y71.125 E4.33907
G1 X156.899 Y71.485 E4.35589
G1 X157.469 Y72.105 E4.38115
G1 X158.829 Y73.985 E4.45074
G1 X159.239 Y74.715 E4.47586
G1 X159.449 Y75.225 E4.49240
G1 X159.619 Y75.765 E4.50938
G1 X160.099 Y78.025 E4.57868
G1 X160.159 Y78.525 E4.59378
G1 X160.159 Y121.465 E5.88170
G1 X160.099 Y121.965 E5.89680
G1 X159.619 Y124.225 E5.96610
G1 X159.449 Y124.755 E5.98279
G1 X159.239 Y125.265 E5.99934
G1 X159.119 Y125.515 E6.00766
G1 X158.839 Y125.995 E6.02432
G1 X157.479 Y127.885 E6.09416
G1 X157.099 Y128.315 E6.11137
G1 X156.679 Y128.705 E6.12856
G1 X156.229 Y129.055 E6.14566
G1 X155.749 Y129.365 E6.16280
G1 X153.979 Y130.365 E6.22378
G1 X153.219 Y130.685 E6.24851
G1 X152.699 Y130.835 E6.26474
G1 X152.169 Y130.945 E6.28098
G1 X149.869 Y131.195 E6.35037
G1 X149.589 Y131.205 E6.35877
G1 X149.299 Y131.205 E6.36747
G1 X148.739 Y131.155 E6.38433
G1 X148.459 Y131.115 E6.39282
G1 X147.909 Y130.995 E6.40970
G1 X45.269 Y94.315 E9.67890
G1 X44.749 Y94.035 E9.69661
G1 X44.509 Y93.885 E9.70510
G1 X43.809 Y93.345 E9.73162
G1 X42.099 Y91.765 E9.80145
G1 X41.739 Y91.335 E9.81827
G1 X41.419 Y90.875 E9.83508
G1 X41.149 Y90.385 E9.85186
G1 X40.209 Y88.265 E9.92141
G1 X40.039 Y87.735 E9.93811
G1 X39.909 Y87.195 E9.95477
G1 X39.839 Y86.645 E9.97140
G1 X39.809 Y86.095 E9.98792
G1 X39.819 Y84.055 E10.04911
G1 X39.909 Y83.225 E10.07415
G1 X40.039 Y82.685 E10.09081
G1 X40.119 Y82.425 E10.09896
G1 X40.219 Y82.155 E10.10760
G1 X41.159 Y80.045 E10.17688
G1 X41.579 Y79.325 E10.20188
G1 X41.919 Y78.885 E10.21856
G1 X42.299 Y78.465 E10.23555
G1 X44.029 Y76.915 E10.30522
G1 X44.479 Y76.575 E10.32213
G1 X44.949 Y76.285 E10.33870
G1 X45.719 Y75.935 E10.36407
G1 X45.905 Y75.870 E10.36996
G1 F1800.000 E9.36996
G92 E0
G1 X48.424 Y82.578 F4200.000
G1 F1800.000 E1.00000
G1 X51.478 Y82.578 F900.000 E1.09158
G1 X53.004 Y85.223 E1.18317
G1 X51.478 Y87.867 E1.27476
G1 X48.424 Y87.867 E1.36634
G1 X46.897 Y85.223 E1.45793
G1 X48.385 Y82.646 E1.54715
G1 X48.722 Y83.093 F4200.000
G1 X51.180 Y83.093 F900.000 E1.62090
G1 X52.409 Y85.223 E1.69464
G1 X51.180 Y87.352 E1.76838
G1 X48.722 Y87.352 E1.84212
G1 X47.492 Y85.223 E1.91587
G1 X48.682 Y83.161 E1.98725
G1 F1800.000 E0.98725
G92 E0
G1 X146.897 Y79.000 F4200.000
G1 F1800.000 E1.00000
G1 X148.424 Y76.356 F900.000 E1.09159
G1 X151.478 Y76.356 E1.18317
G1 X153.004 Y79.000 E1.27476
G1 X151.478 Y81.644 E1.36634
G1 X148.424 Y81.644 E1.45793
G1 X146.937 Y79.068 E1.54715
G1 X147.492 Y79.000 F4200.000
G1 X148.722 Y76.871 F900.000 E1.62089
G1 X151.180 Y76.871 E1.69464
G1 X152.409 Y79.000 E1.76838
G1 X151.180 Y81.129 E1.84212
G1 X148.722 Y81.129 E1.91587
G1 X147.532 Y79.068 E1.98725
G1 F1800.000 E0.98725
G92 E0
G1 X146.327 Y82.892 F4200.000
G1 F1800.000 E1.00000
G1 X146.327 Y115.752 F900.000 E1.98558
G1 X70.850 Y88.749 E4.38989
G1 X71.016 Y87.579 E4.42533
G1 X146.248 Y82.897 E6.68615
G1 X145.811 Y83.441 F4200.000
G1 X145.811 Y115.021 F900.000 E7.63335
G1 X71.419 Y88.405 E10.00312
G1 X71.467 Y88.067 E10.01337
G1 X145.733 Y83.446 E12.24515
G1 F1800.000 E11.24515
G92 E0
G1 X148.424 Y118.356 F4200.000
G1 F1800.000 E1.00000
G1 X151.478 Y118.356 F900.000 E1.09159
G1 X153.004 Y121.000 E1.18317
G1 X151.478 Y123.644 E1.27476
G1 X148.424 Y123.644 E1.36634
G1 X146.897 Y121.000 E1.45793
G1 X148.385 Y118.424 E1.54715
G1 X148.722 Y118.871 F4200.000
G1 X151.180 Y118.871 F900.000 E1.62089
G1 X152.409 Y121.000 E1.69464
G1 X151.180 Y123.129 E1.76838
G1 X148.722 Y123.129 E1.84212
G1 X147.492 Y121.000 E1.91587
G1 X148.682 Y118.939 E1.98725
G1 F1800.000 E0.98725
G92 E0
G1 X147.952 Y124.161 F4200.000
G1 F1800.000 E1.00000
G1 X48.107 Y88.439 F900.000 E4.18058
G1 X46.953 Y87.400 E4.22715
G1 X46.327 Y85.993 E4.27336
G1 X46.327 Y84.452 E4.31956
G1 X46.953 Y83.045 E4.36577
G1 X48.098 Y82.014 E4.41198
G1 X49.627 Y81.517 E4.46019
G1 X149.464 Y75.305 E7.46044
G1 X151.096 Y75.476 E7.50966
G1 X152.430 Y76.247 E7.55585
G1 X153.336 Y77.493 E7.60206
G1 X153.673 Y79.082 E7.65078
G1 X153.673 Y120.918 E8.90560
G1 X153.336 Y122.507 E8.95431
G1 X152.430 Y123.753 E9.00053
G1 X151.096 Y124.524 E9.04672
G1 X149.564 Y124.685 E9.09293
G1 X148.027 Y124.185 E9.14140
G1 X147.786 Y124.649 F4200.000
G1 X47.838 Y88.890 F900.000 E12.32526
G1 X46.527 Y87.710 E12.37816
G1 X45.812 Y86.102 E12.43093
G1 X45.812 Y84.343 E12.48371
G1 X46.527 Y82.735 E12.53649
G1 X47.835 Y81.558 E12.58926
G1 X49.530 Y81.007 E12.64272
G1 X149.475 Y74.788 E15.64622
G1 X151.259 Y74.976 E15.70001
G1 X152.782 Y75.855 E15.75277
G1 X153.817 Y77.279 E15.80555
G1 X154.188 Y79.028 E15.85917
G1 X154.188 Y120.972 E17.11724
G1 X153.817 Y122.721 E17.17087
G1 X152.782 Y124.145 E17.22365
G1 X151.259 Y125.025 E17.27641
G1 X149.509 Y125.208 E17.32919
G1 X147.861 Y124.673 E17.38117
G1 X147.693 Y123.474 F4200.000
G1 X137.135 Y112.915 F1050.000 E17.83113
G1 X135.997 Y112.509 F4200.000
G1 X146.777 Y123.289 F1050.000 E18.29055
G1 X145.640 Y122.882 F4200.000
G1 X134.859 Y112.101 F1050.000 E18.75001
G1 X133.721 Y111.694 F4200.000
G1 X144.503 Y122.475 F1050.000 E19.20946
G1 X143.364 Y122.068 F4200.000
G1 X132.584 Y111.287 F1050.000 E19.66888
G1 X131.445 Y110.880 F4200.000
G1 X142.227 Y121.661 F1050.000 E20.12833
G1 X141.089 Y121.253 F4200.000
G1 X130.308 Y110.473 F1050.000 E20.58776
G1 X129.170 Y110.065 F4200.000
G1 X139.951 Y120.847 F1050.000 E21.04721
G1 X138.813 Y120.439 F4200.000
G1 X128.032 Y109.659 F1050.000 E21.50663
G1 X126.894 Y109.252 F4200.000
G1 X137.675 Y120.033 F1050.000 E21.96608
G1 X136.537 Y119.625 F4200.000
G1 X125.757 Y108.844 F1050.000 E22.42551
G1 X124.618 Y108.437 F4200.000
G1 X135.399 Y119.218 F1050.000 E22.88496
G1 X134.261 Y118.811 F4200.000
G1 X123.480 Y108.030 F1050.000 E23.34438
G1 X122.342 Y107.623 F4200.000
G1 X133.123 Y118.404 F1050.000 E23.80383
G1 X131.986 Y117.997 F4200.000
G1 X121.205 Y107.216 F1050.000 E24.26329
G1 X120.067 Y106.809 F4200.000
G1 X130.848 Y117.590 F1050.000 E24.72274
G1 X129.710 Y117.183 F4200.000
G1 X118.929 Y106.402 F1050.000 E25.18219
G1 X117.792 Y105.995 F4200.000
G1 X128.572 Y116.775 F1050.000 E25.64161
G1 X127.435 Y116.369 F4200.000
G1 X116.653 Y105.587 F1050.000 E26.10107
G1 X115.516 Y105.181 F4200.000
G1 X126.296 Y115.961 F1050.000 E26.56049
G1 X125.158 Y115.555 F4200.000
G1 X114.377 Y104.773 F1050.000 E27.01994
G1 X113.240 Y104.366 F4200.000
G1 X124.021 Y115.147 F1050.000 E27.47936
G1 X122.883 Y114.740 F4200.000
G1 X112.102 Y103.959 F1050.000 E27.93882
G1 X110.964 Y103.552 F4200.000
G1 X121.744 Y114.333 F1050.000 E28.39824
G1 X120.607 Y113.926 F4200.000
G1 X109.825 Y103.145 F1050.000 E28.85769
G1 X108.688 Y102.738 F4200.000
G1 X119.469 Y113.518 F1050.000 E29.31712
G1 X118.331 Y113.112 F4200.000
G1 X107.550 Y102.330 F1050.000 E29.77657
G1 X106.412 Y101.924 F4200.000
G1 X117.194 Y112.705 F1050.000 E30.23602
G1 X116.055 Y112.298 F4200.000
G1 X105.275 Y101.517 F1050.000 E30.69544
G1 X104.137 Y101.109 F4200.000
G1 X114.918 Y111.891 F1050.000 E31.15490
G1 X113.780 Y111.483 F4200.000
G1 X102.999 Y100.703 F1050.000 E31.61432
G1 X101.861 Y100.295 F4200.000
G1 X112.642 Y111.077 F1050.000 E32.07377
G1 X111.504 Y110.669 F4200.000
G1 X100.724 Y99.888 F1050.000 E32.53319
G1 X99.585 Y99.481 F4200.000
G1 X110.366 Y110.262 F1050.000 E32.99265
G1 X109.228 Y109.855 F4200.000
G1 X98.447 Y99.074 F1050.000 E33.45207
G1 X97.309 Y98.667 F4200.000
G1 X108.090 Y109.448 F1050.000 E33.91152
G1 X106.953 Y109.040 F4200.000
G1 X96.172 Y98.260 F1050.000 E34.37094
G1 X95.034 Y97.852 F4200.000
G1 X105.815 Y108.634 F1050.000 E34.83040
G1 X104.676 Y108.226 F4200.000
G1 X93.896 Y97.446 F1050.000 E35.28982
G1 X92.757 Y97.038 F4200.000
G1 X103.539 Y107.820 F1050.000 E35.74927
G1 X102.402 Y107.412 F4200.000
G1 X91.620 Y96.631 F1050.000 E36.20872
G1 X90.483 Y96.225 F4200.000
G1 X101.263 Y107.005 F1050.000 E36.66815
G1 X100.125 Y106.599 F4200.000
G1 X89.344 Y95.817 F1050.000 E37.12760
G1 X88.206 Y95.411 F4200.000
G1 X98.987 Y106.191 F1050.000 E37.58702
G1 X97.850 Y105.784 F4200.000
G1 X87.069 Y95.003 F1050.000 E38.04647
G1 X85.931 Y94.596 F4200.000
G1 X96.711 Y105.377 F1050.000 E38.50590
G1 X95.574 Y104.970 F4200.000
G1 X84.792 Y94.189 F1050.000 E38.96535
G1 X83.655 Y93.781 F4200.000
G1 X94.436 Y104.562 F1050.000 E39.42477
G1 X93.298 Y104.155 F4200.000
G1 X82.517 Y93.374 F1050.000 E39.88422
G1 X81.379 Y92.968 F4200.000
G1 X92.160 Y103.748 F1050.000 E40.34365
G1 X91.022 Y103.342 F4200.000
G1 X80.241 Y92.560 F1050.000 E40.80310
G1 X79.104 Y92.153 F4200.000
G1 X89.885 Y102.934 F1050.000 E41.26255
G1 X88.747 Y102.527 F4200.000
G1 X77.966 Y91.746 F1050.000 E41.72199
G1 X76.828 Y91.339 F4200.000
G1 X87.609 Y102.120 F1050.000 E42.18144
G1 X86.470 Y101.713 F4200.000
G1 X75.690 Y90.932 F1050.000 E42.64088
G1 X74.552 Y90.525 F4200.000
G1 X85.333 Y101.306 F1050.000 E43.10033
G1 X84.195 Y100.899 F4200.000
G1 X73.414 Y90.118 F1050.000 E43.55976
G1 X72.276 Y89.711 F4200.000
G1 X83.057 Y100.492 F1050.000 E44.01921
G1 X81.920 Y100.084 F4200.000
G1 X71.139 Y89.303 F1050.000 E44.47864
G1 X70.510 Y88.675 F4200.000
G1 X62.886 Y81.050 F1050.000 E44.80357
G1 X63.573 Y81.008 F4200.000
G1 X70.601 Y88.035 F1050.000 E45.10304
G1 X70.691 Y87.395 F4200.000
G1 X64.262 Y80.965 F1050.000 E45.37706
G1 X64.950 Y80.922 F4200.000
G1 X71.234 Y87.206 F1050.000 E45.64487
G1 X71.922 Y87.164 F4200.000
G1 X65.637 Y80.880 F1050.000 E45.91269
G1 X66.325 Y80.837 F4200.000
G1 X72.610 Y87.121 F1050.000 E46.18050
G1 X73.298 Y87.078 F4200.000
G1 X67.013 Y80.794 F1050.000 E46.44832
G1 X67.702 Y80.751 F4200.000
G1 X73.986 Y87.035 F1050.000 E46.71613
G1 X74.673 Y86.993 F4200.000
G1 X68.389 Y80.709 F1050.000 E46.98395
G1 X69.077 Y80.666 F4200.000
G1 X75.362 Y86.950 F1050.000 E47.25176
G1 X76.050 Y86.907 F4200.000
G1 X69.765 Y80.623 F1050.000 E47.51957
G1 X70.453 Y80.579 F4200.000
G1 X76.738 Y86.864 F1050.000 E47.78739
G1 X77.425 Y86.822 F4200.000
G1 X71.141 Y80.537 F1050.000 E48.05521
G1 X71.829 Y80.494 F4200.000
G1 X78.113 Y86.779 F1050.000 E48.32302
G1 X78.802 Y86.736 F4200.000
G1 X72.517 Y80.451 F1050.000 E48.59084
G1 X73.205 Y80.409 F4200.000
G1 X79.489 Y86.693 F1050.000 E48.85865
G1 X80.177 Y86.650 F4200.000
G1 X73.893 Y80.366 F1050.000 E49.12647
G1 X74.581 Y80.323 F4200.000
G1 X80.865 Y86.607 F1050.000 E49.39428
G1 X81.554 Y86.564 F4200.000
G1 X75.269 Y80.280 F1050.000 E49.66210
G1 X75.957 Y80.238 F4200.000
G1 X82.241 Y86.522 F1050.000 E49.92992
G1 X82.929 Y86.479 F4200.000
G1 X76.645 Y80.195 F1050.000 E50.19773
G1 X77.333 Y80.152 F4200.000
G1 X83.617 Y86.436 F1050.000 E50.46554
G1 X84.305 Y86.393 F4200.000
G1 X78.021 Y80.109 F1050.000 E50.73336
G1 X78.708 Y80.066 F4200.000
G1 X84.993 Y86.351 F1050.000 E51.00117
G1 X85.681 Y86.308 F4200.000
G1 X79.397 Y80.023 F1050.000 E51.26900
G1 X80.085 Y79.980 F4200.000
G1 X86.369 Y86.265 F1050.000 E51.53682
G1 X87.057 Y86.222 F4200.000
G1 X80.773 Y79.937 F1050.000 E51.80464
G1 X81.460 Y79.895 F4200.000
G1 X87.745 Y86.179 F1050.000 E52.07246
G1 X88.433 Y86.136 F4200.000
G1 X82.148 Y79.852 F1050.000 E52.34026
G1 X82.837 Y79.809 F4200.000
G1 X89.121 Y86.093 F1050.000 E52.60806
G1 X89.809 Y86.051 F4200.000
G1 X83.524 Y79.767 F1050.000 E52.87589
G1 X84.212 Y79.724 F4200.000
G1 X90.497 Y86.008 F1050.000 E53.14371
G1 X91.185 Y85.965 F4200.000
G1 X84.900 Y79.681 F1050.000 E53.41152
G1 X85.589 Y79.638 F4200.000
G1 X91.873 Y85.922 F1050.000 E53.67933
G1 X92.560 Y85.880 F4200.000
G1 X86.276 Y79.596 F1050.000 E53.94713
G1 X86.964 Y79.553 F4200.000
G1 X93.249 Y85.837 F1050.000 E54.21495
G1 X93.937 Y85.794 F4200.000
G1 X87.652 Y79.510 F1050.000 E54.48277
G1 X88.340 Y79.466 F4200.000
G1 X94.625 Y85.751 F1050.000 E54.75059
G1 X95.312 Y85.708 F4200.000
G1 X89.028 Y79.424 F1050.000 E55.01839
G1 X89.716 Y79.381 F4200.000
G1 X96.000 Y85.665 F1050.000 E55.28620
G1 X96.689 Y85.623 F4200.000
G1 X90.404 Y79.338 F1050.000 E55.55403
G1 X91.092 Y79.295 F4200.000
G1 X97.377 Y85.580 F1050.000 E55.82185
G1 X98.064 Y85.537 F4200.000
G1 X91.780 Y79.253 F1050.000 E56.08965
G1 X92.468 Y79.210 F4200.000
G1 X98.752 Y85.494 F1050.000 E56.35745
G1 X99.440 Y85.451 F4200.000
G1 X93.156 Y79.167 F1050.000 E56.62525
G1 X93.843 Y79.125 F4200.000
G1 X100.128 Y85.409 F1050.000 E56.89308
G1 X100.816 Y85.366 F4200.000
G1 X94.531 Y79.081 F1050.000 E57.16091
G1 X95.219 Y79.038 F4200.000
G1 X101.504 Y85.323 F1050.000 E57.42874
G1 X102.192 Y85.280 F4200.000
G1 X95.908 Y78.996 F1050.000 E57.69654
G1 X96.596 Y78.953 F4200.000
G1 X102.880 Y85.238 F1050.000 E57.96434
G1 X103.568 Y85.195 F4200.000
G1 X97.284 Y78.910 F1050.000 E58.23217
G1 X97.972 Y78.867 F4200.000
G1 X104.256 Y85.152 F1050.000 E58.50000
G1 X104.944 Y85.109 F4200.000
G1 X98.660 Y78.824 F1050.000 E58.76784
G1 X99.348 Y78.782 F4200.000
G1 X105.632 Y85.066 F1050.000 E59.03564
G1 X106.320 Y85.023 F4200.000
G1 X100.036 Y78.739 F1050.000 E59.30344
G1 X100.724 Y78.696 F4200.000
G1 X107.008 Y84.980 F1050.000 E59.57124
G1 X107.696 Y84.938 F4200.000
G1 X101.412 Y78.653 F1050.000 E59.83907
G1 X102.099 Y78.611 F4200.000
G1 X108.384 Y84.895 F1050.000 E60.10690
G1 X109.072 Y84.852 F4200.000
G1 X102.788 Y78.568 F1050.000 E60.37470
G1 X103.476 Y78.525 F4200.000
G1 X109.760 Y84.809 F1050.000 E60.64250
G1 X110.447 Y84.767 F4200.000
G1 X104.163 Y78.483 F1050.000 E60.91030
G1 X104.851 Y78.439 F4200.000
G1 X111.136 Y84.724 F1050.000 E61.17813
G1 X111.824 Y84.681 F4200.000
G1 X105.539 Y78.396 F1050.000 E61.44596
G1 X106.228 Y78.354 F4200.000
G1 X112.512 Y84.638 F1050.000 E61.71376
G1 X113.199 Y84.595 F4200.000
G1 X106.915 Y78.311 F1050.000 E61.98156
G1 X107.603 Y78.268 F4200.000
G1 X113.887 Y84.552 F1050.000 E62.24936
G1 X114.576 Y84.510 F4200.000
G1 X108.291 Y78.225 F1050.000 E62.51719
G1 X108.979 Y78.182 F4200.000
G1 X115.264 Y84.467 F1050.000 E62.78502
G1 X115.951 Y84.424 F4200.000
G1 X109.666 Y78.140 F1050.000 E63.05286
G1 X110.355 Y78.097 F4200.000
G1 X116.639 Y84.381 F1050.000 E63.32066
G1 X117.327 Y84.338 F4200.000
G1 X111.043 Y78.054 F1050.000 E63.58846
G1 X111.731 Y78.011 F4200.000
G1 X118.016 Y84.296 F1050.000 E63.85629
G1 X118.703 Y84.253 F4200.000
G1 X112.418 Y77.968 F1050.000 E64.12412
G1 X113.106 Y77.925 F4200.000
G1 X119.391 Y84.210 F1050.000 E64.39195
G1 X120.079 Y84.167 F4200.000
G1 X113.795 Y77.883 F1050.000 E64.65975
G1 X114.482 Y77.840 F4200.000
G1 X120.767 Y84.125 F1050.000 E64.92755
G1 X121.455 Y84.082 F4200.000
G1 X115.171 Y77.797 F1050.000 E65.19538
G1 X115.859 Y77.754 F4200.000
G1 X122.143 Y84.039 F1050.000 E65.46321
G1 X122.831 Y83.996 F4200.000
G1 X116.547 Y77.711 F1050.000 E65.73104
G1 X117.235 Y77.669 F4200.000
G1 X123.519 Y83.953 F1050.000 E65.99884
G1 X124.207 Y83.910 F4200.000
G1 X117.923 Y77.626 F1050.000 E66.26664
G1 X118.611 Y77.583 F4200.000
G1 X124.895 Y83.867 F1050.000 E66.53444
G1 X125.583 Y83.825 F4200.000
G1 X119.299 Y77.540 F1050.000 E66.80227
G1 X119.986 Y77.498 F4200.000
G1 X126.271 Y83.782 F1050.000 E67.07011
G1 X126.959 Y83.739 F4200.000
G1 X120.675 Y77.455 F1050.000 E67.33791
G1 X121.363 Y77.412 F4200.000
G1 X127.647 Y83.696 F1050.000 E67.60571
G1 X128.335 Y83.653 F4200.000
G1 X122.051 Y77.369 F1050.000 E67.87351
G1 X122.738 Y77.326 F4200.000
G1 X129.023 Y83.611 F1050.000 E68.14134
G1 X129.711 Y83.568 F4200.000
G1 X123.426 Y77.283 F1050.000 E68.40917
