; generated by Slic3r 0.7.3-dev on 2012-06-10 at 19:03:45

; layer_height = 0.4
; perimeters = 2
; solid_layers = 3
; fill_density = 0.15
; nozzle_diameter = 0.5
; filament_diameter = 3
; extrusion_multiplier = 1.02
; perimeter_speed = 30
; infill_speed = 40
; travel_speed = 70
; extrusion_width_ratio = 0
; scale = 1
; single wall width = 0.53mm

M104 S200 ; set temperature
M106
M104 S230
G28
M140 S60
G1 X205 Y105 F4000
M109 S230
G92 E0
G1 E5 F50
G1 X205 Y90 F2000
G90 ; use absolute coordinates
G21 ; set units to millimeters
G92 E0 ; reset extrusion distance
M82 ; use absolute distances for extrusion
G1 Z0.400 F4200.000
G1 X42.519 Y71.136
G1 F1800.000 E1.00000
G1 X44.039 Y69.796 F900.000 E1.06078
G1 X44.479 Y69.466 E1.07727
G1 X44.709 Y69.316 E1.08551
G1 X45.189 Y69.056 E1.10188
G1 X45.699 Y68.836 E1.11854
G1 X47.889 Y68.116 E1.18769
G1 X48.449 Y67.986 E1.20493
G1 X49.009 Y67.916 E1.22186
G1 X49.289 Y67.896 E1.23028
G1 X49.859 Y67.906 E1.24737
G1 X52.209 Y68.156 E1.31826
G1 X52.809 Y68.286 E1.33667
G1 X53.679 Y68.586 E1.36427
G1 X153.629 Y112.336 E4.63673
G1 X154.219 Y112.636 E4.65658
G1 X156.019 Y113.686 E4.71908
G1 X156.479 Y114.016 E4.73606
G1 X156.909 Y114.376 E4.75288
G1 X157.299 Y114.786 E4.76986
G1 X158.679 Y116.656 E4.83956
G1 X158.979 Y117.116 E4.85603
G1 X159.239 Y117.606 E4.87267
G1 X159.449 Y118.116 E4.88921
G1 X159.539 Y118.376 E4.89747
G1 X160.099 Y120.906 E4.97519
G1 X160.169 Y121.466 E4.99211
G1 X160.179 Y122.026 E5.00891
G1 X160.169 Y122.306 E5.01732
G1 X160.049 Y123.146 E5.04277
G1 X159.609 Y125.136 E5.10389
G1 X159.449 Y125.666 E5.12050
G1 X159.109 Y126.426 E5.14547
G1 X158.669 Y127.126 E5.17027
G1 X157.469 Y128.776 E5.23146
G1 X157.099 Y129.196 E5.24825
G1 X156.899 Y129.396 E5.25674
G1 X156.469 Y129.756 E5.27356
G1 X156.009 Y130.086 E5.29054
G1 X153.749 Y131.366 E5.36844
G1 X152.969 Y131.656 E5.39340
G1 X152.429 Y131.786 E5.41006
G1 X151.879 Y131.876 E5.42677
G1 X150.089 Y132.066 E5.48076
G1 X149.349 Y132.096 E5.50298
G1 X49.119 Y130.306 E8.50970
G1 X48.539 Y130.236 E8.52722
G1 X48.259 Y130.186 E8.53575
G1 X45.999 Y129.496 E8.60662
G1 X45.469 Y129.296 E8.62361
G1 X44.719 Y128.906 E8.64897
G1 X44.249 Y128.596 E8.66586
G1 X42.499 Y127.056 E8.73577
G1 X42.099 Y126.656 E8.75274
G1 X41.739 Y126.226 E8.76956
G1 X41.419 Y125.766 E8.78637
G1 X41.149 Y125.276 E8.80315
G1 X40.209 Y123.156 E8.87271
G1 X40.039 Y122.626 E8.88940
G1 X39.909 Y122.086 E8.90606
G1 X39.839 Y121.536 E8.92269
G1 X39.809 Y120.986 E8.93921
G1 X39.819 Y76.946 E10.26012
G1 X39.869 Y76.396 E10.27668
G1 X39.909 Y76.126 E10.28487
G1 X40.039 Y75.586 E10.30153
G1 X40.209 Y75.056 E10.31822
G1 X41.149 Y72.936 E10.38778
G1 X41.279 Y72.686 E10.39623
G1 X41.579 Y72.206 E10.41321
G1 X42.119 Y71.536 E10.43902
G1 X42.463 Y71.192 E10.45362
G1 F1800.000 E9.45362
G92 E0
G1 X48.424 Y75.467 F4200.000
G1 F1800.000 E1.00000
G1 X51.478 Y75.467 F900.000 E1.09159
G1 X53.004 Y78.111 E1.18317
G1 X51.478 Y80.756 E1.27476
G1 X48.424 Y80.756 E1.36635
G1 X46.897 Y78.111 E1.45793
G1 X48.385 Y75.535 E1.54716
G1 X48.721 Y75.982 F4200.000
G1 X51.180 Y75.982 F900.000 E1.62090
G1 X52.409 Y78.111 E1.69464
G1 X51.180 Y80.241 E1.76839
G1 X48.721 Y80.241 E1.84213
G1 X48.546 Y79.937 E1.85266
G1 X48.546 Y79.937 E1.85266
G1 X47.492 Y78.111 E1.91587
G1 X48.682 Y76.050 E1.98726
G1 F1800.000 E0.98726
G92 E0
G1 X48.424 Y117.467 F4200.000
G1 F1800.000 E1.00000
G1 X51.478 Y117.467 F900.000 E1.09159
G1 X53.004 Y120.111 E1.18317
G1 X51.478 Y122.756 E1.27476
G1 X48.424 Y122.756 E1.36635
G1 X46.897 Y120.111 E1.45793
G1 X48.385 Y117.535 E1.54716
G1 X48.721 Y117.982 F4200.000
G1 X51.180 Y117.982 F900.000 E1.62090
G1 X52.409 Y120.111 E1.69464
G1 X51.180 Y122.241 E1.76839
G1 X48.721 Y122.241 E1.84213
G1 X48.546 Y121.937 E1.85266
G1 X48.546 Y121.937 E1.85266
G1 X47.492 Y120.111 E1.91587
G1 X48.682 Y118.050 E1.98726
G1 F1800.000 E0.98726
G92 E0
G1 X53.673 Y116.488 F4200.000
G1 F1800.000 E1.00000
G1 X53.673 Y83.774 F900.000 E1.98121
G1 X128.784 Y116.656 E4.44046
G1 X128.530 Y117.819 E4.47618
G1 X53.752 Y116.490 E6.71938
G1 X54.188 Y115.982 F4200.000
G1 X54.188 Y84.562 F900.000 E7.66178
G1 X128.191 Y116.958 E10.08473
G1 X128.117 Y117.296 E10.09510
G1 X54.267 Y115.984 E12.31046
G1 F1800.000 E11.31046
G92 E0
G1 X146.897 Y121.889 F4200.000
G1 F1800.000 E1.00000
G1 X148.424 Y119.244 F900.000 E1.09159
G1 X151.478 Y119.244 E1.18317
G1 X153.004 Y121.889 E1.27476
G1 X151.478 Y124.533 E1.36634
G1 X148.424 Y124.533 E1.45793
G1 X146.937 Y121.957 E1.54715
G1 X147.492 Y121.889 F4200.000
G1 X148.722 Y119.760 F900.000 E1.62090
G1 X151.180 Y119.760 E1.69464
G1 X152.409 Y121.889 E1.76838
G1 X151.180 Y124.018 E1.84213
G1 X148.722 Y124.018 E1.91587
G1 X147.531 Y121.957 E1.98725
G1 F1800.000 E0.98725
G92 E0
G1 X149.447 Y125.586 F4200.000
G1 F1800.000 E1.00000
G1 X49.610 Y123.811 F900.000 E3.99490
G1 X48.098 Y123.320 E4.04259
G1 X46.953 Y122.289 E4.08880
G1 X46.327 Y120.882 E4.13500
G1 X46.327 Y77.341 E5.44093
G1 X46.953 Y75.934 E5.48714
G1 X48.098 Y74.903 E5.53335
G1 X49.564 Y74.427 E5.57956
G1 X51.140 Y74.592 E5.62710
G1 X150.990 Y118.304 E8.89636
G1 X152.430 Y119.135 E8.94622
G1 X153.336 Y120.382 E8.99243
G1 X153.656 Y121.889 E9.03864
G1 X153.336 Y123.396 E9.08484
G1 X152.430 Y124.642 E9.13105
G1 X151.096 Y125.412 E9.17725
G1 X149.525 Y125.577 E9.22464
G1 X149.469 Y126.101 F4200.000
G1 X49.524 Y124.325 F900.000 E12.22279
G1 X47.835 Y123.776 E12.27607
G1 X46.527 Y122.599 E12.32885
G1 X45.812 Y120.991 E12.38162
G1 X45.812 Y77.231 E13.69412
G1 X46.527 Y75.624 E13.74690
G1 X47.835 Y74.447 E13.79968
G1 X49.509 Y73.903 E13.85245
G1 X51.273 Y74.088 E13.90568
G1 X151.223 Y117.844 E17.17819
G1 X152.782 Y118.744 E17.23219
G1 X153.817 Y120.168 E17.28497
G1 X154.182 Y121.889 E17.33775
G1 X153.817 Y123.610 E17.39053
G1 X152.782 Y125.033 E17.44330
G1 X151.259 Y125.913 E17.49607
G1 X149.547 Y126.093 E17.54769
G1 X148.179 Y125.092 F4200.000
G1 X134.769 Y111.681 F1050.000 E18.12122
G1 X133.466 Y111.111 E18.16425
G1 X147.537 Y125.182 E18.76606
G1 X146.791 Y125.169 E18.78862
G1 X132.163 Y110.541 E19.41423
G1 X130.860 Y109.970 E19.45726
G1 X146.046 Y125.156 E20.10673
G1 X145.300 Y125.142 E20.12929
G1 X129.557 Y109.400 E20.80256
G1 X128.254 Y108.829 E20.84559
G1 X144.554 Y125.129 E21.54269
G1 X143.808 Y125.116 E21.56523
G1 X126.952 Y108.260 E22.28617
G1 X125.649 Y107.690 E22.32916
G1 X143.062 Y125.103 E23.07390
G1 X142.316 Y125.089 E23.09646
G1 X124.346 Y107.119 E23.86503
G1 X123.044 Y106.549 E23.90802
G1 X141.571 Y125.077 E24.70042
G1 X140.825 Y125.063 E24.72298
G1 X121.740 Y105.978 E25.53921
G1 X120.438 Y105.408 E25.58220
G1 X140.079 Y125.050 E26.42223
G1 X139.335 Y125.036 F4200.000
G1 X119.135 Y104.837 F1050.000 E27.28611
G1 X117.833 Y104.267 E27.32911
G1 X138.589 Y125.023 E28.21680
G1 X137.843 Y125.009 E28.23936
G1 X129.195 Y116.362 E28.60922
G1 X129.063 Y116.963 E28.62782
G1 X137.097 Y124.997 E28.97143
G1 X136.351 Y124.983 E28.99399
G1 X128.932 Y117.564 E29.31132
G1 X128.801 Y118.165 E29.32994
G1 X135.605 Y124.970 E29.62096
G1 X134.860 Y124.957 E29.64350
G1 X128.083 Y118.180 E29.93334
G1 X127.337 Y118.167 E29.95590
G1 X134.114 Y124.944 E30.24574
G1 X133.368 Y124.930 E30.26830
G1 X126.592 Y118.154 E30.55811
G1 X125.846 Y118.141 E30.58068
G1 X132.623 Y124.918 E30.87051
G1 X131.877 Y124.904 E30.89308
G1 X125.100 Y118.127 E31.18291
G1 X124.354 Y118.115 E31.20546
G1 X131.131 Y124.891 E31.49526
G1 X130.386 Y124.877 F4200.000
G1 X123.609 Y118.100 F1050.000 E31.78510
G1 X122.863 Y118.087 E31.80766
G1 X129.640 Y124.864 E32.09750
G1 X128.894 Y124.850 E32.12006
G1 X122.118 Y118.074 E32.40987
G1 X121.372 Y118.061 E32.43244
G1 X128.149 Y124.838 E32.72227
G1 X127.403 Y124.824 E32.74484
G1 X120.626 Y118.047 E33.03467
G1 X119.881 Y118.035 E33.05722
G1 X126.657 Y124.811 E33.34702
G1 X125.912 Y124.798 E33.36957
G1 X119.135 Y118.021 E33.65940
G1 X118.389 Y118.008 E33.68197
G1 X125.166 Y124.785 E33.97180
G1 X124.420 Y124.771 E33.99437
G1 X117.643 Y117.995 E34.28417
G1 X116.897 Y117.982 E34.30674
G1 X123.674 Y124.758 E34.59658
G1 X122.928 Y124.745 E34.61914
G1 X116.151 Y117.968 E34.90898
G1 X115.406 Y117.955 E34.93152
G1 X122.182 Y124.732 E35.22133
G1 X121.437 Y124.719 E35.24387
G1 X114.660 Y117.942 E35.53371
G1 X113.915 Y117.928 F4200.000
G1 X120.692 Y124.705 F1050.000 E35.82354
G1 X119.946 Y124.691 E35.84611
G1 X113.169 Y117.915 E36.13591
G1 X112.423 Y117.902 E36.15848
G1 X119.200 Y124.679 E36.44831
G1 X118.454 Y124.665 E36.47088
G1 X111.677 Y117.888 E36.76072
G1 X110.932 Y117.875 E36.78326
G1 X117.708 Y124.652 E37.07306
G1 X116.963 Y124.639 E37.09561
G1 X110.186 Y117.862 E37.38544
G1 X109.440 Y117.849 E37.40801
G1 X116.217 Y124.626 E37.69784
G1 X115.471 Y124.612 E37.72041
G1 X108.695 Y117.836 E38.01022
G1 X107.949 Y117.822 E38.03278
G1 X114.726 Y124.599 E38.32262
G1 X113.980 Y124.586 E38.34518
G1 X107.203 Y117.809 E38.63502
G1 X106.458 Y117.796 E38.65756
G1 X113.234 Y124.573 E38.94737
G1 X112.489 Y124.560 E38.96991
G1 X105.712 Y117.783 E39.25975
G1 X104.966 Y117.769 E39.28231
G1 X111.743 Y124.546 E39.57215
G1 X110.997 Y124.532 F4200.000
G1 X104.221 Y117.756 F1050.000 E39.86195
G1 X103.475 Y117.743 E39.88452
G1 X110.252 Y124.519 E40.17436
G1 X109.506 Y124.506 E40.19692
G1 X102.729 Y117.729 E40.48676
G1 X101.984 Y117.716 E40.50930
G1 X108.760 Y124.493 E40.79911
G1 X108.015 Y124.480 E40.82165
G1 X101.238 Y117.703 E41.11149
G1 X100.492 Y117.690 E41.13405
G1 X107.269 Y124.466 E41.42389
G1 X106.523 Y124.453 E41.44645
G1 X99.746 Y117.677 E41.73626
G1 X99.000 Y117.663 E41.75882
G1 X105.777 Y124.440 E42.04866
G1 X105.031 Y124.427 E42.07122
G1 X98.254 Y117.650 E42.36106
G1 X97.509 Y117.637 E42.38360
G1 X104.285 Y124.413 E42.67341
G1 X103.540 Y124.401 E42.69595
G1 X96.763 Y117.624 E42.98579
G1 X96.017 Y117.610 E43.00835
G1 X102.794 Y124.387 E43.29819
G1 X102.048 Y124.374 E43.32075
G1 X95.272 Y117.598 E43.61056
G1 X94.527 Y117.583 F4200.000
G1 X101.304 Y124.360 F1050.000 E43.90040
G1 X100.558 Y124.347 E43.92296
G1 X93.781 Y117.570 E44.21280
G1 X93.035 Y117.557 E44.23534
G1 X99.812 Y124.334 E44.52515
G1 X99.066 Y124.321 E44.54769
G1 X92.289 Y117.544 E44.83753
G1 X91.543 Y117.530 E44.86009
G1 X98.320 Y124.307 E45.14993
G1 X97.574 Y124.294 E45.17249
G1 X90.798 Y117.518 E45.46230
G1 X90.052 Y117.504 E45.48486
G1 X96.829 Y124.281 E45.77470
G1 X96.083 Y124.268 E45.79726
G1 X89.306 Y117.491 E46.08710
G1 X88.561 Y117.478 E46.10964
G1 X95.337 Y124.254 E46.39945
G1 X94.592 Y124.242 E46.42199
G1 X87.815 Y117.465 E46.71183
G1 X87.069 Y117.451 E46.73439
G1 X93.846 Y124.228 E47.02423
G1 X93.100 Y124.215 E47.04679
G1 X86.323 Y117.439 E47.33660
G1 X85.578 Y117.424 F4200.000
G1 X92.355 Y124.201 F1050.000 E47.62644
G1 X91.609 Y124.188 E47.64900
G1 X84.832 Y117.411 E47.93884
G1 X84.087 Y117.398 E47.96138
G1 X90.863 Y124.174 E48.25119
G1 X90.118 Y124.162 E48.27373
G1 X83.341 Y117.385 E48.56357
G1 X82.595 Y117.371 E48.58613
G1 X89.372 Y124.148 E48.87597
G1 X88.626 Y124.135 E48.89853
G1 X81.850 Y117.359 E49.18834
G1 X81.104 Y117.345 E49.21090
G1 X87.881 Y124.122 E49.50074
G1 X87.135 Y124.109 E49.52330
G1 X80.358 Y117.332 E49.81314
G1 X79.612 Y117.319 E49.83568
G1 X86.389 Y124.095 E50.12549
G1 X85.643 Y124.082 E50.14803
G1 X78.866 Y117.306 E50.43787
G1 X78.120 Y117.292 E50.46043
G1 X84.897 Y124.069 E50.75027
G1 X84.151 Y124.056 E50.77284
G1 X77.375 Y117.279 E51.06264
G1 X76.629 Y117.266 E51.08521
G1 X83.406 Y124.043 E51.37504
G1 X82.661 Y124.029 F4200.000
G1 X75.884 Y117.252 F1050.000 E51.66488
G1 X75.138 Y117.239 E51.68742
G1 X81.915 Y124.015 E51.97723
G1 X81.169 Y124.003 E51.99977
G1 X74.392 Y117.226 E52.28961
G1 X73.646 Y117.212 E52.31217
G1 X80.423 Y123.989 E52.60201
G1 X79.677 Y123.976 E52.62457
G1 X72.901 Y117.200 E52.91438
G1 X72.155 Y117.186 E52.93695
G1 X78.932 Y123.963 E53.22678
G1 X78.186 Y123.950 E53.24935
G1 X71.409 Y117.173 E53.53918
G1 X70.664 Y117.160 E53.56173
G1 X77.440 Y123.936 E53.85153
G1 X76.695 Y123.923 E53.87407
G1 X69.918 Y117.146 E54.16391
G1 X69.172 Y117.133 E54.18648
G1 X75.949 Y123.910 E54.47631
G1 X75.203 Y123.897 E54.49888
G1 X68.427 Y117.120 E54.78868
G1 X67.681 Y117.107 E54.81125
G1 X74.458 Y123.884 E55.10108
G1 X73.712 Y123.870 E55.12365
G1 X66.935 Y117.093 E55.41349
G1 X66.190 Y117.080 F4200.000
G1 X72.966 Y123.856 F1050.000 E55.70329
G1 X72.221 Y123.843 E55.72584
G1 X65.444 Y117.067 E56.01567
G1 X64.698 Y117.053 E56.03824
G1 X71.475 Y123.830 E56.32807
G1 X70.729 Y123.817 E56.35064
G1 X63.953 Y117.040 E56.64044
G1 X63.207 Y117.027 E56.66301
G1 X69.984 Y123.804 E56.95285
G1 X69.238 Y123.790 E56.97541
G1 X62.461 Y117.014 E57.26525
G1 X61.715 Y117.001 E57.28779
G1 X68.492 Y123.777 E57.57760
G1 X67.746 Y123.764 E57.60014
G1 X60.969 Y116.987 E57.88997
G1 X60.223 Y116.974 E57.91254
G1 X67.000 Y123.751 E58.20238
G1 X66.254 Y123.737 E58.22494
G1 X59.478 Y116.961 E58.51475
G1 X58.732 Y116.948 E58.53731
G1 X65.509 Y123.725 E58.82715
G1 X64.763 Y123.711 E58.84971
G1 X57.986 Y116.934 E59.13955
G1 X57.241 Y116.922 E59.16209
G1 X64.017 Y123.698 E59.45190
G1 X63.272 Y123.684 F4200.000
G1 X56.496 Y116.907 F1050.000 E59.74174
G1 X55.750 Y116.894 E59.76430
G1 X62.526 Y123.671 E60.05414
G1 X61.780 Y123.658 E60.07670
G1 X55.004 Y116.881 E60.36651
G1 X54.258 Y116.868 E60.38907
G1 X61.035 Y123.645 E60.67891
G1 X60.289 Y123.631 E60.70147
G1 X53.512 Y116.854 E60.99131
G1 X53.307 Y116.649 F4200.000
G1 X46.694 Y110.036 F1050.000 E61.27413
G1 X46.694 Y110.768 E61.29629
G1 X59.543 Y123.618 E61.84585
G1 X58.798 Y123.605 E61.86839
G1 X46.694 Y111.501 E62.38607
G1 X46.693 Y112.233 F4200.000
G1 X51.560 Y117.100 F1050.000 E62.59422
G1 X50.828 Y117.100 F4200.000
G1 X46.693 Y112.966 F1050.000 E62.77105
G1 X46.693 Y113.698 F4200.000
G1 X50.095 Y117.100 F1050.000 E62.91655
G1 X49.363 Y117.100 F4200.000
G1 X46.693 Y114.431 F1050.000 E63.03073
G1 X46.693 Y115.163 F4200.000
G1 X48.630 Y117.100 F1050.000 E63.11358
G1 X48.138 Y117.339 F4200.000
G1 X46.694 Y115.895 F1050.000 E63.17532
G1 X46.694 Y116.628 F4200.000
G1 X47.869 Y117.803 F1050.000 E63.22560
G1 X47.601 Y118.268 F4200.000
G1 X46.694 Y117.360 F1050.000 E63.26441
G1 X46.694 Y118.093 F4200.000
G1 X47.333 Y118.732 F1050.000 E63.29175
G1 X52.122 Y117.662 F4200.000
G1 X58.052 Y123.592 F1050.000 E63.54535
G1 X57.306 Y123.578 E63.56791
G1 X53.123 Y119.395 E63.74682
G1 X53.270 Y120.275 F4200.000
G1 X56.561 Y123.566 F1050.000 E63.88754
G1 X55.815 Y123.552 E63.91010
G1 X53.002 Y120.740 E64.03037
G1 X52.734 Y121.204 F4200.000
G1 X55.069 Y123.539 F1050.000 E64.13023
G1 X54.324 Y123.525 F4200.000
G1 X52.466 Y121.668 F1050.000 E64.20968
G1 X52.198 Y122.132 F4200.000
G1 X53.578 Y123.512 F1050.000 E64.26868
G1 X52.832 Y123.498 E64.29124
G1 X51.931 Y122.597 E64.32980
G1 X51.662 Y123.061 F4200.000
G1 X52.087 Y123.486 F1050.000 E64.34798
G1 X53.307 Y115.916 F4200.000
G1 X46.694 Y109.303 F1050.000 E64.63080
G1 X46.694 Y108.571 F4200.000
G1 X53.307 Y115.184 F1050.000 E64.91362
G1 X53.307 Y114.451 F4200.000
G1 X46.694 Y107.838 F1050.000 E65.19645
G1 X46.694 Y107.106 F4200.000
G1 X53.307 Y113.719 F1050.000 E65.47927
G1 X53.306 Y112.987 F4200.000
G1 X46.693 Y106.374 F1050.000 E65.76210
G1 X46.693 Y105.641 F4200.000
G1 X53.306 Y112.254 F1050.000 E66.04492
G1 X53.306 Y111.522 F4200.000
G1 X46.693 Y104.909 F1050.000 E66.32775
G1 X46.693 Y104.176 F4200.000
G1 X53.306 Y110.789 F1050.000 E66.61057
G1 X53.306 Y110.057 F4200.000
G1 X46.693 Y103.444 F1050.000 E66.89340
G1 X46.693 Y102.711 F4200.000
G1 X53.306 Y109.324 F1050.000 E67.17623
G1 X53.306 Y108.592 F4200.000
G1 X46.694 Y101.979 F1050.000 E67.45905
G1 X46.694 Y101.246 F4200.000
G1 X53.307 Y107.859 F1050.000 E67.74187
G1 X53.307 Y107.127 F4200.000
G1 X46.694 Y100.514 F1050.000 E68.02470
G1 X46.694 Y99.781 F4200.000
G1 X53.307 Y106.394 F1050.000 E68.30752
G1 X53.307 Y105.662 F4200.000
G1 X46.694 Y99.049 F1050.000 E68.59035
G1 X46.694 Y98.316 F4200.000
G1 X53.307 Y104.929 F1050.000 E68.87317
G1 X53.307 Y104.197 F4200.000
G1 X46.694 Y97.584 F1050.000 E69.15600
G1 X46.693 Y96.852 F4200.000
G1 X53.306 Y103.465 F1050.000 E69.43882
G1 X53.306 Y102.732 F4200.000
G1 X46.693 Y96.120 F1050.000 E69.72165
G1 X46.693 Y95.387 F4200.000
G1 X53.306 Y102.000 F1050.000 E70.00447
