; generated by Slic3r 0.7.3-dev on 2012-06-10 at 13:48:00

; layer_height = 0.4
; perimeters = 2
; solid_layers = 3
; fill_density = 0.15
; nozzle_diameter = 0.5
; filament_diameter = 3
; extrusion_multiplier = 1.02
; perimeter_speed = 30
; infill_speed = 40
; travel_speed = 70
; extrusion_width_ratio = 0
; scale = 1
; single wall width = 0.53mm

M104 S200 ; set temperature
M106
M104 S230
G28
M140 S60
G1 X205 Y105 F4000
M109 S230
G92 E0
G1 E5 F50
G1 X205 Y90 F2000
G90 ; use absolute coordinates
G21 ; set units to millimeters
G92 E0 ; reset extrusion distance
M82 ; use absolute distances for extrusion
G1 Z0.400 F4200.000
G1 X58.375 Y78.610
G1 F1800.000 E1.00000
G1 X58.555 Y78.430 F900.000 E1.00764
G1 X58.935 Y78.090 E1.02293
G1 X59.555 Y77.650 E1.04573
G1 X59.775 Y77.520 E1.05340
G1 X60.235 Y77.290 E1.06882
G1 X60.705 Y77.100 E1.08403
G1 X61.195 Y76.950 E1.09940
G1 X61.445 Y76.890 E1.10711
G1 X62.195 Y76.780 E1.12984
G1 X62.705 Y76.760 E1.14515
G1 X66.445 Y76.770 E1.25733
G1 X66.995 Y76.820 E1.27389
G1 X67.265 Y76.860 E1.28208
G1 X67.795 Y76.980 E1.29838
G1 X68.065 Y77.060 E1.30682
G1 X139.915 Y108.370 E3.65758
G1 X140.365 Y108.610 E3.67287
G1 X140.585 Y108.750 E3.68070
G1 X141.005 Y109.050 E3.69618
G1 X141.395 Y109.390 E3.71170
G1 X141.925 Y109.950 E3.73482
G1 X142.375 Y110.580 E3.75804
G1 X142.505 Y110.800 E3.76571
G1 X142.745 Y111.260 E3.78127
G1 X142.935 Y111.740 E3.79675
G1 X143.085 Y112.230 E3.81212
G1 X143.195 Y112.730 E3.82748
G1 X143.265 Y113.250 E3.84322
G1 X143.265 Y117.740 E3.97789
G1 X143.155 Y118.490 E4.00062
G1 X143.025 Y118.990 E4.01612
G1 X142.855 Y119.470 E4.03139
G1 X142.645 Y119.930 E4.04656
G1 X142.525 Y120.160 E4.05434
G1 X142.395 Y120.380 E4.06200
G1 X141.955 Y121.000 E4.08481
G1 X141.615 Y121.380 E4.10010
G1 X141.435 Y121.560 E4.10773
G1 X141.055 Y121.900 E4.12303
G1 X140.435 Y122.340 E4.14583
G1 X140.215 Y122.470 E4.15349
G1 X139.755 Y122.700 E4.16892
G1 X139.285 Y122.890 E4.18413
G1 X138.795 Y123.040 E4.19950
G1 X138.545 Y123.100 E4.20721
G1 X137.795 Y123.210 E4.22994
G1 X137.285 Y123.230 E4.24525
G1 X62.195 Y123.210 E6.49746
G1 X61.445 Y123.100 E6.52019
G1 X60.945 Y122.970 E6.53569
G1 X60.465 Y122.800 E6.55096
G1 X60.005 Y122.590 E6.56613
G1 X59.775 Y122.470 E6.57391
G1 X59.555 Y122.340 E6.58157
G1 X58.935 Y121.900 E6.60438
G1 X58.555 Y121.560 E6.61967
G1 X58.375 Y121.380 E6.62731
G1 X58.035 Y121.000 E6.64260
G1 X57.595 Y120.380 E6.66540
G1 X57.465 Y120.160 E6.67307
G1 X57.235 Y119.700 E6.68849
G1 X57.045 Y119.230 E6.70370
G1 X56.895 Y118.740 E6.71907
G1 X56.835 Y118.490 E6.72678
G1 X56.725 Y117.740 E6.74951
G1 X56.725 Y82.250 E7.81398
G1 X56.835 Y81.500 E7.83672
G1 X56.965 Y81.000 E7.85221
G1 X57.135 Y80.520 E7.86749
G1 X57.345 Y80.060 E7.88265
G1 X57.465 Y79.830 E7.89043
G1 X57.595 Y79.610 E7.89810
G1 X58.035 Y78.990 E7.92090
G1 X58.323 Y78.669 E7.93383
G1 F1800.000 E6.93383
G92 E0
G1 X63.223 Y83.278 F4200.000
G1 F1800.000 E1.00000
G1 X65.667 Y83.278 F900.000 E1.07332
G1 X65.667 Y114.278 E2.00312
G1 X81.036 Y114.278 E2.46406
G1 X81.223 Y114.198 E2.47016
G1 X81.410 Y114.278 E2.47627
G1 X118.590 Y114.278 E3.59145
G1 X118.778 Y114.198 E3.59755
G1 X118.965 Y114.278 E3.60365
G1 X136.777 Y114.278 E4.13791
G1 X136.777 Y116.722 E4.21124
G1 X63.223 Y116.722 E6.41739
G1 X63.223 Y83.356 E7.41814
G1 X62.708 Y82.763 F4200.000
G1 X66.183 Y82.763 F900.000 E7.52237
G1 X66.183 Y113.763 E8.45217
G1 X80.930 Y113.763 E8.89449
G1 X81.223 Y113.637 E8.90404
G1 X81.515 Y113.763 E8.91358
G1 X118.485 Y113.763 E10.02243
G1 X118.778 Y113.637 E10.03198
G1 X119.070 Y113.763 E10.04152
G1 X137.292 Y113.763 E10.58807
G1 X137.292 Y117.238 E10.69230
G1 X62.708 Y117.238 E12.92935
G1 X62.708 Y82.841 E13.96101
G1 X63.748 Y83.644 F4200.000
G1 X65.301 Y85.197 F1050.000 E14.02746
G1 X65.301 Y85.930 F4200.000
G1 X63.590 Y84.218 F1050.000 E14.10069
G1 X63.589 Y84.952 F4200.000
G1 X65.300 Y86.663 F1050.000 E14.17392
G1 X65.301 Y87.396 F4200.000
G1 X63.589 Y85.684 F1050.000 E14.24716
G1 X63.589 Y86.417 F4200.000
G1 X65.301 Y88.128 F1050.000 E14.32039
G1 X65.301 Y88.861 F4200.000
G1 X63.589 Y87.150 F1050.000 E14.39362
G1 X63.589 Y87.882 F4200.000
G1 X65.301 Y89.593 F1050.000 E14.46685
G1 X65.301 Y90.326 F4200.000
G1 X63.590 Y88.615 F1050.000 E14.54008
G1 X63.590 Y89.347 F4200.000
G1 X65.301 Y91.059 F1050.000 E14.61332
G1 X65.301 Y91.791 F4200.000
G1 X63.590 Y90.080 F1050.000 E14.68655
G1 X63.590 Y90.813 F4200.000
G1 X65.301 Y92.524 F1050.000 E14.75978
G1 X65.300 Y93.257 F4200.000
G1 X63.589 Y91.546 F1050.000 E14.83301
G1 X63.589 Y92.279 F4200.000
G1 X65.301 Y93.990 F1050.000 E14.90624
G1 X65.301 Y94.723 F4200.000
G1 X63.589 Y93.011 F1050.000 E14.97947
G1 X63.589 Y93.744 F4200.000
G1 X65.301 Y95.455 F1050.000 E15.05271
G1 X65.301 Y96.188 F4200.000
G1 X63.589 Y94.477 F1050.000 E15.12594
G1 X63.590 Y95.209 F4200.000
G1 X65.301 Y96.921 F1050.000 E15.19917
G1 X65.301 Y97.653 F4200.000
G1 X63.590 Y95.942 F1050.000 E15.27241
G1 X63.590 Y96.675 F4200.000
G1 X65.301 Y98.386 F1050.000 E15.34564
G1 X65.300 Y99.119 F4200.000
G1 X63.589 Y97.408 F1050.000 E15.41887
G1 X63.589 Y98.141 F4200.000
G1 X65.301 Y99.852 F1050.000 E15.49210
G1 X65.301 Y100.585 F4200.000
G1 X63.589 Y98.873 F1050.000 E15.56534
G1 X63.589 Y99.606 F4200.000
G1 X65.301 Y101.317 F1050.000 E15.63857
G1 X65.301 Y102.050 F4200.000
G1 X63.589 Y100.339 F1050.000 E15.71180
G1 X63.590 Y101.071 F4200.000
G1 X65.301 Y102.783 F1050.000 E15.78503
G1 X65.301 Y103.515 F4200.000
G1 X63.590 Y101.804 F1050.000 E15.85826
G1 X63.590 Y102.537 F4200.000
G1 X65.301 Y104.248 F1050.000 E15.93150
G1 X65.301 Y104.980 F4200.000
G1 X63.590 Y103.269 F1050.000 E16.00473
G1 X63.589 Y104.003 F4200.000
G1 X65.300 Y105.714 F1050.000 E16.07796
G1 X65.301 Y106.446 F4200.000
G1 X63.589 Y104.735 F1050.000 E16.15119
G1 X63.589 Y105.468 F4200.000
G1 X65.301 Y107.179 F1050.000 E16.22442
G1 X65.301 Y107.912 F4200.000
G1 X63.589 Y106.200 F1050.000 E16.29766
G1 X63.589 Y106.933 F4200.000
G1 X65.301 Y108.644 F1050.000 E16.37089
G1 X65.301 Y109.377 F4200.000
G1 X63.590 Y107.666 F1050.000 E16.44412
G1 X63.590 Y108.398 F4200.000
G1 X65.301 Y110.110 F1050.000 E16.51735
G1 X65.301 Y110.842 F4200.000
G1 X63.590 Y109.131 F1050.000 E16.59059
G1 X63.589 Y109.864 F4200.000
G1 X65.300 Y111.576 F1050.000 E16.66382
G1 X65.301 Y112.308 F4200.000
G1 X63.589 Y110.597 F1050.000 E16.73705
G1 X63.589 Y111.330 F4200.000
G1 X65.301 Y113.041 F1050.000 E16.81029
G1 X65.301 Y113.774 F4200.000
G1 X63.589 Y112.062 F1050.000 E16.88352
G1 X63.589 Y112.795 F4200.000
G1 X65.301 Y114.506 F1050.000 E16.95675
G1 X65.439 Y114.644 F4200.000
G1 X67.150 Y116.356 F1050.000 E17.02998
G1 X67.883 Y116.356 F4200.000
G1 X66.171 Y114.644 F1050.000 E17.10321
G1 X66.904 Y114.645 F4200.000
G1 X68.615 Y116.356 F1050.000 E17.17644
G1 X69.348 Y116.356 F4200.000
G1 X67.637 Y114.645 F1050.000 E17.24967
G1 X68.369 Y114.645 F4200.000
G1 X70.081 Y116.356 F1050.000 E17.32291
G1 X70.814 Y116.355 F4200.000
G1 X69.103 Y114.644 F1050.000 E17.39614
G1 X69.835 Y114.644 F4200.000
G1 X71.547 Y116.355 F1050.000 E17.46937
G1 X72.279 Y116.355 F4200.000
G1 X70.568 Y114.644 F1050.000 E17.54260
G1 X71.301 Y114.644 F4200.000
G1 X73.012 Y116.356 F1050.000 E17.61583
G1 X73.745 Y116.356 F4200.000
G1 X72.033 Y114.644 F1050.000 E17.68907
G1 X72.766 Y114.644 F4200.000
G1 X74.477 Y116.356 F1050.000 E17.76230
G1 X75.210 Y116.356 F4200.000
G1 X73.499 Y114.645 F1050.000 E17.83553
G1 X74.231 Y114.645 F4200.000
G1 X75.943 Y116.356 F1050.000 E17.90876
G1 X76.676 Y116.355 F4200.000
G1 X74.965 Y114.644 F1050.000 E17.98199
G1 X75.697 Y114.644 F4200.000
G1 X77.409 Y116.355 F1050.000 E18.05523
G1 X78.141 Y116.355 F4200.000
G1 X76.430 Y114.644 F1050.000 E18.12846
G1 X77.163 Y114.644 F4200.000
G1 X78.874 Y116.356 F1050.000 E18.20169
G1 X79.607 Y116.356 F4200.000
G1 X77.895 Y114.644 F1050.000 E18.27492
G1 X78.628 Y114.644 F4200.000
G1 X80.339 Y116.356 F1050.000 E18.34816
G1 X81.072 Y116.356 F4200.000
G1 X79.361 Y114.645 F1050.000 E18.42139
G1 X80.093 Y114.645 F4200.000
G1 X81.804 Y116.356 F1050.000 E18.49462
G1 X82.537 Y116.356 F4200.000
G1 X80.826 Y114.645 F1050.000 E18.56785
G1 X81.559 Y114.644 F4200.000
G1 X83.270 Y116.355 F1050.000 E18.64108
G1 X84.003 Y116.355 F4200.000
G1 X82.292 Y114.644 F1050.000 E18.71432
G1 X83.024 Y114.644 F4200.000
G1 X84.736 Y116.355 F1050.000 E18.78755
G1 X85.468 Y116.356 F4200.000
G1 X83.757 Y114.644 F1050.000 E18.86078
G1 X84.490 Y114.644 F4200.000
G1 X86.201 Y116.356 F1050.000 E18.93401
G1 X86.934 Y116.356 F4200.000
G1 X85.222 Y114.644 F1050.000 E19.00725
G1 X85.955 Y114.645 F4200.000
G1 X87.666 Y116.356 F1050.000 E19.08048
G1 X88.399 Y116.356 F4200.000
G1 X86.688 Y114.645 F1050.000 E19.15371
G1 X87.421 Y114.644 F4200.000
G1 X89.132 Y116.355 F1050.000 E19.22694
G1 X89.865 Y116.355 F4200.000
G1 X88.154 Y114.644 F1050.000 E19.30017
G1 X88.886 Y114.644 F4200.000
G1 X90.598 Y116.355 F1050.000 E19.37341
G1 X91.330 Y116.356 F4200.000
G1 X89.619 Y114.644 F1050.000 E19.44664
G1 X90.352 Y114.644 F4200.000
G1 X92.063 Y116.356 F1050.000 E19.51987
G1 X92.796 Y116.356 F4200.000
G1 X91.084 Y114.644 F1050.000 E19.59310
G1 X91.817 Y114.645 F4200.000
G1 X93.528 Y116.356 F1050.000 E19.66633
G1 X94.261 Y116.356 F4200.000
G1 X92.550 Y114.645 F1050.000 E19.73957
G1 X93.282 Y114.645 F4200.000
G1 X94.994 Y116.356 F1050.000 E19.81280
G1 X95.727 Y116.355 F4200.000
G1 X94.016 Y114.644 F1050.000 E19.88603
G1 X94.748 Y114.644 F4200.000
G1 X96.459 Y116.355 F1050.000 E19.95926
G1 X97.192 Y116.355 F4200.000
G1 X95.481 Y114.644 F1050.000 E20.03250
G1 X96.213 Y114.644 F4200.000
G1 X97.925 Y116.356 F1050.000 E20.10573
G1 X98.657 Y116.356 F4200.000
G1 X96.946 Y114.644 F1050.000 E20.17896
G1 X97.679 Y114.644 F4200.000
G1 X99.390 Y116.356 F1050.000 E20.25220
G1 X100.123 Y116.356 F4200.000
G1 X98.411 Y114.645 F1050.000 E20.32543
G1 X99.144 Y114.645 F4200.000
G1 X100.855 Y116.356 F1050.000 E20.39866
G1 X101.589 Y116.355 F4200.000
G1 X99.877 Y114.644 F1050.000 E20.47189
G1 X100.610 Y114.644 F4200.000
G1 X102.321 Y116.355 F1050.000 E20.54512
G1 X103.054 Y116.355 F4200.000
G1 X101.343 Y114.644 F1050.000 E20.61836
G1 X102.075 Y114.644 F4200.000
G1 X103.787 Y116.356 F1050.000 E20.69159
G1 X104.519 Y116.356 F4200.000
G1 X102.808 Y114.644 F1050.000 E20.76482
G1 X103.541 Y114.644 F4200.000
G1 X105.252 Y116.356 F1050.000 E20.83805
G1 X105.985 Y116.356 F4200.000
G1 X104.273 Y114.645 F1050.000 E20.91128
G1 X105.006 Y114.645 F4200.000
G1 X106.717 Y116.356 F1050.000 E20.98452
G1 X107.450 Y116.356 F4200.000
G1 X105.739 Y114.645 F1050.000 E21.05775
G1 X106.472 Y114.644 F4200.000
G1 X108.183 Y116.355 F1050.000 E21.13097
G1 X108.916 Y116.356 F4200.000
G1 X107.205 Y114.644 F1050.000 E21.20422
G1 X107.937 Y114.644 F4200.000
G1 X109.649 Y116.356 F1050.000 E21.27746
G1 X110.381 Y116.356 F4200.000
G1 X108.670 Y114.644 F1050.000 E21.35070
G1 X109.403 Y114.645 F4200.000
G1 X111.114 Y116.356 F1050.000 E21.42393
G1 X111.846 Y116.356 F4200.000
G1 X110.135 Y114.645 F1050.000 E21.49716
G1 X110.868 Y114.645 F4200.000
G1 X112.579 Y116.356 F1050.000 E21.57038
G1 X113.312 Y116.356 F4200.000
G1 X111.600 Y114.645 F1050.000 E21.64361
G1 X112.334 Y114.644 F4200.000
G1 X114.045 Y116.355 F1050.000 E21.71684
G1 X114.777 Y116.355 F4200.000
G1 X113.066 Y114.644 F1050.000 E21.79007
G1 X113.799 Y114.644 F4200.000
G1 X115.511 Y116.356 F1050.000 E21.86333
G1 X116.243 Y116.356 F4200.000
G1 X114.532 Y114.645 F1050.000 E21.93656
G1 X115.265 Y114.645 F4200.000
G1 X116.976 Y116.356 F1050.000 E22.00978
G1 X117.708 Y116.356 F4200.000
G1 X115.997 Y114.645 F1050.000 E22.08301
G1 X116.730 Y114.645 F4200.000
G1 X118.441 Y116.356 F1050.000 E22.15624
G1 X119.174 Y116.356 F4200.000
G1 X117.462 Y114.645 F1050.000 E22.22947
G1 X118.195 Y114.645 F4200.000
G1 X119.906 Y116.356 F1050.000 E22.30270
G1 X120.639 Y116.355 F4200.000
G1 X118.928 Y114.644 F1050.000 E22.37592
G1 X119.661 Y114.644 F4200.000
G1 X121.373 Y116.356 F1050.000 E22.44918
G1 X122.105 Y116.356 F4200.000
G1 X120.394 Y114.645 F1050.000 E22.52241
G1 X121.127 Y114.645 F4200.000
G1 X122.838 Y116.356 F1050.000 E22.59564
G1 X123.570 Y116.356 F4200.000
G1 X121.859 Y114.645 F1050.000 E22.66887
G1 X122.592 Y114.645 F4200.000
G1 X124.303 Y116.356 F1050.000 E22.74210
G1 X125.035 Y116.356 F4200.000
G1 X123.324 Y114.645 F1050.000 E22.81532
G1 X124.057 Y114.645 F4200.000
G1 X125.768 Y116.356 F1050.000 E22.88855
G1 X126.501 Y116.355 F4200.000
G1 X124.790 Y114.644 F1050.000 E22.96178
G1 X125.523 Y114.644 F4200.000
G1 X127.234 Y116.355 F1050.000 E23.03501
G1 X127.967 Y116.356 F4200.000
G1 X126.255 Y114.644 F1050.000 E23.10827
G1 X126.988 Y114.645 F4200.000
G1 X128.700 Y116.356 F1050.000 E23.18150
G1 X129.432 Y116.356 F4200.000
G1 X127.721 Y114.645 F1050.000 E23.25472
G1 X128.454 Y114.645 F4200.000
G1 X130.165 Y116.356 F1050.000 E23.32795
G1 X130.897 Y116.356 F4200.000
G1 X129.186 Y114.645 F1050.000 E23.40118
G1 X129.919 Y114.645 F4200.000
G1 X131.630 Y116.356 F1050.000 E23.47441
G1 X132.362 Y116.356 F4200.000
G1 X130.651 Y114.645 F1050.000 E23.54764
G1 X131.385 Y114.644 F4200.000
G1 X133.096 Y116.355 F1050.000 E23.62086
G1 X133.829 Y116.356 F4200.000
G1 X132.117 Y114.644 F1050.000 E23.69412
G1 X132.850 Y114.645 F4200.000
G1 X134.562 Y116.356 F1050.000 E23.76735
G1 X135.294 Y116.356 F4200.000
G1 X133.583 Y114.645 F1050.000 E23.84058
G1 X134.316 Y114.645 F4200.000
G1 X136.027 Y116.356 F1050.000 E23.91381
G1 X136.411 Y116.007 F4200.000
G1 X135.048 Y114.645 F1050.000 E23.97212
G1 X135.781 Y114.645 F4200.000
G1 X136.411 Y115.275 F1050.000 E23.99908
G1 F1800.000 E22.99908
G92 E0
G1 X66.417 Y116.356 F4200.000
G1 F1800.000 E1.00000
G1 X63.590 Y113.528 F1050.000 E1.12102
G1 X63.590 Y114.260 F4200.000
G1 X65.685 Y116.355 F1050.000 E1.21068
G1 X64.952 Y116.355 F4200.000
G1 X63.590 Y114.993 F1050.000 E1.26898
G1 X63.589 Y115.726 F4200.000
G1 X64.219 Y116.356 F1050.000 E1.29593
G1 F1800.000 E0.29593
G92 E0
G1 X65.301 Y84.464 F4200.000
G1 F1800.000 E1.00000
G1 X64.481 Y83.644 F1050.000 E1.03509
M104 S230 ; set temperature
G1 F1800.000 E0.03509
G92 E0
G1 Z0.800 F4200.000
G1 X65.667 Y83.278
G1 F1800.000 E1.00000
G1 X65.667 Y114.278 F1800.000 E1.92980
G1 X80.343 Y114.278 E2.36996
G1 X81.223 Y113.901 E2.39866
G1 X82.102 Y114.278 E2.42737
G1 X117.898 Y114.278 E3.50098
G1 X118.778 Y113.901 E3.52969
G1 X119.657 Y114.278 E3.55839
G1 X136.777 Y114.278 E4.07187
G1 X136.777 Y116.722 E4.14520
G1 X63.223 Y116.722 E6.35135
G1 X63.223 Y83.278 E7.35447
G1 X65.589 Y83.278 E7.42543
G1 X66.183 Y82.763 F4200.000
G1 X66.183 Y113.763 F1800.000 E8.35522
G1 X80.237 Y113.763 E8.77677
G1 X81.223 Y113.341 E8.80892
G1 X82.208 Y113.763 E8.84106
G1 X117.792 Y113.763 E9.90835
G1 X118.778 Y113.341 E9.94050
G1 X119.763 Y113.763 E9.97264
G1 X137.292 Y113.763 E10.49841
G1 X137.292 Y117.238 E10.60264
G1 X62.708 Y117.238 E12.83969
G1 X62.708 Y82.763 E13.87372
G1 X66.104 Y82.763 E13.97558
G1 X64.945 Y83.644 F4200.000
G1 X63.589 Y85.000 F2100.000 E14.03316
G1 X63.590 Y85.729 F4200.000
G1 X65.301 Y84.018 F2100.000 E14.10584
G1 X65.301 Y84.747 F4200.000
G1 X63.589 Y86.458 F2100.000 E14.17853
G1 X63.589 Y87.188 F4200.000
G1 X65.301 Y85.477 F2100.000 E14.25122
G1 X65.301 Y86.205 F4200.000
G1 X63.589 Y87.916 F2100.000 E14.32390
G1 X63.589 Y88.646 F4200.000
G1 X65.301 Y86.935 F2100.000 E14.39659
G1 X65.301 Y87.664 F4200.000
G1 X63.589 Y89.376 F2100.000 E14.46927
G1 X63.589 Y90.104 F4200.000
G1 X65.301 Y88.393 F2100.000 E14.54196
G1 X65.301 Y89.122 F4200.000
G1 X63.589 Y90.834 F2100.000 E14.61464
G1 X63.589 Y91.563 F4200.000
G1 X65.301 Y89.852 F2100.000 E14.68733
G1 X65.301 Y90.580 F4200.000
G1 X63.589 Y92.292 F2100.000 E14.76001
G1 X63.589 Y93.021 F4200.000
G1 X65.301 Y91.310 F2100.000 E14.83270
G1 X65.301 Y92.039 F4200.000
G1 X63.589 Y93.751 F2100.000 E14.90541
G1 X63.589 Y94.479 F4200.000
G1 X65.301 Y92.768 F2100.000 E14.97810
G1 X65.301 Y93.498 F4200.000
G1 X63.589 Y95.209 F2100.000 E15.05078
G1 X63.589 Y95.939 F4200.000
G1 X65.301 Y94.227 F2100.000 E15.12350
G1 X65.301 Y94.956 F4200.000
G1 X63.589 Y96.667 F2100.000 E15.19618
G1 X63.589 Y97.397 F4200.000
G1 X65.301 Y95.686 F2100.000 E15.26887
G1 X65.301 Y96.414 F4200.000
G1 X63.589 Y98.125 F2100.000 E15.34155
