; generated by Slic3r 0.7.3-dev on 2012-06-04 at 21:31:35

; layer_height = 0.4
; perimeters = 2
; solid_layers = 3
; fill_density = 0.15
; nozzle_diameter = 0.5
; filament_diameter = 3
; extrusion_multiplier = 1.02
; perimeter_speed = 30
; infill_speed = 40
; travel_speed = 70
; extrusion_width_ratio = 0
; scale = 1
; single wall width = 0.53mm

M104 S200 ; set temperature
M106
M104 S230
G28
M140 S60
G1 X205 Y105 F4000
M109 S230
G92 E0
G1 E5 F50
G1 X205 Y90 F2000
G90 ; use absolute coordinates
G21 ; set units to millimeters
G92 E0 ; reset extrusion distance
M82 ; use absolute distances for extrusion
G1 Z0.400 F4200.000
G1 X54.130 Y88.740
G1 F1800.000 E1.00000
G1 X89.120 Y53.770 F900.000 E2.48375
G1 X89.760 Y53.310 E2.50739
G1 X89.980 Y53.170 E2.51521
G1 X90.440 Y52.930 E2.53077
G1 X90.930 Y52.730 E2.54665
G1 X91.430 Y52.570 E2.56239
G1 X91.940 Y52.460 E2.57804
G1 X92.460 Y52.390 E2.59378
G1 X92.980 Y52.370 E2.60939
G1 X107.530 Y52.390 E3.04579
G1 X108.050 Y52.460 E3.06153
G1 X108.560 Y52.570 E3.07718
G1 X109.060 Y52.730 E3.09292
G1 X109.550 Y52.930 E3.10880
G1 X110.010 Y53.170 E3.12436
G1 X110.660 Y53.610 E3.14790
G1 X110.870 Y53.770 E3.15582
G1 X146.220 Y89.120 E4.65527
G1 X146.680 Y89.760 E4.67890
G1 X146.820 Y89.980 E4.68673
G1 X147.060 Y90.440 E4.70229
G1 X147.260 Y90.930 E4.71816
G1 X147.420 Y91.430 E4.73391
G1 X147.530 Y91.940 E4.74956
G1 X147.600 Y92.460 E4.76529
G1 X147.600 Y107.530 E5.21729
G1 X147.530 Y108.050 E5.23303
G1 X147.420 Y108.560 E5.24868
G1 X147.260 Y109.060 E5.26443
G1 X147.060 Y109.550 E5.28030
G1 X146.820 Y110.010 E5.29586
G1 X146.380 Y110.660 E5.31940
G1 X146.220 Y110.870 E5.32732
G1 X110.870 Y146.220 E6.82677
G1 X110.230 Y146.680 E6.85041
G1 X110.010 Y146.820 E6.85823
G1 X109.550 Y147.060 E6.87379
G1 X109.060 Y147.260 E6.88966
G1 X108.560 Y147.420 E6.90541
G1 X108.050 Y147.530 E6.92106
G1 X107.530 Y147.600 E6.93680
G1 X107.010 Y147.620 E6.95240
G1 X92.460 Y147.600 E7.38881
G1 X91.940 Y147.530 E7.40455
G1 X91.430 Y147.420 E7.42019
G1 X90.930 Y147.260 E7.43594
G1 X90.440 Y147.060 E7.45181
G1 X89.980 Y146.820 E7.46738
G1 X89.330 Y146.380 E7.49092
G1 X89.120 Y146.220 E7.49884
G1 X53.770 Y110.870 E8.99828
G1 X53.310 Y110.230 E9.02192
G1 X53.170 Y110.010 E9.02974
G1 X52.930 Y109.550 E9.04531
G1 X52.730 Y109.060 E9.06118
G1 X52.570 Y108.560 E9.07693
G1 X52.460 Y108.050 E9.09257
G1 X52.390 Y107.530 E9.10831
G1 X52.390 Y92.460 E9.56031
G1 X52.460 Y91.940 E9.57605
G1 X52.570 Y91.430 E9.59170
G1 X52.730 Y90.930 E9.60744
G1 X52.930 Y90.440 E9.62332
G1 X53.170 Y89.980 E9.63888
G1 X53.610 Y89.330 E9.66242
G1 X53.770 Y89.120 E9.67034
G1 X54.076 Y88.797 E9.68368
G1 F1800.000 E8.68368
G92 E0
G1 X88.575 Y96.645 F4200.000
G1 F1800.000 E1.00000
G1 X89.168 Y95.053 F900.000 E1.05096
G1 X89.983 Y93.562 E1.10192
G1 X91.001 Y92.202 E1.15287
G1 X92.202 Y91.001 E1.20383
G1 X93.562 Y89.983 E1.25479
G1 X95.053 Y89.168 E1.30575
G1 X96.645 Y88.575 E1.35671
G1 X98.305 Y88.213 E1.40767
G1 X100.000 Y88.092 E1.45862
G1 X101.695 Y88.213 E1.50958
G1 X103.355 Y88.575 E1.56054
G1 X104.947 Y89.168 E1.61150
G1 X106.438 Y89.983 E1.66246
G1 X107.798 Y91.001 E1.71342
G1 X108.999 Y92.202 E1.76437
G1 X110.017 Y93.562 E1.81533
G1 X110.832 Y95.053 E1.86629
G1 X111.425 Y96.645 E1.91725
G1 X111.786 Y98.304 E1.96816
G1 X111.908 Y100.000 E2.01916
G1 X111.786 Y101.696 E2.07017
G1 X111.425 Y103.355 E2.12108
G1 X110.832 Y104.947 E2.17204
G1 X110.017 Y106.438 E2.22300
G1 X108.999 Y107.798 E2.27395
G1 X107.798 Y108.999 E2.32491
G1 X106.438 Y110.017 E2.37587
G1 X104.947 Y110.832 E2.42683
G1 X103.355 Y111.425 E2.47779
G1 X101.695 Y111.787 E2.52875
G1 X100.000 Y111.908 E2.57970
G1 X98.305 Y111.787 E2.63066
G1 X96.645 Y111.425 E2.68162
G1 X95.053 Y110.832 E2.73258
G1 X93.562 Y110.017 E2.78354
G1 X92.202 Y108.999 E2.83450
G1 X91.001 Y107.798 E2.88545
G1 X89.983 Y106.438 E2.93641
G1 X89.168 Y104.947 E2.98737
G1 X88.575 Y103.355 E3.03833
G1 X88.213 Y101.695 E3.08929
G1 X88.092 Y100.000 E3.14024
G1 X88.213 Y98.305 E3.19120
G1 X88.558 Y96.722 E3.23980
G1 X89.070 Y96.791 F4200.000
G1 X89.638 Y95.268 F900.000 E3.28855
G1 X90.417 Y93.841 E3.33729
G1 X91.391 Y92.540 E3.38604
G1 X92.540 Y91.391 E3.43479
G1 X93.841 Y90.417 E3.48354
G1 X95.268 Y89.638 E3.53229
G1 X96.791 Y89.070 E3.58103
G1 X98.379 Y88.725 E3.62978
G1 X100.000 Y88.609 E3.67853
G1 X101.621 Y88.725 E3.72728
G1 X103.209 Y89.070 E3.77603
G1 X104.732 Y89.638 E3.82477
G1 X106.159 Y90.417 E3.87352
G1 X107.460 Y91.391 E3.92227
G1 X108.609 Y92.540 E3.97102
G1 X109.583 Y93.841 E4.01977
G1 X110.362 Y95.268 E4.06851
G1 X110.930 Y96.791 E4.11726
G1 X111.275 Y98.377 E4.16596
G1 X111.391 Y100.000 E4.21476
G1 X111.275 Y101.623 E4.26355
G1 X110.930 Y103.209 E4.31225
G1 X110.362 Y104.732 E4.36100
G1 X109.583 Y106.159 E4.40975
G1 X108.609 Y107.460 E4.45850
G1 X107.460 Y108.609 E4.50724
G1 X106.159 Y109.583 E4.55599
G1 X104.732 Y110.362 E4.60474
G1 X103.209 Y110.930 E4.65349
G1 X101.621 Y111.275 E4.70224
G1 X100.000 Y111.391 E4.75098
G1 X98.379 Y111.275 E4.79973
G1 X96.791 Y110.930 E4.84848
G1 X95.268 Y110.362 E4.89723
G1 X93.841 Y109.583 E4.94598
G1 X92.540 Y108.609 E4.99472
G1 X91.391 Y107.460 E5.04347
G1 X90.417 Y106.159 E5.09222
G1 X89.638 Y104.732 E5.14097
G1 X89.070 Y103.209 E5.18971
G1 X88.725 Y101.621 E5.23846
G1 X88.609 Y100.000 E5.28721
G1 X88.725 Y98.379 E5.33596
G1 X89.053 Y96.868 E5.38234
G1 F1800.000 E4.38234
G92 E0
G1 X82.050 Y103.734 F4200.000
G1 F1800.000 E1.00000
G1 X87.427 Y109.111 F900.000 E1.22806
G1 X86.033 Y110.505 E1.28718
G1 X87.000 Y109.946 E1.32067
G1 X89.644 Y111.473 E1.41226
G1 X89.644 Y113.818 E1.48258
G1 X90.889 Y112.573 E1.53537
G1 X96.266 Y117.950 E1.76343
G1 X91.950 Y122.266 E1.94650
G1 X86.573 Y116.889 E2.17456
G1 X87.967 Y115.495 E2.23368
G1 X87.000 Y116.054 E2.26717
G1 X84.356 Y114.527 E2.35876
G1 X84.356 Y112.182 E2.42908
G1 X83.111 Y113.427 E2.48187
G1 X77.734 Y108.050 E2.70993
G1 X81.995 Y103.790 E2.89064
G1 F1800.000 E1.89064
G92 E0
G1 X90.889 Y113.302 F4200.000
G1 F1800.000 E1.00000
G1 X95.537 Y117.950 F900.000 E1.19715
G1 X91.950 Y121.537 E1.34932
G1 X87.302 Y116.889 E1.54648
G1 X90.833 Y113.357 E1.69628
G1 X89.129 Y114.229 F4200.000
G1 X87.000 Y115.459 F900.000 E1.77003
G1 X84.871 Y114.229 E1.84377
G1 X84.871 Y111.771 E1.91752
G1 X87.000 Y110.541 E1.99126
G1 X89.129 Y111.771 E2.06501
G1 X89.129 Y114.151 E2.13639
G1 F1800.000 E1.13639
G92 E0
G1 X86.698 Y109.111 F4200.000
G1 F1800.000 E1.00000
G1 X83.111 Y112.698 F900.000 E1.15216
G1 X78.463 Y108.050 E1.34932
G1 X82.050 Y104.463 E1.50149
G1 X86.643 Y109.055 E1.69628
G1 F1800.000 E0.69628
G92 E0
G1 X82.050 Y96.266 F4200.000
G1 F1800.000 E1.00000
G1 X77.734 Y91.950 F900.000 E1.18307
G1 X83.111 Y86.573 E1.41113
G1 X84.505 Y87.967 E1.47025
G1 X83.946 Y87.000 E1.50374
G1 X85.473 Y84.356 E1.59533
G1 X87.818 Y84.356 E1.66565
G1 X86.573 Y83.111 E1.71845
G1 X91.950 Y77.734 E1.94651
G1 X96.266 Y82.050 E2.12958
G1 X90.889 Y87.427 E2.35764
G1 X89.495 Y86.033 E2.41676
G1 X90.054 Y87.000 E2.45025
G1 X88.527 Y89.644 E2.54184
G1 X86.182 Y89.644 E2.61216
G1 X87.427 Y90.889 E2.66495
G1 X82.106 Y96.210 E2.89065
G1 X82.050 Y95.537 F4200.000
G1 X78.463 Y91.950 F900.000 E3.04282
G1 X83.111 Y87.302 E3.23997
G1 X86.698 Y90.889 E3.39214
G1 X82.106 Y95.481 E3.58693
G1 F1800.000 E2.58693
G92 E0
G1 X85.771 Y89.129 F4200.000
G1 F1800.000 E1.00000
G1 X84.541 Y87.000 F900.000 E1.07375
G1 X85.771 Y84.871 E1.14749
G1 X88.229 Y84.871 E1.22123
G1 X89.459 Y87.000 E1.29498
G1 X88.229 Y89.129 E1.36872
G1 X85.849 Y89.129 E1.44010
G1 F1800.000 E0.44010
G92 E0
G1 X90.447 Y86.256 F4200.000
G1 F1800.000 E1.00000
G1 X87.302 Y83.111 F900.000 E1.13340
G1 X91.950 Y78.463 E1.33056
G1 X95.537 Y82.050 E1.48273
G1 X90.889 Y86.698 E1.67988
G1 X90.502 Y86.312 E1.69628
G1 F1800.000 E0.69628
G92 E0
G1 X103.734 Y82.050 F4200.000
G1 F1800.000 E1.00000
G1 X108.050 Y77.734 F900.000 E1.18307
G1 X113.427 Y83.111 E1.41113
G1 X112.033 Y84.505 E1.47025
G1 X113.000 Y83.946 E1.50374
G1 X115.644 Y85.473 E1.59533
G1 X115.644 Y87.818 E1.66565
G1 X116.889 Y86.573 E1.71845
G1 X122.266 Y91.950 E1.94651
G1 X117.950 Y96.266 E2.12958
G1 X112.573 Y90.889 E2.35764
G1 X113.967 Y89.495 E2.41676
G1 X113.000 Y90.054 E2.45025
G1 X110.356 Y88.527 E2.54184
G1 X110.356 Y86.182 E2.61216
G1 X109.111 Y87.427 E2.66495
G1 X103.790 Y82.106 E2.89064
G1 X104.463 Y82.050 F4200.000
G1 X108.050 Y78.463 F900.000 E3.04281
G1 X112.698 Y83.111 E3.23997
G1 X109.111 Y86.698 E3.39213
G1 X104.519 Y82.106 E3.58693
G1 F1800.000 E2.58693
G92 E0
G1 X110.871 Y85.771 F4200.000
G1 F1800.000 E1.00000
G1 X113.000 Y84.541 F900.000 E1.07375
G1 X115.129 Y85.771 E1.14749
G1 X115.129 Y88.229 E1.22123
G1 X113.000 Y89.459 E1.29498
G1 X110.871 Y88.229 E1.36872
G1 X110.871 Y85.849 E1.44010
G1 F1800.000 E0.44010
G92 E0
G1 X113.302 Y90.889 F4200.000
G1 F1800.000 E1.00000
G1 X116.889 Y87.302 F900.000 E1.15217
G1 X121.537 Y91.950 E1.34932
G1 X117.950 Y95.537 E1.50149
G1 X113.357 Y90.945 E1.69628
G1 F1800.000 E0.69628
G92 E0
G1 X117.950 Y103.734 F4200.000
G1 F1800.000 E1.00000
G1 X122.266 Y108.050 F900.000 E1.18307
G1 X116.889 Y113.427 E1.41113
G1 X115.495 Y112.033 E1.47025
G1 X116.054 Y113.000 E1.50374
G1 X114.527 Y115.644 E1.59533
G1 X112.182 Y115.644 E1.66565
G1 X113.427 Y116.889 E1.71845
G1 X108.050 Y122.266 E1.94651
G1 X103.734 Y117.950 E2.12958
G1 X109.111 Y112.573 E2.35764
G1 X110.505 Y113.967 E2.41676
G1 X109.946 Y113.000 E2.45025
G1 X111.473 Y110.356 E2.54184
G1 X113.818 Y110.356 E2.61216
G1 X112.573 Y109.111 E2.66495
G1 X117.894 Y103.790 E2.89065
G1 X117.950 Y104.463 F4200.000
G1 X121.537 Y108.050 F900.000 E3.04281
G1 X116.889 Y112.698 E3.23997
G1 X113.302 Y109.111 E3.39214
G1 X117.894 Y104.519 E3.58693
G1 F1800.000 E2.58693
G92 E0
G1 X114.229 Y110.871 F4200.000
G1 F1800.000 E1.00000
G1 X115.459 Y113.000 F900.000 E1.07375
G1 X114.229 Y115.129 E1.14749
G1 X111.771 Y115.129 E1.22123
G1 X110.541 Y113.000 E1.29498
G1 X111.771 Y110.871 E1.36872
G1 X114.151 Y110.871 E1.44010
G1 F1800.000 E0.44010
G92 E0
G1 X109.111 Y113.302 F4200.000
G1 F1800.000 E1.00000
G1 X112.698 Y116.889 F900.000 E1.15217
G1 X108.050 Y121.537 E1.34932
G1 X104.463 Y117.950 E1.50149
G1 X109.055 Y113.357 E1.69628
G1 F1800.000 E0.69628
G92 E0
G1 X106.503 Y127.597 F4200.000
G1 F1800.000 E1.00000
G1 X106.503 Y141.113 F900.000 E1.40538
G1 X103.205 Y141.113 E1.50432
G1 X103.205 Y131.113 E1.80425
G1 X96.795 Y131.113 E1.99649
G1 X96.795 Y141.113 E2.29643
G1 X93.497 Y141.113 E2.39536
G1 X93.497 Y127.597 E2.80074
G1 X72.403 Y106.503 E3.69547
G1 X58.887 Y106.503 E4.10085
G1 X58.887 Y103.205 E4.19979
G1 X68.887 Y103.205 E4.49972
G1 X68.887 Y96.795 E4.69196
G1 X58.887 Y96.795 E4.99190
G1 X58.887 Y93.497 E5.09083
G1 X72.403 Y93.497 E5.49621
G1 X93.497 Y72.403 E6.39094
G1 X93.497 Y58.887 E6.79632
G1 X96.795 Y58.887 E6.89526
G1 X96.795 Y68.887 E7.19519
G1 X103.205 Y68.887 E7.38743
G1 X103.205 Y58.887 E7.68737
G1 X106.503 Y58.887 E7.78630
G1 X106.503 Y72.403 E8.19169
G1 X127.597 Y93.497 E9.08641
G1 X141.113 Y93.497 E9.49179
G1 X141.113 Y96.795 E9.59073
G1 X131.113 Y96.795 E9.89067
G1 X131.113 Y103.205 E10.08290
G1 X141.113 Y103.205 E10.38284
G1 X141.113 Y106.503 E10.48178
G1 X127.597 Y106.503 E10.88716
G1 X106.559 Y127.541 E11.77952
G1 X107.019 Y127.810 F4200.000
G1 X107.019 Y141.628 F900.000 E12.19395
G1 X102.690 Y141.628 E12.32380
G1 X102.690 Y131.628 E12.62373
G1 X97.310 Y131.628 E12.78506
G1 X97.310 Y141.628 E13.08500
G1 X92.982 Y141.628 E13.21484
G1 X92.982 Y127.810 E13.62927
G1 X72.190 Y107.019 E14.51120
G1 X58.372 Y107.019 E14.92563
G1 X58.372 Y102.690 E15.05547
G1 X68.372 Y102.690 E15.35541
G1 X68.372 Y97.310 E15.51674
G1 X58.372 Y97.310 E15.81668
G1 X58.372 Y92.982 E15.94652
G1 X72.190 Y92.982 E16.36095
G1 X92.982 Y72.190 E17.24288
G1 X92.982 Y58.372 E17.65731
G1 X97.310 Y58.372 E17.78715
G1 X97.310 Y68.372 E18.08708
G1 X102.690 Y68.372 E18.24842
G1 X102.690 Y58.372 E18.54835
G1 X107.019 Y58.372 E18.67820
G1 X107.019 Y72.190 E19.09263
G1 X127.810 Y92.982 E19.97455
G1 X141.628 Y92.982 E20.38899
G1 X141.628 Y97.310 E20.51883
G1 X131.628 Y97.310 E20.81876
G1 X131.628 Y102.690 E20.98010
G1 X141.628 Y102.690 E21.28003
G1 X141.628 Y107.019 E21.40987
G1 X127.810 Y107.019 E21.82431
G1 X107.074 Y127.755 E22.70387
G1 X106.556 Y127.112 F4200.000
G1 X72.887 Y93.444 F1050.000 E24.14899
G1 X72.520 Y93.811 F4200.000
G1 X82.031 Y103.322 F1050.000 E24.55721
G1 X81.664 Y103.689 F4200.000
G1 X71.839 Y93.863 F1050.000 E24.97894
G1 X71.105 Y93.863 F4200.000
G1 X81.297 Y104.056 F1050.000 E25.41642
G1 X80.930 Y104.423 F4200.000
G1 X70.371 Y93.863 F1050.000 E25.86966
G1 X69.637 Y93.863 F4200.000
G1 X80.563 Y104.790 F1050.000 E26.33865
G1 X80.196 Y105.157 F4200.000
G1 X68.903 Y93.863 F1050.000 E26.82340
G1 X68.168 Y93.863 F4200.000
G1 X79.829 Y105.524 F1050.000 E27.32390
G1 X79.462 Y105.891 F4200.000
G1 X67.434 Y93.864 F1050.000 E27.84016
G1 X66.700 Y93.864 F4200.000
G1 X69.265 Y96.429 F1050.000 E27.95027
G1 X69.254 Y96.418 F4200.000
G1 X79.095 Y106.258 F1050.000 E28.37265
G1 X78.728 Y106.625 F4200.000
G1 X69.254 Y97.152 F1050.000 E28.77928
G1 X69.254 Y97.886 F4200.000
G1 X78.361 Y106.992 F1050.000 E29.17014
G1 X77.994 Y107.359 F4200.000
G1 X69.254 Y98.620 F1050.000 E29.54526
G1 X69.254 Y99.354 F4200.000
G1 X77.627 Y107.726 F1050.000 E29.90461
G1 X77.260 Y108.093 F4200.000
G1 X69.254 Y100.088 F1050.000 E30.24821
G1 X69.254 Y100.822 F4200.000
G1 X99.178 Y130.745 F1050.000 E31.53259
G1 X99.912 Y130.745 F4200.000
G1 X91.907 Y122.740 F1050.000 E31.87618
G1 X92.274 Y122.373 F4200.000
G1 X100.646 Y130.745 F1050.000 E32.23554
G1 X101.380 Y130.745 F4200.000
G1 X92.640 Y122.006 F1050.000 E32.61064
G1 X93.007 Y121.639 F4200.000
G1 X102.114 Y130.746 F1050.000 E33.00152
G1 X102.848 Y130.746 F4200.000
G1 X93.374 Y121.272 F1050.000 E33.40816
G1 X93.741 Y120.905 F4200.000
G1 X103.582 Y130.746 F1050.000 E33.83055
G1 X103.571 Y130.735 F4200.000
G1 X106.136 Y133.300 F1050.000 E33.94066
G1 X106.136 Y134.034 F4200.000
G1 X103.571 Y131.469 F1050.000 E34.05077
G1 X103.572 Y132.204 F4200.000
G1 X106.136 Y134.768 F1050.000 E34.16085
G1 X106.136 Y135.502 F4200.000
G1 X103.572 Y132.938 F1050.000 E34.27093
G1 X103.572 Y133.671 F4200.000
G1 X106.137 Y136.237 F1050.000 E34.38105
G1 X106.137 Y136.971 F4200.000
G1 X103.572 Y134.405 F1050.000 E34.49116
G1 X103.572 Y135.139 F4200.000
G1 X106.137 Y137.705 F1050.000 E34.60127
G1 X106.136 Y138.440 F4200.000
G1 X103.571 Y135.874 F1050.000 E34.71138
G1 X103.571 Y136.608 F4200.000
G1 X106.136 Y139.173 F1050.000 E34.82149
G1 X106.136 Y139.907 F4200.000
G1 X103.571 Y137.342 F1050.000 E34.93161
G1 X103.571 Y138.076 F4200.000
G1 X106.136 Y140.641 F1050.000 E35.04172
G1 X105.507 Y140.746 F4200.000
G1 X103.572 Y138.811 F1050.000 E35.12479
G1 X103.572 Y139.545 F4200.000
G1 X104.772 Y140.745 F1050.000 E35.17632
G1 X104.038 Y140.745 F4200.000
G1 X103.572 Y140.279 F1050.000 E35.19635
G1 X96.429 Y140.477 F4200.000
G1 X93.864 Y137.912 F1050.000 E35.30647
G1 X93.864 Y137.178 F4200.000
G1 X96.429 Y139.743 F1050.000 E35.41658
G1 X96.428 Y139.009 F4200.000
G1 X93.864 Y136.444 F1050.000 E35.52666
G1 X93.864 Y135.710 F4200.000
G1 X96.428 Y138.275 F1050.000 E35.63674
G1 X96.428 Y137.541 F4200.000
G1 X93.863 Y134.975 F1050.000 E35.74685
G1 X93.863 Y134.241 F4200.000
G1 X96.428 Y136.807 F1050.000 E35.85696
G1 X96.428 Y136.073 F4200.000
G1 X93.863 Y133.507 F1050.000 E35.96708
G1 X93.863 Y132.773 F4200.000
G1 X96.428 Y135.339 F1050.000 E36.07719
G1 X96.428 Y134.605 F4200.000
G1 X93.863 Y132.039 F1050.000 E36.18730
G1 X93.864 Y131.305 F4200.000
G1 X96.429 Y133.870 F1050.000 E36.29741
G1 X96.429 Y133.136 F4200.000
G1 X93.864 Y130.571 F1050.000 E36.40752
G1 X93.864 Y129.837 F4200.000
G1 X96.428 Y132.402 F1050.000 E36.51760
G1 X96.428 Y131.668 F4200.000
G1 X93.863 Y129.102 F1050.000 E36.62772
G1 X93.863 Y128.368 F4200.000
G1 X96.428 Y130.934 F1050.000 E36.73783
G1 X96.975 Y130.746 F4200.000
G1 X93.863 Y127.634 F1050.000 E36.87140
G1 X97.709 Y130.746 F4200.000
G1 X69.254 Y102.291 F1050.000 E38.09276
G1 X69.254 Y101.557 F4200.000
G1 X98.443 Y130.746 F1050.000 E39.34562
G1 X106.137 Y131.098 F4200.000
G1 X94.843 Y119.804 F1050.000 E39.83038
G1 X94.476 Y120.171 F4200.000
