; generated by Slic3r 0.7.3-dev on 2012-06-05 at 10:51:32

; layer_height = 0.4
; perimeters = 2
; solid_layers = 3
; fill_density = 0.15
; nozzle_diameter = 0.5
; filament_diameter = 3
; extrusion_multiplier = 1.02
; perimeter_speed = 30
; infill_speed = 40
; travel_speed = 70
; extrusion_width_ratio = 0
; scale = 1
; single wall width = 0.53mm

M104 S200 ; set temperature
M106
M104 S230
G28
M140 S60
G1 X205 Y105 F4000
M109 S230
G92 E0
G1 E5 F50
G1 X205 Y90 F2000
G90 ; use absolute coordinates
G21 ; set units to millimeters
G92 E0 ; reset extrusion distance
M82 ; use absolute distances for extrusion
G1 Z0.400 F4200.000
G1 X16.693 Y73.599
G1 F1800.000 E1.00000
G1 X18.213 Y72.259 F900.000 E1.06078
G1 X18.663 Y71.929 E1.07751
G1 X19.133 Y71.639 E1.09408
G1 X19.383 Y71.509 E1.10253
G1 X20.143 Y71.199 E1.12715
G1 X21.833 Y70.649 E1.18045
G1 X22.443 Y70.489 E1.19937
G1 X22.753 Y70.429 E1.20884
G1 X23.063 Y70.389 E1.21821
G1 X23.693 Y70.359 E1.23713
G1 X175.913 Y70.389 E5.80273
G1 X177.993 Y70.619 E5.86550
G1 X178.543 Y70.729 E5.88232
G1 X178.813 Y70.799 E5.89069
G1 X179.593 Y71.099 E5.91575
G1 X179.843 Y71.219 E5.92407
G1 X181.843 Y72.379 E5.99342
G1 X182.083 Y72.539 E6.00207
G1 X182.513 Y72.879 E6.01851
G1 X183.113 Y73.469 E6.04375
G1 X184.493 Y75.329 E6.11321
G1 X184.933 Y76.029 E6.13801
G1 X185.273 Y76.789 E6.16299
G1 X185.503 Y77.589 E6.18795
G1 X185.873 Y79.309 E6.24072
G1 X185.983 Y80.059 E6.26346
G1 X185.983 Y119.929 E7.45929
G1 X185.873 Y120.679 E7.48203
G1 X185.363 Y122.929 E7.55123
G1 X185.173 Y123.449 E7.56783
G1 X185.063 Y123.699 E7.57602
G1 X184.803 Y124.189 E7.59266
G1 X183.303 Y126.299 E7.67031
G1 X183.123 Y126.519 E7.67884
G1 X182.733 Y126.919 E7.69559
G1 X182.303 Y127.289 E7.71261
G1 X181.853 Y127.619 E7.72934
G1 X179.843 Y128.779 E7.79895
G1 X179.333 Y129.009 E7.81573
G1 X178.813 Y129.199 E7.83234
G1 X177.993 Y129.379 E7.85752
G1 X175.913 Y129.609 E7.92028
G1 X175.283 Y129.639 E7.93920
G1 X23.383 Y129.629 E12.49520
G1 X23.063 Y129.609 E12.50482
G1 X22.753 Y129.569 E12.51419
G1 X22.443 Y129.509 E12.52366
G1 X21.833 Y129.349 E12.54258
G1 X20.143 Y128.799 E12.59588
G1 X19.623 Y128.599 E12.61259
G1 X19.123 Y128.349 E12.62936
G1 X18.643 Y128.059 E12.64618
G1 X17.983 Y127.549 E12.67120
G1 X16.273 Y125.969 E12.74103
G1 X15.913 Y125.539 E12.75785
G1 X15.593 Y125.079 E12.77466
G1 X15.323 Y124.589 E12.79144
G1 X14.383 Y122.469 E12.86099
G1 X14.213 Y121.939 E12.87769
G1 X14.083 Y121.399 E12.89435
G1 X14.013 Y120.849 E12.91098
G1 X13.983 Y120.299 E12.92750
G1 X13.993 Y79.409 E14.15393
G1 X14.043 Y78.859 E14.17049
G1 X14.083 Y78.589 E14.17868
G1 X14.213 Y78.049 E14.19534
G1 X14.383 Y77.519 E14.21203
G1 X15.323 Y75.399 E14.28159
G1 X15.453 Y75.149 E14.29004
G1 X15.753 Y74.669 E14.30702
G1 X16.293 Y73.999 E14.33283
G1 X16.638 Y73.654 E14.34743
G1 F1800.000 E13.34743
G92 E0
G1 X104.875 Y90.880 F4200.000
G1 F1800.000 E1.00000
G1 X107.928 Y90.880 F900.000 E1.09159
G1 X109.455 Y93.525 E1.18317
G1 X107.928 Y96.169 E1.27476
G1 X104.875 Y96.169 E1.36635
G1 X104.532 Y95.575 E1.38693
G1 X104.532 Y95.575 E1.38693
G1 X103.348 Y93.525 E1.45793
G1 X104.836 Y90.948 E1.54716
G1 X105.172 Y91.395 F4200.000
G1 X107.631 Y91.395 F900.000 E1.62090
G1 X108.860 Y93.525 E1.69464
G1 X107.631 Y95.654 E1.76839
G1 X105.172 Y95.654 E1.84213
G1 X103.943 Y93.525 E1.91587
G1 X105.133 Y91.464 E1.98726
G1 F1800.000 E0.98726
G92 E0
G1 X172.723 Y93.525 F4200.000
G1 F1800.000 E1.00000
G1 X174.250 Y90.880 F900.000 E1.09159
G1 X177.303 Y90.880 E1.18317
G1 X178.830 Y93.525 E1.27476
G1 X177.303 Y96.169 E1.36635
G1 X174.250 Y96.169 E1.45793
G1 X172.762 Y93.593 E1.54716
G1 X173.318 Y93.525 F4200.000
G1 X174.547 Y91.395 F900.000 E1.62090
G1 X177.006 Y91.395 E1.69464
G1 X178.235 Y93.525 E1.76839
G1 X177.006 Y95.654 E1.84213
G1 X174.547 Y95.654 E1.91588
G1 X173.357 Y93.593 E1.98726
G1 F1800.000 E0.98726
G92 E0
G1 X175.266 Y97.222 F4200.000
G1 F1800.000 E1.00000
G1 X106.054 Y97.222 F900.000 E3.07588
G1 X104.549 Y96.733 E3.12335
G1 X103.404 Y95.702 E3.16956
G1 X102.778 Y94.295 E3.21576
G1 X102.778 Y92.754 E3.26197
G1 X103.404 Y91.347 E3.30818
G1 X104.549 Y90.316 E3.35439
G1 X106.054 Y89.827 E3.40186
G1 X175.266 Y89.827 E5.47774
G1 X176.922 Y90.001 E5.52768
G1 X178.256 Y90.771 E5.57389
G1 X179.161 Y92.018 E5.62010
G1 X179.482 Y93.525 E5.66630
G1 X179.161 Y95.032 E5.71251
G1 X178.256 Y96.278 E5.75872
G1 X176.922 Y97.048 E5.80493
G1 X175.344 Y97.214 E5.85251
G1 X175.293 Y97.737 F4200.000
G1 X105.973 Y97.737 F900.000 E7.93165
G1 X104.286 Y97.189 E7.98485
G1 X102.978 Y96.012 E8.03763
G1 X102.263 Y94.404 E8.09040
G1 X102.263 Y92.645 E8.14318
G1 X102.978 Y91.037 E8.19596
G1 X104.286 Y89.860 E8.24873
G1 X105.973 Y89.312 E8.30194
G1 X175.293 Y89.312 E10.38107
G1 X177.084 Y89.500 E10.43511
G1 X178.608 Y90.380 E10.48789
G1 X179.642 Y91.803 E10.54066
G1 X180.008 Y93.525 E10.59344
G1 X179.642 Y95.246 E10.64622
G1 X178.608 Y96.669 E10.69899
G1 X177.084 Y97.549 E10.75177
G1 X175.371 Y97.729 E10.80345
G1 X173.999 Y96.796 F4200.000
G1 X167.397 Y90.194 F1050.000 E11.08544
G1 X166.666 Y90.194 F4200.000
G1 X173.328 Y96.856 F1050.000 E11.36998
G1 X172.596 Y96.856 F4200.000
G1 X165.933 Y90.194 F1050.000 E11.65454
G1 X165.202 Y90.194 F4200.000
G1 X171.864 Y96.856 F1050.000 E11.93908
G1 X171.133 Y96.856 F4200.000
G1 X164.470 Y90.193 F1050.000 E12.22364
G1 X163.738 Y90.194 F4200.000
G1 X170.400 Y96.856 F1050.000 E12.50818
G1 X169.669 Y96.856 F4200.000
G1 X163.007 Y90.193 F1050.000 E12.79274
G1 X162.275 Y90.194 F4200.000
G1 X168.936 Y96.856 F1050.000 E13.07728
G1 X168.205 Y96.856 F4200.000
G1 X161.543 Y90.193 F1050.000 E13.36184
G1 X160.811 Y90.194 F4200.000
G1 X167.473 Y96.856 F1050.000 E13.64638
G1 X166.742 Y96.856 F4200.000
G1 X160.079 Y90.193 F1050.000 E13.93094
G1 X159.347 Y90.194 F4200.000
G1 X166.009 Y96.856 F1050.000 E14.21548
G1 X165.278 Y96.856 F4200.000
G1 X158.615 Y90.193 F1050.000 E14.50004
G1 X157.884 Y90.194 F4200.000
G1 X164.545 Y96.856 F1050.000 E14.78457
G1 X163.814 Y96.856 F4200.000
G1 X157.152 Y90.193 F1050.000 E15.06914
G1 X156.420 Y90.194 F4200.000
G1 X163.082 Y96.856 F1050.000 E15.35367
G1 X162.350 Y96.856 F4200.000
G1 X155.688 Y90.193 F1050.000 E15.63824
G1 X154.956 Y90.194 F4200.000
G1 X161.618 Y96.856 F1050.000 E15.92277
G1 X160.887 Y96.856 F4200.000
G1 X154.224 Y90.193 F1050.000 E16.20734
G1 X153.493 Y90.194 F4200.000
G1 X160.154 Y96.856 F1050.000 E16.49187
G1 X159.423 Y96.856 F4200.000
G1 X152.761 Y90.193 F1050.000 E16.77644
G1 X152.029 Y90.194 F4200.000
G1 X158.690 Y96.856 F1050.000 E17.06097
G1 X157.959 Y96.856 F4200.000
G1 X151.297 Y90.193 F1050.000 E17.34554
G1 X150.565 Y90.194 F4200.000
G1 X157.227 Y96.856 F1050.000 E17.63007
G1 X156.496 Y96.856 F4200.000
G1 X149.833 Y90.193 F1050.000 E17.91464
G1 X149.101 Y90.194 F4200.000
G1 X155.763 Y96.856 F1050.000 E18.19917
G1 X155.032 Y96.856 F4200.000
G1 X148.370 Y90.194 F1050.000 E18.48370
G1 X147.638 Y90.194 F4200.000
G1 X154.300 Y96.856 F1050.000 E18.76827
G1 X153.568 Y96.856 F4200.000
G1 X146.907 Y90.194 F1050.000 E19.05280
G1 X146.174 Y90.194 F4200.000
G1 X152.836 Y96.856 F1050.000 E19.33737
G1 X152.104 Y96.856 F4200.000
G1 X145.443 Y90.194 F1050.000 E19.62190
G1 X144.710 Y90.194 F4200.000
G1 X151.373 Y96.856 F1050.000 E19.90647
G1 X150.641 Y96.856 F4200.000
G1 X143.979 Y90.194 F1050.000 E20.19100
G1 X143.247 Y90.194 F4200.000
G1 X149.909 Y96.856 F1050.000 E20.47557
G1 X149.177 Y96.856 F4200.000
G1 X142.515 Y90.194 F1050.000 E20.76010
G1 X141.783 Y90.194 F4200.000
G1 X148.445 Y96.856 F1050.000 E21.04467
G1 X147.713 Y96.856 F4200.000
G1 X141.052 Y90.194 F1050.000 E21.32920
G1 X140.320 Y90.193 F4200.000
G1 X146.982 Y96.856 F1050.000 E21.61377
G1 X146.250 Y96.856 F4200.000
G1 X139.588 Y90.194 F1050.000 E21.89830
G1 X138.856 Y90.193 F4200.000
G1 X145.518 Y96.856 F1050.000 E22.18286
G1 X144.786 Y96.856 F4200.000
G1 X138.124 Y90.194 F1050.000 E22.46740
G1 X137.392 Y90.193 F4200.000
G1 X144.055 Y96.856 F1050.000 E22.75196
G1 X143.322 Y96.856 F4200.000
G1 X136.661 Y90.194 F1050.000 E23.03650
G1 X135.929 Y90.193 F4200.000
G1 X142.591 Y96.856 F1050.000 E23.32106
G1 X141.858 Y96.856 F4200.000
G1 X135.197 Y90.194 F1050.000 E23.60560
G1 X134.465 Y90.193 F4200.000
G1 X141.127 Y96.856 F1050.000 E23.89016
G1 X140.395 Y96.856 F4200.000
G1 X133.733 Y90.194 F1050.000 E24.17470
G1 X133.001 Y90.193 F4200.000
G1 X139.664 Y96.856 F1050.000 E24.45926
G1 X138.931 Y96.856 F4200.000
G1 X132.269 Y90.194 F1050.000 E24.74380
G1 X131.538 Y90.193 F4200.000
G1 X138.200 Y96.856 F1050.000 E25.02836
G1 X137.467 Y96.856 F4200.000
G1 X130.806 Y90.194 F1050.000 E25.31290
G1 X130.074 Y90.193 F4200.000
G1 X136.736 Y96.856 F1050.000 E25.59746
G1 X136.004 Y96.856 F4200.000
G1 X129.342 Y90.194 F1050.000 E25.88199
G1 X128.610 Y90.193 F4200.000
G1 X135.272 Y96.856 F1050.000 E26.16656
G1 X134.540 Y96.856 F4200.000
G1 X127.878 Y90.194 F1050.000 E26.45109
G1 X127.146 Y90.193 F4200.000
G1 X133.809 Y96.856 F1050.000 E26.73566
G1 X133.076 Y96.856 F4200.000
G1 X126.415 Y90.194 F1050.000 E27.02019
G1 X125.683 Y90.193 F4200.000
G1 X132.345 Y96.856 F1050.000 E27.30476
G1 X131.613 Y96.856 F4200.000
G1 X124.951 Y90.194 F1050.000 E27.58929
G1 X124.220 Y90.194 F4200.000
G1 X130.881 Y96.856 F1050.000 E27.87383
G1 X130.149 Y96.856 F4200.000
G1 X123.487 Y90.194 F1050.000 E28.15839
G1 X122.756 Y90.194 F4200.000
G1 X129.418 Y96.856 F1050.000 E28.44293
G1 X128.686 Y96.856 F4200.000
G1 X122.023 Y90.194 F1050.000 E28.72749
G1 X121.292 Y90.194 F4200.000
G1 X127.954 Y96.856 F1050.000 E29.01203
G1 X127.222 Y96.856 F4200.000
G1 X120.560 Y90.194 F1050.000 E29.29659
G1 X119.829 Y90.194 F4200.000
G1 X126.490 Y96.856 F1050.000 E29.58112
G1 X125.758 Y96.856 F4200.000
G1 X119.096 Y90.194 F1050.000 E29.86569
G1 X118.365 Y90.194 F4200.000
G1 X125.027 Y96.856 F1050.000 E30.15022
G1 X124.295 Y96.856 F4200.000
G1 X117.632 Y90.194 F1050.000 E30.43479
G1 X116.901 Y90.194 F4200.000
G1 X123.563 Y96.856 F1050.000 E30.71932
G1 X122.832 Y96.856 F4200.000
G1 X116.169 Y90.193 F1050.000 E31.00389
G1 X115.437 Y90.194 F4200.000
G1 X122.099 Y96.856 F1050.000 E31.28842
G1 X121.368 Y96.856 F4200.000
G1 X114.706 Y90.193 F1050.000 E31.57299
G1 X113.974 Y90.194 F4200.000
G1 X120.635 Y96.856 F1050.000 E31.85752
G1 X119.904 Y96.856 F4200.000
G1 X113.242 Y90.193 F1050.000 E32.14209
G1 X112.510 Y90.194 F4200.000
G1 X119.172 Y96.856 F1050.000 E32.42662
G1 X118.441 Y96.856 F4200.000
G1 X111.778 Y90.193 F1050.000 E32.71119
G1 X111.046 Y90.194 F4200.000
G1 X117.708 Y96.856 F1050.000 E32.99572
G1 X116.977 Y96.856 F4200.000
G1 X110.314 Y90.193 F1050.000 E33.28029
G1 X109.583 Y90.194 F4200.000
G1 X116.244 Y96.856 F1050.000 E33.56482
G1 X115.513 Y96.856 F4200.000
G1 X108.851 Y90.193 F1050.000 E33.84937
G1 X108.178 Y90.253 F4200.000
G1 X114.781 Y96.856 F1050.000 E34.13137
G1 X114.049 Y96.856 F4200.000
G1 X108.989 Y91.795 F1050.000 E34.34749
G1 X109.878 Y93.417 F4200.000
G1 X113.317 Y96.856 F1050.000 E34.49437
G1 X112.586 Y96.856 F4200.000
G1 X109.611 Y93.881 F1050.000 E34.62143
G1 X109.342 Y94.345 F4200.000
G1 X111.853 Y96.856 F1050.000 E34.72867
G1 X111.122 Y96.856 F4200.000
G1 X109.075 Y94.808 F1050.000 E34.81611
G1 X108.806 Y95.272 F4200.000
G1 X110.389 Y96.856 F1050.000 E34.88373
G1 X109.658 Y96.856 F4200.000
G1 X108.539 Y95.736 F1050.000 E34.93154
G1 X108.271 Y96.201 F4200.000
G1 X108.926 Y96.856 F1050.000 E34.95951
G1 F1800.000 E33.95951
G92 E0
G1 X168.130 Y90.194 F4200.000
G1 F1800.000 E1.00000
G1 X173.189 Y95.253 F1050.000 E1.21610
G1 X172.299 Y93.633 F4200.000
G1 X168.861 Y90.194 F1050.000 E1.36297
G1 X169.593 Y90.194 F4200.000
G1 X172.568 Y93.169 F1050.000 E1.49003
G1 X172.835 Y92.705 F4200.000
G1 X170.324 Y90.194 F1050.000 E1.59728
G1 X171.057 Y90.194 F4200.000
G1 X173.104 Y92.241 F1050.000 E1.68471
G1 X173.371 Y91.777 F4200.000
G1 X171.788 Y90.194 F1050.000 E1.75234
G1 X172.521 Y90.194 F4200.000
G1 X173.639 Y91.313 F1050.000 E1.80012
G1 X173.907 Y90.849 F4200.000
G1 X173.252 Y90.194 F1050.000 E1.82811
G1 F1800.000 E0.82811
G92 E0
G1 X27.179 Y93.525 F4200.000
G1 F1800.000 E1.00000
G1 X25.652 Y96.169 F900.000 E1.09159
G1 X22.598 Y96.169 E1.18317
G1 X22.255 Y95.575 E1.20376
G1 X22.255 Y95.575 E1.20376
G1 X21.071 Y93.525 E1.27476
G1 X22.598 Y90.880 E1.36635
G1 X25.652 Y90.880 E1.45793
G1 X27.139 Y93.456 E1.54716
G1 X26.584 Y93.525 F4200.000
G1 X25.354 Y95.654 F900.000 E1.62090
G1 X22.896 Y95.654 E1.69464
G1 X21.666 Y93.525 E1.76839
G1 X22.896 Y91.395 E1.84213
G1 X25.354 Y91.395 E1.91587
G1 X26.544 Y93.456 E1.98726
G1 F1800.000 E0.98726
G92 E0
G1 X90.446 Y93.525 F4200.000
G1 F1800.000 E1.00000
G1 X91.973 Y90.880 F900.000 E1.09159
G1 X95.027 Y90.880 E1.18317
G1 X96.554 Y93.525 E1.27476
G1 X95.027 Y96.169 E1.36635
G1 X91.973 Y96.169 E1.45793
G1 X90.486 Y93.593 E1.54716
G1 X91.041 Y93.525 F4200.000
G1 X92.271 Y91.395 F900.000 E1.62090
G1 X94.729 Y91.395 E1.69464
G1 X95.959 Y93.525 E1.76839
G1 X94.729 Y95.654 E1.84213
G1 X92.271 Y95.654 E1.91588
G1 X91.081 Y93.593 E1.98726
G1 F1800.000 E0.98726
G92 E0
G1 X92.989 Y97.222 F4200.000
G1 F1800.000 E1.00000
G1 X23.778 Y97.222 F900.000 E3.07588
G1 X22.273 Y96.733 E3.12335
G1 X21.128 Y95.702 E3.16956
G1 X20.501 Y94.295 E3.21576
G1 X20.501 Y92.754 E3.26197
G1 X21.128 Y91.347 E3.30818
G1 X22.273 Y90.316 E3.35439
G1 X23.778 Y89.827 E3.40186
G1 X92.989 Y89.827 E5.47774
G1 X94.645 Y90.001 E5.52768
G1 X95.979 Y90.771 E5.57389
G1 X96.885 Y92.018 E5.62010
G1 X97.205 Y93.525 E5.66630
G1 X96.885 Y95.032 E5.71251
G1 X95.979 Y96.278 E5.75872
G1 X94.645 Y97.048 E5.80493
G1 X93.067 Y97.214 E5.85251
G1 X93.016 Y97.737 F4200.000
G1 X23.696 Y97.737 F900.000 E7.93165
G1 X22.009 Y97.189 E7.98485
G1 X20.702 Y96.012 E8.03763
G1 X19.986 Y94.404 E8.09040
G1 X19.986 Y92.645 E8.14318
G1 X20.702 Y91.037 E8.19596
G1 X22.009 Y89.860 E8.24873
G1 X23.696 Y89.312 E8.30194
G1 X93.016 Y89.312 E10.38107
G1 X94.808 Y89.500 E10.43511
G1 X96.332 Y90.380 E10.48789
G1 X97.366 Y91.803 E10.54066
G1 X97.732 Y93.525 E10.59344
G1 X97.366 Y95.246 E10.64622
G1 X96.332 Y96.669 E10.69899
G1 X94.808 Y97.549 E10.75177
G1 X93.094 Y97.729 E10.80345
G1 X91.723 Y96.796 F4200.000
G1 X85.120 Y90.194 F1050.000 E11.08544
G1 X84.389 Y90.194 F4200.000
G1 X91.051 Y96.856 F1050.000 E11.36998
G1 X90.319 Y96.856 F4200.000
G1 X83.657 Y90.194 F1050.000 E11.65454
G1 X82.926 Y90.194 F4200.000
G1 X89.587 Y96.856 F1050.000 E11.93908
G1 X88.856 Y96.856 F4200.000
G1 X82.194 Y90.193 F1050.000 E12.22364
G1 X81.462 Y90.194 F4200.000
G1 X88.123 Y96.856 F1050.000 E12.50818
G1 X87.392 Y96.856 F4200.000
G1 X80.730 Y90.193 F1050.000 E12.79274
G1 X79.998 Y90.194 F4200.000
G1 X86.660 Y96.856 F1050.000 E13.07728
G1 X85.929 Y96.856 F4200.000
G1 X79.266 Y90.193 F1050.000 E13.36184
G1 X78.534 Y90.194 F4200.000
G1 X85.196 Y96.856 F1050.000 E13.64638
G1 X84.465 Y96.856 F4200.000
G1 X77.803 Y90.193 F1050.000 E13.93094
G1 X77.071 Y90.194 F4200.000
G1 X83.732 Y96.856 F1050.000 E14.21548
G1 X83.001 Y96.856 F4200.000
G1 X76.339 Y90.193 F1050.000 E14.50004
G1 X75.607 Y90.194 F4200.000
G1 X82.269 Y96.856 F1050.000 E14.78457
G1 X81.537 Y96.856 F4200.000
G1 X74.875 Y90.193 F1050.000 E15.06914
G1 X74.143 Y90.194 F4200.000
G1 X80.805 Y96.856 F1050.000 E15.35367
G1 X80.074 Y96.856 F4200.000
G1 X73.411 Y90.193 F1050.000 E15.63824
G1 X72.680 Y90.194 F4200.000
G1 X79.341 Y96.856 F1050.000 E15.92277
G1 X78.610 Y96.856 F4200.000
G1 X71.948 Y90.193 F1050.000 E16.20734
G1 X71.216 Y90.194 F4200.000
G1 X77.878 Y96.856 F1050.000 E16.49187
G1 X77.146 Y96.856 F4200.000
G1 X70.484 Y90.193 F1050.000 E16.77644
G1 X69.752 Y90.194 F4200.000
G1 X76.414 Y96.856 F1050.000 E17.06097
G1 X75.683 Y96.856 F4200.000
G1 X69.020 Y90.193 F1050.000 E17.34554
G1 X68.288 Y90.194 F4200.000
G1 X74.950 Y96.856 F1050.000 E17.63007
G1 X74.219 Y96.856 F4200.000
G1 X67.557 Y90.193 F1050.000 E17.91464
G1 X66.825 Y90.194 F4200.000
G1 X73.486 Y96.856 F1050.000 E18.19917
G1 X72.755 Y96.856 F4200.000
G1 X66.094 Y90.194 F1050.000 E18.48370
G1 X65.361 Y90.194 F4200.000
G1 X72.023 Y96.856 F1050.000 E18.76827
G1 X71.292 Y96.856 F4200.000
G1 X64.630 Y90.194 F1050.000 E19.05280
G1 X63.897 Y90.194 F4200.000
G1 X70.560 Y96.856 F1050.000 E19.33737
G1 X69.828 Y96.856 F4200.000
