; generated by Slic3r 0.7.3-dev on 2012-06-05 at 09:57:01

; layer_height = 0.4
; perimeters = 2
; solid_layers = 3
; fill_density = 0.15
; nozzle_diameter = 0.5
; filament_diameter = 3
; extrusion_multiplier = 1.02
; perimeter_speed = 30
; infill_speed = 40
; travel_speed = 70
; extrusion_width_ratio = 0
; scale = 1
; single wall width = 0.53mm

M104 S200 ; set temperature
M106
M104 S230
G28
M140 S60
G1 X205 Y105 F4000
M109 S230
G92 E0
G1 E5 F50
G1 X205 Y90 F2000
G90 ; use absolute coordinates
G21 ; set units to millimeters
G92 E0 ; reset extrusion distance
M82 ; use absolute distances for extrusion
G1 Z0.400 F4200.000
G1 X83.330 Y54.760
G1 F1800.000 E1.00000
G1 X83.490 Y54.550 F900.000 E1.00792
G1 X84.040 Y53.970 E1.03189
G1 X84.440 Y53.630 E1.04764
G1 X84.650 Y53.470 E1.05556
G1 X85.090 Y53.190 E1.07120
G1 X85.560 Y52.940 E1.08717
G1 X86.300 Y52.650 E1.11101
G1 X86.810 Y52.510 E1.12687
G1 X87.330 Y52.420 E1.14270
G1 X87.590 Y52.390 E1.15055
G1 X88.120 Y52.370 E1.16645
G1 X102.440 Y52.380 E1.59596
G1 X102.990 Y52.430 E1.61252
G1 X103.260 Y52.470 E1.62071
G1 X103.800 Y52.600 E1.63737
G1 X104.320 Y52.770 E1.65378
G1 X104.830 Y53.000 E1.67056
G1 X105.320 Y53.270 E1.68734
G1 X145.440 Y83.490 E3.19385
G1 X146.020 Y84.040 E3.21783
G1 X146.360 Y84.440 E3.23357
G1 X146.520 Y84.650 E3.24149
G1 X146.800 Y85.090 E3.25713
G1 X147.050 Y85.560 E3.27310
G1 X147.340 Y86.300 E3.29694
G1 X147.480 Y86.810 E3.31280
G1 X147.570 Y87.330 E3.32863
G1 X147.600 Y87.590 E3.33648
G1 X147.610 Y102.440 E3.78188
G1 X147.560 Y102.990 E3.79845
G1 X147.520 Y103.260 E3.80663
G1 X147.390 Y103.800 E3.82329
G1 X147.220 Y104.320 E3.83970
G1 X146.990 Y104.830 E3.85648
G1 X146.720 Y105.320 E3.87326
G1 X116.500 Y145.440 E5.37978
G1 X115.950 Y146.020 E5.40375
G1 X115.550 Y146.360 E5.41950
G1 X115.340 Y146.520 E5.42741
G1 X114.900 Y146.800 E5.44306
G1 X114.430 Y147.050 E5.45902
G1 X113.690 Y147.340 E5.48286
G1 X113.180 Y147.480 E5.49873
G1 X112.660 Y147.570 E5.51455
G1 X112.400 Y147.600 E5.52240
G1 X111.870 Y147.620 E5.53831
G1 X97.550 Y147.610 E5.96782
G1 X97.000 Y147.560 E5.98438
G1 X96.730 Y147.520 E5.99257
G1 X96.190 Y147.390 E6.00923
G1 X95.670 Y147.220 E6.02564
G1 X95.160 Y146.990 E6.04242
G1 X94.670 Y146.720 E6.05920
G1 X54.550 Y116.500 E7.56571
G1 X53.970 Y115.950 E7.58968
G1 X53.630 Y115.550 E7.60543
G1 X53.470 Y115.340 E7.61335
G1 X53.190 Y114.900 E7.62899
G1 X52.940 Y114.430 E7.64496
G1 X52.650 Y113.690 E7.66880
G1 X52.510 Y113.180 E7.68466
G1 X52.420 Y112.660 E7.70049
G1 X52.390 Y112.400 E7.70834
G1 X52.380 Y97.550 E8.15374
G1 X52.430 Y97.000 E8.17031
G1 X52.470 Y96.730 E8.17849
G1 X52.600 Y96.190 E8.19515
G1 X52.770 Y95.670 E8.21156
G1 X53.000 Y95.160 E8.22834
G1 X53.270 Y94.670 E8.24512
G1 X83.282 Y54.823 E9.74135
G1 F1800.000 E8.74135
G92 E0
G1 X97.805 Y90.080 F4200.000
G1 F1800.000 E1.00000
G1 X102.195 Y90.080 F900.000 E1.13164
G1 X104.389 Y93.881 E1.26329
G1 X102.437 Y97.262 E1.38039
G1 X103.102 Y97.746 E1.40506
G1 X103.835 Y100.000 E1.47615
G1 X103.102 Y102.254 E1.54724
G1 X101.185 Y103.647 E1.61832
G1 X98.815 Y103.647 E1.68941
G1 X96.898 Y102.254 E1.76049
G1 X96.165 Y100.000 E1.83158
G1 X96.898 Y97.746 E1.90266
G1 X97.563 Y97.262 E1.92734
G1 X95.611 Y93.881 E2.04444
G1 X97.766 Y90.148 E2.17372
G1 X98.103 Y90.595 F4200.000
G1 X101.897 Y90.595 F900.000 E2.28752
G1 X103.794 Y93.881 E2.40132
G1 X101.897 Y97.167 E2.51513
G1 X98.103 Y97.167 E2.62893
G1 X96.206 Y93.881 E2.74273
G1 X98.064 Y90.664 E2.85417
G1 F1800.000 E1.85417
G92 E0
G1 X98.982 Y96.868 F4200.000
G1 F1800.000 E1.00000
G1 X101.018 Y96.868 F900.000 E1.06104
G1 X102.664 Y98.064 E1.12209
G1 X103.293 Y100.000 E1.18313
G1 X102.664 Y101.936 E1.24418
G1 X101.018 Y103.132 E1.30522
G1 X98.982 Y103.132 E1.36627
G1 X97.336 Y101.936 E1.42731
G1 X96.707 Y100.000 E1.48835
G1 X97.336 Y98.064 E1.54940
G1 X98.919 Y96.914 E1.60808
G1 F1800.000 E0.60808
G92 E0
G1 X119.043 Y119.043 F4200.000
G1 F1800.000 E1.00000
G1 X121.418 Y118.407 F900.000 E1.07375
G1 X123.157 Y120.146 E1.14749
G1 X122.520 Y122.520 E1.22123
G1 X120.146 Y123.157 E1.29497
G1 X118.407 Y121.418 E1.36871
G1 X119.023 Y119.119 E1.44010
G1 F1800.000 E0.44010
G92 E0
G1 X128.161 Y102.129 F4200.000
G1 F1800.000 E1.00000
G1 X126.931 Y100.000 F900.000 E1.07374
G1 X128.161 Y97.871 E1.14749
G1 X130.620 Y97.871 E1.22123
G1 X131.849 Y100.000 E1.29498
G1 X130.620 Y102.129 E1.36872
G1 X128.240 Y102.129 E1.44010
G1 F1800.000 E0.44010
G92 E0
G1 X121.418 Y81.593 F4200.000
G1 F1800.000 E1.00000
G1 X119.043 Y80.957 F900.000 E1.07375
G1 X118.407 Y78.582 E1.14749
G1 X120.146 Y76.843 E1.22123
G1 X122.520 Y77.480 E1.29498
G1 X123.157 Y79.854 E1.36872
G1 X121.474 Y81.537 E1.44010
G1 F1800.000 E0.44010
G92 E0
G1 X102.644 Y72.137 F4200.000
G1 F1800.000 E1.00000
G1 X100.000 Y73.663 F900.000 E1.09159
G1 X97.356 Y72.137 E1.18317
G1 X97.356 Y69.083 E1.27476
G1 X100.000 Y67.556 E1.36635
G1 X102.644 Y69.083 E1.45793
G1 X102.644 Y72.058 E1.54716
G1 X102.129 Y71.839 F4200.000
G1 X100.000 Y73.069 F900.000 E1.62090
G1 X97.871 Y71.839 E1.69464
G1 X97.871 Y69.380 E1.76839
G1 X100.000 Y68.151 E1.84213
G1 X102.129 Y69.380 E1.91588
G1 X102.129 Y71.760 E1.98726
G1 F1800.000 E0.98726
G92 E0
G1 X81.593 Y78.582 F4200.000
G1 F1800.000 E1.00000
G1 X80.957 Y80.957 F900.000 E1.07375
G1 X78.582 Y81.593 E1.14749
G1 X76.843 Y79.854 E1.22123
G1 X77.480 Y77.480 E1.29498
G1 X79.854 Y76.843 E1.36872
G1 X81.537 Y78.526 E1.44010
G1 F1800.000 E0.44010
G92 E0
G1 X71.839 Y97.871 F4200.000
G1 F1800.000 E1.00000
G1 X73.069 Y100.000 F900.000 E1.07374
G1 X71.839 Y102.129 E1.14749
G1 X69.380 Y102.129 E1.22123
G1 X68.151 Y100.000 E1.29498
G1 X69.380 Y97.871 E1.36872
G1 X71.760 Y97.871 E1.44010
G1 F1800.000 E0.44010
G92 E0
G1 X78.582 Y118.407 F4200.000
G1 F1800.000 E1.00000
G1 X80.957 Y119.043 F900.000 E1.07375
G1 X81.593 Y121.418 E1.14749
G1 X79.854 Y123.157 E1.22123
G1 X77.480 Y122.520 E1.29498
G1 X76.843 Y120.146 E1.36872
G1 X78.526 Y118.463 E1.44010
G1 F1800.000 E0.44010
G92 E0
G1 X78.841 Y115.373 F4200.000
G1 F1800.000 E1.00000
G1 X76.107 Y110.638 F900.000 E1.16399
G1 X74.417 Y105.438 E1.32799
G1 X73.846 Y100.000 E1.49199
G1 X74.417 Y94.562 E1.65598
G1 X76.107 Y89.362 E1.81998
G1 X78.841 Y84.627 E1.98397
G1 X82.499 Y80.564 E2.14797
G1 X86.923 Y77.350 E2.31196
G1 X91.918 Y75.126 E2.47596
G1 X93.791 Y74.728 E2.53338
G1 X93.791 Y125.272 E4.04937
G1 X91.918 Y124.874 E4.10679
G1 X86.923 Y122.650 E4.27078
G1 X82.499 Y119.436 E4.43478
G1 X78.894 Y115.432 E4.59641
G1 F1800.000 E3.59641
G92 E0
G1 X106.209 Y125.272 F4200.000
G1 F1800.000 E1.00000
G1 X106.209 Y74.728 F900.000 E2.51599
G1 X108.082 Y75.126 E2.57341
G1 X113.077 Y77.350 E2.73741
G1 X117.501 Y80.564 E2.90140
G1 X121.159 Y84.627 E3.06539
G1 X123.893 Y89.362 E3.22939
G1 X125.583 Y94.562 E3.39339
G1 X126.154 Y100.000 E3.55738
G1 X125.583 Y105.438 E3.72138
G1 X123.893 Y110.638 E3.88537
G1 X121.159 Y115.373 E4.04937
G1 X117.501 Y119.436 E4.21336
G1 X113.077 Y122.650 E4.37735
G1 X108.082 Y124.874 E4.54135
G1 X106.287 Y125.256 E4.59641
G1 F1800.000 E3.59641
G92 E0
G1 X102.644 Y127.863 F4200.000
G1 F1800.000 E1.00000
G1 X102.644 Y130.917 F900.000 E1.09159
G1 X100.000 Y132.444 E1.18317
G1 X97.356 Y130.917 E1.27476
G1 X97.356 Y127.863 E1.36635
G1 X100.000 Y126.337 E1.45793
G1 X102.576 Y127.824 E1.54716
G1 X102.129 Y128.161 F4200.000
G1 X102.129 Y130.620 F900.000 E1.62090
G1 X100.000 Y131.849 E1.69465
G1 X97.871 Y130.620 E1.76839
G1 X97.871 Y128.161 E1.84213
G1 X100.000 Y126.931 E1.91588
G1 X102.061 Y128.121 E1.98726
G1 F1800.000 E0.98726
G92 E0
G1 X119.023 Y118.516 F4200.000
G1 F1800.000 E1.00000
G1 X121.578 Y115.678 F900.000 E1.11455
G1 X124.366 Y110.849 E1.28179
G1 X126.089 Y105.545 E1.44903
G1 X126.620 Y100.492 E1.60145
G1 X127.863 Y102.644 E1.67600
G1 X130.917 Y102.644 E1.76759
G1 X132.444 Y100.000 E1.85918
G1 X130.917 Y97.356 E1.95076
G1 X127.863 Y97.356 E2.04235
G1 X126.620 Y99.508 E2.11691
G1 X126.089 Y94.455 E2.26932
G1 X124.366 Y89.151 E2.43657
G1 X121.578 Y84.322 E2.60381
G1 X119.023 Y81.484 E2.71836
G1 X121.572 Y82.167 E2.79752
G1 X123.731 Y80.008 E2.88911
G1 X123.207 Y78.052 E2.94985
G1 X125.976 Y81.127 E3.07396
G1 X129.332 Y86.940 E3.27529
G1 X129.885 Y88.643 E3.32897
G1 X141.113 Y88.643 E3.66571
G1 X141.113 Y91.941 E3.76465
G1 X130.957 Y91.941 E4.06923
G1 X131.407 Y93.324 E4.11285
G1 X131.935 Y98.351 E4.26444
G1 X141.113 Y98.351 E4.53971
G1 X141.113 Y101.649 E4.63864
G1 X131.935 Y101.649 E4.91391
G1 X131.407 Y106.676 E5.06550
G1 X129.332 Y113.060 E5.26683
G1 X125.976 Y118.873 E5.46816
G1 X123.207 Y121.948 E5.59227
G1 X123.731 Y119.992 E5.65301
G1 X121.572 Y117.833 E5.74459
G1 X119.099 Y118.495 E5.82140
G1 F1800.000 E4.82140
G92 E0
G1 X80.977 Y118.516 F4200.000
G1 F1800.000 E1.00000
G1 X78.428 Y117.833 F900.000 E1.07917
G1 X76.269 Y119.992 E1.17075
G1 X76.793 Y121.948 E1.23149
G1 X74.024 Y118.873 E1.35560
G1 X70.668 Y113.060 E1.55693
G1 X70.115 Y111.357 E1.61061
G1 X58.887 Y111.357 E1.94735
G1 X58.887 Y108.059 E2.04629
G1 X69.043 Y108.059 E2.35088
G1 X68.593 Y106.676 E2.39449
G1 X68.065 Y101.649 E2.54608
G1 X58.887 Y101.649 E2.82135
G1 X58.887 Y98.351 E2.92029
G1 X68.065 Y98.351 E3.19556
G1 X68.593 Y93.324 E3.34714
G1 X70.668 Y86.940 E3.54847
G1 X74.024 Y81.127 E3.74980
G1 X76.793 Y78.052 E3.87391
G1 X76.269 Y80.008 E3.93465
G1 X78.428 Y82.167 E4.02623
G1 X80.977 Y81.484 E4.10540
G1 X78.422 Y84.322 E4.21995
G1 X75.634 Y89.151 E4.38719
G1 X73.911 Y94.455 E4.55443
G1 X73.380 Y99.508 E4.70685
G1 X72.137 Y97.356 E4.78141
G1 X69.083 Y97.356 E4.87299
G1 X67.556 Y100.000 E4.96458
G1 X69.083 Y102.644 E5.05617
G1 X72.137 Y102.644 E5.14775
G1 X73.380 Y100.492 E5.22231
G1 X73.911 Y105.545 E5.37473
G1 X75.634 Y110.849 E5.54197
G1 X78.422 Y115.678 E5.70921
G1 X80.925 Y118.457 E5.82140
G1 X81.506 Y119.103 F4200.000
G1 X82.153 Y119.821 F900.000 E5.85040
G1 X86.664 Y123.099 E6.01764
G1 X91.758 Y125.367 E6.18489
G1 X94.306 Y125.908 E6.26301
G1 X94.306 Y74.092 E7.81717
G1 X91.758 Y74.633 E7.89529
G1 X86.664 Y76.901 E8.06254
G1 X82.153 Y80.179 E8.22978
G1 X81.506 Y80.897 E8.25878
G1 X82.167 Y78.428 E8.33547
G1 X80.008 Y76.269 E8.42706
G1 X77.887 Y76.837 E8.49293
G1 X78.515 Y76.139 E8.52110
G1 X83.946 Y72.194 E8.72243
G1 X88.643 Y70.102 E8.87664
G1 X88.643 Y58.887 E9.21301
G1 X91.941 Y58.887 E9.31195
G1 X91.941 Y69.067 E9.61727
G1 X96.644 Y68.068 E9.76147
G1 X98.351 Y68.068 E9.81266
G1 X98.351 Y58.887 E10.08801
G1 X101.649 Y58.887 E10.18695
G1 X101.649 Y68.068 E10.46229
G1 X103.356 Y68.068 E10.51349
G1 X109.922 Y69.463 E10.71482
G1 X116.054 Y72.194 E10.91615
G1 X121.485 Y76.139 E11.11747
G1 X122.113 Y76.837 E11.14565
G1 X119.992 Y76.269 E11.21152
G1 X117.833 Y78.428 E11.30311
G1 X118.494 Y80.897 E11.37979
G1 X117.847 Y80.179 E11.40880
G1 X113.336 Y76.901 E11.57604
G1 X108.242 Y74.633 E11.74329
G1 X105.694 Y74.092 E11.82141
G1 X105.694 Y125.908 E13.37557
G1 X108.242 Y125.367 E13.45369
G1 X113.336 Y123.099 E13.62094
G1 X117.847 Y119.821 E13.78818
G1 X118.494 Y119.103 E13.81718
G1 X117.833 Y121.572 E13.89387
G1 X119.992 Y123.731 E13.98545
G1 X122.113 Y123.163 E14.05133
G1 X121.485 Y123.861 E14.07950
G1 X116.054 Y127.806 E14.28083
G1 X111.357 Y129.898 E14.43504
G1 X111.357 Y141.113 E14.77141
G1 X108.059 Y141.113 E14.87034
G1 X108.059 Y130.933 E15.17567
G1 X103.356 Y131.932 E15.31987
G1 X101.649 Y131.932 E15.37106
G1 X101.649 Y141.113 E15.64641
G1 X98.351 Y141.113 E15.74534
G1 X98.351 Y131.932 E16.02069
G1 X96.644 Y131.932 E16.07189
G1 X90.078 Y130.537 E16.27321
G1 X83.946 Y127.806 E16.47455
G1 X78.515 Y123.861 E16.67587
G1 X77.887 Y123.163 E16.70405
G1 X80.008 Y123.731 E16.76992
G1 X82.167 Y121.572 E16.86150
G1 X81.526 Y119.179 E16.93583
G1 F1800.000 E15.93583
G92 E0
G1 X78.169 Y124.246 F4200.000
G1 F1800.000 E1.00000
G1 X73.605 Y119.177 F900.000 E1.20458
G1 X70.194 Y113.270 E1.40916
G1 X69.740 Y111.873 E1.45324
G1 X58.372 Y111.873 E1.79420
G1 X58.372 Y107.543 E1.92404
G1 X68.334 Y107.543 E2.22282
G1 X68.087 Y106.783 E2.24679
G1 X67.601 Y102.165 E2.38609
G1 X58.372 Y102.165 E2.66290
G1 X58.372 Y97.835 E2.79274
G1 X67.601 Y97.835 E3.06955
G1 X68.087 Y93.217 E3.20885
G1 X70.194 Y86.730 E3.41342
G1 X73.605 Y80.823 E3.61800
G1 X78.169 Y75.754 E3.82258
G1 X83.687 Y71.745 E4.02716
G1 X88.127 Y69.768 E4.17295
G1 X88.127 Y58.372 E4.51474
G1 X92.457 Y58.372 E4.64458
G1 X92.457 Y68.431 E4.94628
G1 X96.590 Y67.552 E5.07301
G1 X97.835 Y67.552 E5.11038
G1 X97.835 Y58.372 E5.38573
G1 X102.165 Y58.372 E5.51557
G1 X102.165 Y67.552 E5.79091
G1 X103.410 Y67.552 E5.82828
G1 X110.082 Y68.971 E6.03286
G1 X116.313 Y71.745 E6.23744
G1 X121.831 Y75.754 E6.44201
G1 X126.395 Y80.823 E6.64659
G1 X129.806 Y86.730 E6.85117
G1 X130.260 Y88.127 E6.89525
G1 X141.628 Y88.127 E7.23622
G1 X141.628 Y92.457 E7.36606
G1 X131.666 Y92.457 E7.66483
G1 X131.913 Y93.217 E7.68880
G1 X132.399 Y97.835 E7.82810
G1 X141.628 Y97.835 E8.10491
G1 X141.628 Y102.165 E8.23475
G1 X132.399 Y102.165 E8.51156
G1 X131.913 Y106.783 E8.65086
G1 X129.806 Y113.270 E8.85544
G1 X126.395 Y119.177 E9.06001
G1 X121.831 Y124.246 E9.26459
G1 X116.313 Y128.255 E9.46917
G1 X111.873 Y130.232 E9.61496
G1 X111.873 Y141.628 E9.95675
G1 X107.543 Y141.628 E10.08659
G1 X107.543 Y131.569 E10.38829
G1 X103.410 Y132.447 E10.51503
G1 X102.165 Y132.447 E10.55239
G1 X102.165 Y141.628 E10.82774
G1 X97.835 Y141.628 E10.95758
G1 X97.835 Y132.447 E11.23293
G1 X96.590 Y132.447 E11.27030
G1 X89.918 Y131.029 E11.47487
G1 X83.687 Y128.255 E11.67945
G1 X78.233 Y124.292 E11.88166
G1 F1800.000 E10.88166
G92 E0
G1 X98.717 Y132.469 F4200.000
G1 F1800.000 E1.00000
G1 X101.282 Y135.033 F1050.000 E1.11653
G1 X101.283 Y134.272 F4200.000
G1 X99.883 Y132.872 F1050.000 E1.18015
G1 X100.366 Y132.593 F4200.000
G1 X101.283 Y133.510 F1050.000 E1.22179
G1 X101.283 Y132.747 F4200.000
G1 X100.849 Y132.314 F1050.000 E1.24148
G1 X98.717 Y133.230 F4200.000
G1 X101.283 Y135.795 F1050.000 E1.35804
G1 X101.283 Y136.557 F4200.000
G1 X98.717 Y133.992 F1050.000 E1.47461
G1 X98.717 Y134.754 F4200.000
G1 X101.283 Y137.319 F1050.000 E1.59117
G1 X101.282 Y138.081 F4200.000
G1 X98.717 Y135.516 F1050.000 E1.70770
G1 X98.717 Y136.277 F4200.000
G1 X101.283 Y138.843 F1050.000 E1.82427
G1 X101.283 Y139.605 F4200.000
G1 X98.717 Y137.039 F1050.000 E1.94083
G1 X98.717 Y137.802 F4200.000
G1 X101.283 Y140.367 F1050.000 E2.05740
G1 X100.900 Y140.745 F4200.000
G1 X98.717 Y138.563 F1050.000 E2.15658
G1 X98.717 Y139.325 F4200.000
G1 X100.138 Y140.745 F1050.000 E2.22112
G1 X99.376 Y140.746 F4200.000
G1 X98.717 Y140.087 F1050.000 E2.25107
G1 X96.460 Y131.484 F4200.000
G1 X90.075 Y125.099 F1050.000 E2.52690
G1 X88.746 Y124.507 F4200.000
G1 X95.523 Y131.284 F1050.000 E2.81969
G1 X94.588 Y131.086 F4200.000
G1 X87.418 Y123.916 F1050.000 E3.12946
G1 X85.916 Y123.152 F4200.000
G1 X93.651 Y130.887 F1050.000 E3.46364
G1 X92.715 Y130.688 F4200.000
G1 X83.220 Y121.193 F1050.000 E3.87384
G1 X82.494 Y121.203 F4200.000
G1 X91.779 Y130.488 F1050.000 E4.27498
G1 X90.843 Y130.289 F4200.000
G1 X82.363 Y121.809 F1050.000 E4.64136
G1 X81.994 Y122.178 F4200.000
G1 X89.705 Y129.889 F1050.000 E4.97451
G1 X88.376 Y129.297 F4200.000
G1 X81.625 Y122.547 F1050.000 E5.26617
G1 X81.257 Y122.915 F4200.000
G1 X87.047 Y128.705 F1050.000 E5.51634
G1 X85.718 Y128.114 F4200.000
G1 X80.888 Y123.284 F1050.000 E5.72502
G1 X80.519 Y123.653 F4200.000
G1 X84.389 Y127.522 F1050.000 E5.89219
G1 X81.730 Y125.600 F4200.000
G1 X80.151 Y124.021 F1050.000 E5.96041
G1 F1800.000 E4.96041
G92 E0
G1 X91.405 Y125.691 F4200.000
G1 F1800.000 E1.00000
G1 X96.989 Y131.275 F1050.000 E1.24125
G1 X96.989 Y130.538 F4200.000
G1 X92.354 Y125.903 F1050.000 E1.44150
G1 X93.290 Y126.103 F4200.000
G1 X96.988 Y129.801 F1050.000 E1.60128
G1 X96.989 Y129.063 F4200.000
G1 X94.227 Y126.301 F1050.000 E1.72061
G1 X94.672 Y126.009 F4200.000
G1 X96.989 Y128.326 F1050.000 E1.82072
G1 X97.068 Y127.669 F4200.000
G1 X94.672 Y125.272 F1050.000 E1.92425
G1 X94.673 Y124.535 F4200.000
G1 X97.536 Y127.398 F1050.000 E2.04794
G1 X98.003 Y127.129 F4200.000
G1 X94.673 Y123.798 F1050.000 E2.19183
G1 X94.672 Y123.061 F4200.000
G1 X98.471 Y126.859 F1050.000 E2.35595
G1 X98.939 Y126.589 F4200.000
G1 X94.673 Y122.323 F1050.000 E2.54025
G1 X94.673 Y121.586 F4200.000
