; generated by Slic3r 0.7.3-dev on 2012-06-05 at 13:25:49

; layer_height = 0.4
; perimeters = 2
; solid_layers = 3
; fill_density = 0.15
; nozzle_diameter = 0.5
; filament_diameter = 3
; extrusion_multiplier = 1.02
; perimeter_speed = 30
; infill_speed = 40
; travel_speed = 70
; extrusion_width_ratio = 0
; scale = 1
; single wall width = 0.53mm

M104 S200 ; set temperature
M106
M104 S230
G28
M140 S60
G1 X205 Y105 F4000
M109 S230
G92 E0
G1 E5 F50
G1 X205 Y90 F2000
G90 ; use absolute coordinates
G21 ; set units to millimeters
G92 E0 ; reset extrusion distance
M82 ; use absolute distances for extrusion
G1 Z0.400 F4200.000
G1 X63.750 Y88.310
G1 F1800.000 E1.00000
G1 X66.350 Y87.260 F900.000 E1.08410
G1 X101.450 Y76.770 E2.18288
G1 X101.740 Y76.720 E2.19171
G1 X102.610 Y76.660 E2.21786
G1 X137.790 Y76.680 E3.27303
G1 X138.540 Y76.790 E3.29577
G1 X139.040 Y76.920 E3.31126
G1 X139.520 Y77.090 E3.32654
G1 X139.980 Y77.300 E3.34170
G1 X140.210 Y77.420 E3.34948
G1 X140.430 Y77.550 E3.35715
G1 X141.050 Y77.990 E3.37995
G1 X141.430 Y78.330 E3.39525
G1 X141.610 Y78.510 E3.40288
G1 X141.950 Y78.890 E3.41817
G1 X142.390 Y79.510 E3.44098
G1 X142.520 Y79.730 E3.44864
G1 X142.750 Y80.190 E3.46407
G1 X142.940 Y80.660 E3.47927
G1 X143.090 Y81.150 E3.49464
G1 X143.150 Y81.400 E3.50235
G1 X143.260 Y82.150 E3.52509
G1 X143.260 Y117.840 E4.59556
G1 X143.150 Y118.590 E4.61829
G1 X143.020 Y119.090 E4.63379
G1 X142.850 Y119.570 E4.64906
G1 X142.640 Y120.030 E4.66423
G1 X142.520 Y120.260 E4.67201
G1 X142.390 Y120.480 E4.67967
G1 X141.950 Y121.100 E4.70247
G1 X141.610 Y121.480 E4.71777
G1 X141.430 Y121.660 E4.72540
G1 X141.050 Y122.000 E4.74070
G1 X140.430 Y122.440 E4.76350
G1 X140.210 Y122.570 E4.77116
G1 X139.750 Y122.800 E4.78659
G1 X139.280 Y122.990 E4.80180
G1 X138.790 Y123.140 E4.81717
G1 X138.540 Y123.200 E4.82488
G1 X137.790 Y123.310 E4.84761
G1 X137.280 Y123.330 E4.86292
G1 X102.320 Y123.320 E5.91149
G1 X101.740 Y123.270 E5.92895
G1 X101.450 Y123.220 E5.93778
G1 X66.350 Y112.730 E7.03656
G1 X63.750 Y111.680 E7.12066
G1 X63.200 Y111.380 E7.13945
G1 X62.930 Y111.210 E7.14902
G1 X60.930 Y109.670 E7.22473
G1 X60.480 Y109.240 E7.24340
G1 X60.270 Y109.010 E7.25274
G1 X58.730 Y107.010 E7.32845
G1 X58.560 Y106.740 E7.33802
G1 X58.260 Y106.190 E7.35681
G1 X57.300 Y103.870 E7.43212
G1 X57.130 Y103.280 E7.45053
G1 X57.060 Y102.970 E7.46006
G1 X56.730 Y100.480 E7.53540
G1 X56.710 Y100.160 E7.54502
G1 X56.710 Y99.840 E7.55462
G1 X56.760 Y99.210 E7.57357
G1 X57.060 Y97.020 E7.63987
G1 X57.210 Y96.410 E7.65871
G1 X57.300 Y96.120 E7.66782
G1 X58.260 Y93.800 E7.74313
G1 X58.400 Y93.520 E7.75251
G1 X58.910 Y92.730 E7.78072
G1 X60.250 Y91.000 E7.84635
G1 X60.460 Y90.760 E7.85592
G1 X60.920 Y90.330 E7.87480
G1 X62.670 Y88.970 E7.94128
G1 X63.190 Y88.610 E7.96025
G1 X63.681 Y88.347 E7.97694
G1 F1800.000 E6.97694
G92 E0
G1 X64.516 Y96.716 F4200.000
G1 F1800.000 E1.00000
G1 X67.984 Y96.716 F900.000 E1.10404
G1 X67.984 Y97.560 E1.12936
G1 X68.933 Y96.871 E1.16454
G1 X70.967 Y96.871 E1.22553
G1 X72.612 Y98.066 E1.28653
G1 X73.241 Y100.000 E1.34753
G1 X72.612 Y101.934 E1.40852
G1 X70.967 Y103.129 E1.46952
G1 X68.933 Y103.129 E1.53051
G1 X67.984 Y102.440 E1.56569
G1 X67.984 Y103.284 E1.59101
G1 X64.516 Y103.284 E1.69505
G1 X64.516 Y96.794 E1.88971
G1 F1800.000 E0.88971
G92 E0
G1 X129.896 Y87.000 F4200.000
G1 F1800.000 E1.00000
G1 X131.423 Y84.356 F900.000 E1.09159
G1 X134.477 Y84.356 E1.18317
G1 X136.004 Y87.000 E1.27476
G1 X134.477 Y89.644 E1.36635
G1 X131.423 Y89.644 E1.45793
G1 X129.936 Y87.068 E1.54716
G1 X130.491 Y87.000 F4200.000
G1 X131.721 Y84.871 F900.000 E1.62090
G1 X134.179 Y84.871 E1.69464
G1 X135.409 Y87.000 E1.76839
G1 X134.179 Y89.129 E1.84213
G1 X131.721 Y89.129 E1.91588
G1 X130.531 Y87.068 E1.98726
G1 F1800.000 E0.98726
G92 E0
G1 X110.004 Y87.000 F4200.000
G1 F1800.000 E1.00000
G1 X108.477 Y89.644 F900.000 E1.09159
G1 X105.423 Y89.644 E1.18317
G1 X103.896 Y87.000 E1.27476
G1 X105.423 Y84.356 E1.36635
G1 X108.477 Y84.356 E1.45793
G1 X109.964 Y86.932 E1.54716
G1 X109.409 Y87.000 F4200.000
G1 X108.179 Y89.129 F900.000 E1.62090
G1 X105.721 Y89.129 E1.69464
G1 X104.491 Y87.000 E1.76839
G1 X105.721 Y84.871 E1.84213
G1 X108.179 Y84.871 E1.91588
G1 X109.369 Y86.932 E1.98726
G1 F1800.000 E0.98726
G92 E0
G1 X108.477 Y110.356 F4200.000
G1 F1800.000 E1.00000
G1 X110.004 Y113.000 F900.000 E1.09159
G1 X108.477 Y115.644 E1.18318
G1 X105.423 Y115.644 E1.27476
G1 X103.896 Y113.000 E1.36635
G1 X105.423 Y110.356 E1.45794
G1 X108.398 Y110.356 E1.54716
G1 X108.179 Y110.871 F4200.000
G1 X109.409 Y113.000 F900.000 E1.62090
G1 X108.179 Y115.129 E1.69465
G1 X105.721 Y115.129 E1.76839
G1 X104.491 Y113.000 E1.84213
G1 X105.721 Y110.871 E1.91588
G1 X108.101 Y110.871 E1.98726
G1 F1800.000 E0.98726
G92 E0
G1 X110.951 Y107.798 F4200.000
G1 F1800.000 E1.00000
G1 X109.932 Y106.438 F900.000 E1.05096
G1 X109.118 Y104.947 E1.10192
G1 X108.525 Y103.355 E1.15287
G1 X108.163 Y101.695 E1.20383
G1 X108.042 Y100.000 E1.25479
G1 X108.163 Y98.305 E1.30575
G1 X108.525 Y96.645 E1.35671
G1 X109.118 Y95.053 E1.40766
G1 X109.932 Y93.562 E1.45862
G1 X110.951 Y92.202 E1.50958
G1 X112.152 Y91.001 E1.56054
G1 X113.512 Y89.983 E1.61150
G1 X115.003 Y89.168 E1.66246
G1 X116.595 Y88.575 E1.71342
G1 X118.255 Y88.213 E1.76437
G1 X119.950 Y88.092 E1.81533
G1 X121.645 Y88.213 E1.86629
G1 X123.305 Y88.575 E1.91725
G1 X124.897 Y89.168 E1.96821
G1 X126.388 Y89.983 E2.01916
G1 X127.748 Y91.001 E2.07012
G1 X128.949 Y92.202 E2.12108
G1 X129.968 Y93.562 E2.17204
G1 X130.782 Y95.053 E2.22300
G1 X131.375 Y96.645 E2.27396
G1 X131.737 Y98.305 E2.32491
G1 X131.858 Y100.000 E2.37587
G1 X131.737 Y101.695 E2.42683
G1 X131.375 Y103.355 E2.47779
G1 X130.782 Y104.947 E2.52875
G1 X129.968 Y106.438 E2.57970
G1 X128.949 Y107.798 E2.63066
G1 X127.748 Y108.999 E2.68162
G1 X126.388 Y110.017 E2.73258
G1 X124.897 Y110.832 E2.78354
G1 X123.305 Y111.425 E2.83450
G1 X121.645 Y111.787 E2.88545
G1 X119.950 Y111.908 E2.93641
G1 X118.255 Y111.787 E2.98737
G1 X116.595 Y111.425 E3.03833
G1 X115.003 Y110.832 E3.08929
G1 X113.512 Y110.017 E3.14025
G1 X112.152 Y108.999 E3.19121
G1 X111.006 Y107.854 E3.23980
G1 X111.341 Y107.460 F4200.000
G1 X110.367 Y106.159 F900.000 E3.28855
G1 X109.588 Y104.732 E3.33730
G1 X109.020 Y103.209 E3.38604
G1 X108.675 Y101.621 E3.43479
G1 X108.559 Y100.000 E3.48354
G1 X108.675 Y98.379 E3.53229
G1 X109.020 Y96.791 E3.58104
G1 X109.588 Y95.268 E3.62978
G1 X110.367 Y93.841 E3.67853
G1 X111.341 Y92.540 E3.72728
G1 X112.490 Y91.391 E3.77603
G1 X113.791 Y90.417 E3.82478
G1 X115.218 Y89.638 E3.87352
G1 X116.741 Y89.070 E3.92227
G1 X118.329 Y88.725 E3.97102
G1 X119.950 Y88.609 E4.01977
G1 X121.571 Y88.725 E4.06852
G1 X123.159 Y89.070 E4.11726
G1 X124.682 Y89.638 E4.16601
G1 X126.109 Y90.417 E4.21476
G1 X127.410 Y91.391 E4.26351
G1 X128.559 Y92.540 E4.31226
G1 X129.533 Y93.841 E4.36100
G1 X130.312 Y95.268 E4.40975
G1 X130.880 Y96.791 E4.45850
G1 X131.225 Y98.379 E4.50725
G1 X131.341 Y100.000 E4.55600
G1 X131.225 Y101.621 E4.60474
G1 X130.880 Y103.209 E4.65349
G1 X130.312 Y104.732 E4.70224
G1 X129.533 Y106.159 E4.75099
G1 X128.559 Y107.460 E4.79973
G1 X127.410 Y108.609 E4.84848
G1 X126.109 Y109.583 E4.89723
G1 X124.682 Y110.362 E4.94598
G1 X123.159 Y110.930 E4.99473
G1 X121.571 Y111.275 E5.04348
G1 X119.950 Y111.391 E5.09222
G1 X118.329 Y111.275 E5.14097
G1 X116.741 Y110.930 E5.18972
G1 X115.218 Y110.362 E5.23847
G1 X113.791 Y109.583 E5.28721
G1 X112.490 Y108.609 E5.33596
G1 X111.397 Y107.515 E5.38235
G1 F1800.000 E4.38235
G92 E0
G1 X129.896 Y113.000 F4200.000
G1 F1800.000 E1.00000
G1 X131.423 Y110.356 F900.000 E1.09159
G1 X134.477 Y110.356 E1.18317
G1 X136.004 Y113.000 E1.27476
G1 X134.477 Y115.644 E1.36635
G1 X131.423 Y115.644 E1.45793
G1 X129.936 Y113.068 E1.54716
G1 X130.491 Y113.000 F4200.000
G1 X131.721 Y110.871 F900.000 E1.62090
G1 X134.179 Y110.871 E1.69464
G1 X135.409 Y113.000 E1.76839
G1 X134.179 Y115.129 E1.84213
G1 X131.721 Y115.129 E1.91588
G1 X130.531 Y113.068 E1.98726
G1 F1800.000 E0.98726
G92 E0
G1 X64.000 Y103.035 F4200.000
G1 F1800.000 E1.00000
G1 X63.463 Y101.738 F900.000 E1.04211
G1 X63.234 Y100.000 E1.09469
G1 X63.463 Y98.262 E1.14727
G1 X64.000 Y96.965 E1.18938
G1 X64.000 Y102.956 E1.36908
G1 X64.473 Y103.800 F4200.000
G1 X68.500 Y103.800 F900.000 E1.48985
G1 X68.500 Y103.451 E1.50030
G1 X68.766 Y103.645 E1.51017
G1 X71.134 Y103.645 E1.58120
G1 X73.050 Y102.253 E1.65224
G1 X73.782 Y100.000 E1.72328
G1 X73.050 Y97.747 E1.79432
G1 X71.134 Y96.355 E1.86536
G1 X68.766 Y96.355 E1.93639
G1 X68.500 Y96.549 E1.94626
G1 X68.500 Y96.200 E1.95671
G1 X64.473 Y96.200 E2.07748
G1 X65.191 Y95.265 E2.11283
G1 X66.593 Y94.184 E2.16595
G1 X68.212 Y93.513 E2.21851
G1 X70.001 Y93.278 E2.27263
G1 X103.128 Y93.278 E3.26621
G1 X103.128 Y83.178 E3.56915
G1 X136.772 Y83.178 E4.57826
G1 X136.772 Y116.822 E5.58738
G1 X103.128 Y116.822 E6.59650
G1 X103.128 Y106.722 E6.89943
G1 X70.001 Y106.722 E7.89302
G1 X68.212 Y106.487 E7.94714
G1 X66.592 Y105.816 E7.99972
G1 X65.201 Y104.749 E8.05231
G1 X64.521 Y103.862 E8.08583
G1 X63.684 Y103.618 F4200.000
G1 X62.961 Y101.873 F900.000 E8.14248
G1 X62.715 Y100.000 E8.19913
G1 X62.961 Y98.127 E8.25578
G1 X63.684 Y96.382 E8.31243
G1 X64.823 Y94.898 E8.36853
G1 X66.333 Y93.734 E8.42572
G1 X68.077 Y93.011 E8.48236
G1 X69.967 Y92.763 E8.53953
G1 X102.613 Y92.763 E9.51868
G1 X102.613 Y82.663 E9.82161
G1 X137.287 Y82.663 E10.86163
G1 X137.287 Y117.338 E11.90166
G1 X102.613 Y117.338 E12.94168
G1 X102.613 Y107.238 E13.24461
G1 X69.967 Y107.238 E14.22376
G1 X68.077 Y106.989 E14.28093
G1 X66.332 Y106.266 E14.33758
G1 X64.834 Y105.116 E14.39423
G1 X63.732 Y103.680 E14.44852
G1 X65.829 Y104.166 F4200.000
G1 X67.302 Y105.640 F1050.000 E14.51125
G1 X68.532 Y106.138 F4200.000
G1 X66.560 Y104.166 F1050.000 E14.59522
G1 X67.290 Y104.166 F4200.000
G1 X69.372 Y106.249 F1050.000 E14.68391
G1 X70.210 Y106.355 F4200.000
G1 X68.020 Y104.166 F1050.000 E14.77714
G1 X68.751 Y104.166 F4200.000
G1 X70.940 Y106.356 F1050.000 E14.87038
G1 X71.671 Y106.355 F4200.000
G1 X69.326 Y104.011 F1050.000 E14.97021
G1 X70.057 Y104.011 F4200.000
G1 X72.401 Y106.356 F1050.000 E15.07003
G1 X73.132 Y106.355 F4200.000
G1 X70.787 Y104.011 F1050.000 E15.16986
G1 X71.364 Y103.858 F4200.000
G1 X73.862 Y106.356 F1050.000 E15.27622
G1 X74.592 Y106.355 F4200.000
G1 X71.787 Y103.550 F1050.000 E15.39567
G1 X72.210 Y103.243 F4200.000
G1 X75.323 Y106.356 F1050.000 E15.52820
G1 X76.053 Y106.355 F4200.000
G1 X72.634 Y102.936 F1050.000 E15.67383
G1 X73.056 Y102.629 F4200.000
G1 X76.783 Y106.356 F1050.000 E15.83254
G1 X77.514 Y106.355 F4200.000
G1 X73.399 Y102.241 F1050.000 E16.00776
G1 X73.578 Y101.690 F4200.000
G1 X78.244 Y106.356 F1050.000 E16.20646
G1 X78.974 Y106.356 F4200.000
G1 X73.757 Y101.139 F1050.000 E16.42863
G1 X73.936 Y100.587 F4200.000
G1 X79.705 Y106.356 F1050.000 E16.67428
G1 X80.435 Y106.356 F4200.000
G1 X74.115 Y100.036 F1050.000 E16.94340
G1 X73.941 Y99.131 F4200.000
G1 X81.166 Y106.356 F1050.000 E17.25105
G1 X81.896 Y106.356 F4200.000
G1 X73.589 Y98.049 F1050.000 E17.60477
G1 X71.740 Y96.199 F4200.000
G1 X69.266 Y93.726 F1050.000 E17.71009
G1 X68.621 Y93.811 F4200.000
G1 X70.799 Y95.989 F1050.000 E17.80283
G1 X70.068 Y95.989 F4200.000
G1 X68.020 Y93.941 F1050.000 E17.89005
G1 X67.504 Y94.154 F4200.000
G1 X69.338 Y95.989 F1050.000 E17.96817
G1 X68.452 Y95.834 F4200.000
G1 X66.987 Y94.369 F1050.000 E18.03058
G1 X66.518 Y94.629 F4200.000
G1 X67.722 Y95.834 F1050.000 E18.08187
G1 X66.992 Y95.833 F4200.000
G1 X66.106 Y94.947 F1050.000 E18.11962
G1 X65.693 Y95.265 F4200.000
G1 X66.262 Y95.834 F1050.000 E18.14383
G1 X69.916 Y93.644 F4200.000
G1 X82.627 Y106.356 F1050.000 E18.68512
G1 X83.357 Y106.356 F4200.000
G1 X70.646 Y93.645 F1050.000 E19.22640
G1 X71.376 Y93.644 F4200.000
G1 X84.088 Y106.356 F1050.000 E19.76769
G1 X84.818 Y106.356 F4200.000
G1 X72.106 Y93.645 F1050.000 E20.30898
G1 X72.837 Y93.644 F4200.000
G1 X85.549 Y106.356 F1050.000 E20.85027
G1 X86.279 Y106.356 F4200.000
G1 X73.567 Y93.645 F1050.000 E21.39156
G1 X74.298 Y93.644 F4200.000
G1 X87.009 Y106.355 F1050.000 E21.93286
G1 X87.739 Y106.356 F4200.000
G1 X75.028 Y93.645 F1050.000 E22.47415
G1 X75.759 Y93.644 F4200.000
G1 X88.470 Y106.355 F1050.000 E23.01544
G1 X89.200 Y106.356 F4200.000
G1 X76.489 Y93.645 F1050.000 E23.55673
G1 X77.220 Y93.644 F4200.000
G1 X89.931 Y106.355 F1050.000 E24.09801
G1 X90.661 Y106.356 F4200.000
G1 X77.950 Y93.644 F1050.000 E24.63930
G1 X78.681 Y93.644 F4200.000
G1 X91.392 Y106.355 F1050.000 E25.18059
G1 X92.122 Y106.356 F4200.000
G1 X79.411 Y93.644 F1050.000 E25.72188
G1 X80.141 Y93.644 F4200.000
G1 X92.853 Y106.355 F1050.000 E26.26317
G1 X93.583 Y106.356 F4200.000
G1 X80.872 Y93.644 F1050.000 E26.80446
G1 X81.602 Y93.644 F4200.000
G1 X94.314 Y106.355 F1050.000 E27.34575
G1 X95.044 Y106.356 F4200.000
G1 X82.332 Y93.644 F1050.000 E27.88704
G1 X83.063 Y93.644 F4200.000
G1 X95.774 Y106.355 F1050.000 E28.42833
G1 X96.505 Y106.356 F4200.000
G1 X83.793 Y93.644 F1050.000 E28.96962
G1 X84.523 Y93.645 F4200.000
G1 X97.235 Y106.356 F1050.000 E29.51091
G1 X97.965 Y106.356 F4200.000
G1 X85.254 Y93.644 F1050.000 E30.05220
G1 X85.984 Y93.645 F4200.000
G1 X98.695 Y106.356 F1050.000 E30.59349
G1 X99.426 Y106.356 F4200.000
G1 X86.715 Y93.644 F1050.000 E31.13478
G1 X87.445 Y93.645 F4200.000
G1 X100.156 Y106.356 F1050.000 E31.67607
G1 X100.887 Y106.356 F4200.000
G1 X88.176 Y93.644 F1050.000 E32.21736
G1 X88.906 Y93.645 F4200.000
G1 X101.617 Y106.356 F1050.000 E32.75865
G1 X102.348 Y106.356 F4200.000
G1 X89.637 Y93.644 F1050.000 E33.29994
G1 X90.367 Y93.645 F4200.000
G1 X103.078 Y106.356 F1050.000 E33.84123
G1 X103.494 Y106.772 F4200.000
G1 X106.711 Y109.989 F1050.000 E33.97822
G1 X105.981 Y109.989 F4200.000
G1 X103.494 Y107.502 F1050.000 E34.08412
G1 X103.494 Y108.233 F4200.000
G1 X105.265 Y110.004 F1050.000 E34.15955
G1 X104.998 Y110.467 F4200.000
G1 X103.494 Y108.963 F1050.000 E34.22359
G1 X103.494 Y109.694 F4200.000
G1 X104.731 Y110.930 F1050.000 E34.27625
G1 X104.464 Y111.393 F4200.000
G1 X103.494 Y110.424 F1050.000 E34.31752
G1 X103.494 Y111.155 F4200.000
G1 X104.196 Y111.856 F1050.000 E34.34741
G1 X103.495 Y114.076 F4200.000
G1 X104.657 Y115.238 F1050.000 E34.39690
G1 X105.430 Y116.011 F4200.000
G1 X105.874 Y116.455 F1050.000 E34.41582
G1 X106.160 Y116.011 F4200.000
G1 X106.605 Y116.456 F1050.000 E34.43475
G1 X106.890 Y116.011 F4200.000
G1 X107.335 Y116.456 F1050.000 E34.45368
G1 X107.621 Y116.011 F4200.000
G1 X108.065 Y116.455 F1050.000 E34.47260
G1 X108.351 Y116.011 F4200.000
G1 X108.796 Y116.456 F1050.000 E34.49154
G1 X109.526 Y116.455 F4200.000
G1 X108.793 Y115.722 F1050.000 E34.52276
G1 X109.060 Y115.260 F4200.000
G1 X110.256 Y116.456 F1050.000 E34.57371
G1 X110.987 Y116.455 F4200.000
G1 X109.327 Y114.796 F1050.000 E34.64438
G1 X109.595 Y114.333 F4200.000
G1 X111.717 Y116.456 F1050.000 E34.73477
G1 X112.448 Y116.455 F4200.000
G1 X109.862 Y113.870 F1050.000 E34.84487
G1 X110.129 Y113.407 F4200.000
G1 X113.178 Y116.456 F1050.000 E34.97471
G1 X113.909 Y116.455 F4200.000
G1 X110.397 Y112.944 F1050.000 E35.12425
G1 X109.651 Y111.468 F4200.000
G1 X114.639 Y116.456 F1050.000 E35.33667
G1 X115.369 Y116.455 F4200.000
G1 X108.653 Y109.739 F1050.000 E35.62268
G1 X108.903 Y109.989 F4200.000
G1 X92.558 Y93.644 F1050.000 E36.31869
G1 X93.288 Y93.645 F4200.000
G1 X116.100 Y116.456 F1050.000 E37.29008
G1 X116.830 Y116.455 F4200.000
G1 X94.019 Y93.644 F1050.000 E38.26145
G1 X94.749 Y93.645 F4200.000
G1 X117.561 Y116.456 F1050.000 E39.23284
G1 X118.291 Y116.455 F4200.000
G1 X95.480 Y93.644 F1050.000 E40.20422
G1 X96.210 Y93.644 F4200.000
G1 X110.287 Y107.721 F1050.000 E40.80365
G1 X109.027 Y105.730 F4200.000
G1 X96.941 Y93.644 F1050.000 E41.31832
G1 X97.671 Y93.644 F4200.000
G1 X108.476 Y104.449 F1050.000 E41.77843
G1 X108.114 Y103.357 F4200.000
G1 X98.402 Y93.644 F1050.000 E42.19202
G1 X99.132 Y93.644 F4200.000
G1 X107.911 Y102.423 F1050.000 E42.56586
G1 X107.775 Y101.557 F4200.000
G1 X99.863 Y93.644 F1050.000 E42.90282
G1 X100.593 Y93.644 F4200.000
G1 X107.719 Y100.770 F1050.000 E43.20627
G1 X107.684 Y100.006 F4200.000
