; generated by Slic3r 0.7.3-dev on 2012-06-05 at 00:00:39

; layer_height = 0.4
; perimeters = 2
; solid_layers = 3
; fill_density = 0.15
; nozzle_diameter = 0.5
; filament_diameter = 3
; extrusion_multiplier = 1.02
; perimeter_speed = 30
; infill_speed = 40
; travel_speed = 70
; extrusion_width_ratio = 0
; scale = 1
; single wall width = 0.53mm

M104 S200 ; set temperature
M106
M104 S230
G28
M140 S60
G1 X205 Y105 F4000
M109 S230
G92 E0
G1 E5 F50
G1 X205 Y90 F2000
G90 ; use absolute coordinates
G21 ; set units to millimeters
G92 E0 ; reset extrusion distance
M82 ; use absolute distances for extrusion
G1 Z0.400 F4200.000
G1 X9.885 Y77.028
G1 F1800.000 E1.00000
G1 X190.615 Y77.048 F900.000 E6.42071
G1 X191.365 Y77.158 E6.44345
G1 X191.865 Y77.288 E6.45894
G1 X192.345 Y77.458 E6.47422
G1 X192.805 Y77.668 E6.48938
G1 X193.035 Y77.788 E6.49716
G1 X193.255 Y77.918 E6.50483
G1 X193.875 Y78.358 E6.52763
G1 X194.255 Y78.698 E6.54293
G1 X194.435 Y78.878 E6.55056
G1 X194.775 Y79.258 E6.56585
G1 X195.215 Y79.878 E6.58866
G1 X195.345 Y80.098 E6.59632
G1 X195.575 Y80.558 E6.61175
G1 X195.765 Y81.028 E6.62695
G1 X195.915 Y81.518 E6.64232
G1 X195.975 Y81.768 E6.65003
G1 X196.085 Y82.518 E6.67277
G1 X196.085 Y117.468 E7.72104
G1 X195.975 Y118.218 E7.74378
G1 X195.845 Y118.718 E7.75927
G1 X195.675 Y119.198 E7.77454
G1 X195.465 Y119.658 E7.78971
G1 X195.345 Y119.888 E7.79749
G1 X195.215 Y120.108 E7.80516
G1 X194.775 Y120.728 E7.82796
G1 X194.435 Y121.108 E7.84325
G1 X194.255 Y121.288 E7.85089
G1 X193.875 Y121.628 E7.86618
G1 X193.255 Y122.068 E7.88898
G1 X193.035 Y122.198 E7.89665
G1 X192.575 Y122.428 E7.91207
G1 X192.105 Y122.618 E7.92728
G1 X191.615 Y122.768 E7.94265
G1 X191.365 Y122.828 E7.95036
G1 X190.615 Y122.938 E7.97310
G1 X190.105 Y122.958 E7.98840
G1 X9.375 Y122.938 E13.40912
G1 X8.625 Y122.828 E13.43185
G1 X8.125 Y122.698 E13.44735
G1 X7.645 Y122.528 E13.46262
G1 X7.185 Y122.318 E13.47779
G1 X6.955 Y122.198 E13.48557
G1 X6.735 Y122.068 E13.49323
G1 X6.115 Y121.628 E13.51604
G1 X5.735 Y121.288 E13.53133
G1 X5.555 Y121.108 E13.53897
G1 X5.215 Y120.728 E13.55426
G1 X4.775 Y120.108 E13.57706
G1 X4.645 Y119.888 E13.58473
G1 X4.415 Y119.428 E13.60015
G1 X4.225 Y118.958 E13.61536
G1 X4.075 Y118.468 E13.63073
G1 X4.015 Y118.218 E13.63844
G1 X3.905 Y117.468 E13.66117
G1 X3.905 Y82.518 E14.70944
G1 X4.015 Y81.768 E14.73218
G1 X4.145 Y81.268 E14.74768
G1 X4.315 Y80.788 E14.76295
G1 X4.525 Y80.328 E14.77812
G1 X4.645 Y80.098 E14.78590
G1 X4.775 Y79.878 E14.79356
G1 X5.215 Y79.258 E14.81636
G1 X5.555 Y78.878 E14.83166
G1 X5.735 Y78.698 E14.83929
G1 X6.115 Y78.358 E14.85459
G1 X6.735 Y77.918 E14.87739
G1 X6.955 Y77.788 E14.88505
G1 X7.415 Y77.558 E14.90048
G1 X7.885 Y77.368 E14.91568
G1 X8.375 Y77.218 E14.93105
G1 X8.625 Y77.158 E14.93877
G1 X9.375 Y77.048 E14.96150
G1 X9.806 Y77.032 E14.97445
G1 F1800.000 E13.97445
G92 E0
G1 X14.449 Y106.144 F4200.000
G1 F1800.000 E1.00000
G1 X14.110 Y105.557 F900.000 E1.02033
G1 X14.110 Y105.557 E1.02033
G1 X12.922 Y103.500 E1.09159
G1 X14.449 Y100.856 E1.18317
G1 X17.503 Y100.856 E1.27476
G1 X19.029 Y103.500 E1.36635
G1 X17.503 Y106.144 E1.45793
G1 X14.528 Y106.144 E1.54716
G1 X14.747 Y105.629 F4200.000
G1 X13.517 Y103.500 F900.000 E1.62090
G1 X14.747 Y101.371 E1.69464
G1 X17.205 Y101.371 E1.76839
G1 X18.435 Y103.500 E1.84213
G1 X17.205 Y105.629 E1.91587
G1 X14.825 Y105.629 E1.98726
G1 F1800.000 E0.98726
G92 E0
G1 X14.449 Y99.144 F4200.000
G1 F1800.000 E1.00000
G1 X14.110 Y98.557 F900.000 E1.02033
G1 X14.110 Y98.557 E1.02033
G1 X12.922 Y96.500 E1.09159
G1 X14.449 Y93.856 E1.18317
G1 X17.503 Y93.856 E1.27476
G1 X19.029 Y96.500 E1.36635
G1 X17.503 Y99.144 E1.45793
G1 X14.528 Y99.144 E1.54716
G1 X14.747 Y98.629 F4200.000
G1 X13.517 Y96.500 F900.000 E1.62090
G1 X14.747 Y94.371 E1.69464
G1 X17.205 Y94.371 E1.76839
G1 X18.435 Y96.500 E1.84213
G1 X17.205 Y98.629 E1.91587
G1 X14.825 Y98.629 E1.98726
G1 F1800.000 E0.98726
G92 E0
G1 X156.822 Y90.000 F4200.000
G1 F1800.000 E1.00000
G1 X158.348 Y87.356 F900.000 E1.09159
G1 X161.402 Y87.356 E1.18317
G1 X162.928 Y90.000 E1.27476
G1 X161.402 Y92.644 E1.36634
G1 X158.348 Y92.644 E1.45793
G1 X156.861 Y90.068 E1.54715
G1 X157.416 Y90.000 F4200.000
G1 X158.646 Y87.871 F900.000 E1.62089
G1 X161.104 Y87.871 E1.69464
G1 X162.334 Y90.000 E1.76838
G1 X161.104 Y92.129 E1.84212
G1 X158.646 Y92.129 E1.91587
G1 X157.456 Y90.068 E1.98725
G1 F1800.000 E0.98725
G92 E0
G1 X158.348 Y107.356 F4200.000
G1 F1800.000 E1.00000
G1 X161.402 Y107.356 F900.000 E1.09159
G1 X162.928 Y110.000 E1.18317
G1 X161.402 Y112.644 E1.27476
G1 X158.348 Y112.644 E1.36635
G1 X156.822 Y110.000 E1.45793
G1 X158.309 Y107.424 E1.54715
G1 X158.646 Y107.871 F4200.000
G1 X161.104 Y107.871 F900.000 E1.62090
G1 X162.334 Y110.000 E1.69464
G1 X161.104 Y112.129 E1.76838
G1 X158.646 Y112.129 E1.84213
G1 X157.416 Y110.000 E1.91587
G1 X158.606 Y107.939 E1.98725
G1 F1800.000 E0.98725
G92 E0
G1 X189.597 Y116.447 F4200.000
G1 F1800.000 E1.00000
G1 X10.403 Y116.447 F900.000 E6.37466
G1 X10.403 Y83.553 E7.36129
G1 X189.597 Y83.553 E12.73595
G1 X189.597 Y116.369 E13.72022
G1 X190.113 Y116.963 F4200.000
G1 X9.887 Y116.963 F900.000 E19.12578
G1 X9.887 Y83.037 E20.14331
G1 X190.113 Y83.037 E25.54888
G1 X190.113 Y116.884 E26.56405
G1 X189.231 Y115.915 F4200.000
G1 X163.299 Y89.983 F1050.000 E27.66619
G1 X163.032 Y90.446 F4200.000
G1 X188.667 Y116.081 F1050.000 E28.75574
G1 X187.938 Y116.081 F4200.000
G1 X162.765 Y90.908 F1050.000 E29.82564
G1 X162.497 Y91.370 F4200.000
G1 X187.208 Y116.081 F1050.000 E30.87588
G1 X186.479 Y116.080 F4200.000
G1 X162.231 Y91.833 F1050.000 E31.90644
G1 X161.964 Y92.295 F4200.000
G1 X185.749 Y116.080 F1050.000 E32.91734
G1 X185.019 Y116.080 F4200.000
G1 X161.697 Y92.758 F1050.000 E33.90859
G1 X161.220 Y93.011 F4200.000
G1 X184.290 Y116.081 F1050.000 E34.88910
G1 X183.561 Y116.081 F4200.000
G1 X160.491 Y93.011 F1050.000 E35.86962
G1 X159.762 Y93.012 F4200.000
G1 X182.831 Y116.081 F1050.000 E36.85011
G1 X182.101 Y116.081 F4200.000
G1 X159.032 Y93.012 F1050.000 E37.83060
G1 X158.303 Y93.011 F4200.000
G1 X181.372 Y116.080 F1050.000 E38.81108
G1 X180.642 Y116.080 F4200.000
G1 X148.481 Y83.919 F1050.000 E40.17800
G1 X149.211 Y83.919 F4200.000
G1 X157.653 Y92.361 F1050.000 E40.53680
G1 X156.656 Y90.636 F4200.000
G1 X149.940 Y83.920 F1050.000 E40.82225
G1 X150.670 Y83.920 F4200.000
G1 X156.567 Y89.817 F1050.000 E41.07289
G1 X156.833 Y89.354 F4200.000
G1 X151.399 Y83.920 F1050.000 E41.30385
G1 X152.128 Y83.919 F4200.000
G1 X157.101 Y88.891 F1050.000 E41.51519
G1 X157.368 Y88.429 F4200.000
G1 X152.858 Y83.919 F1050.000 E41.70687
G1 X153.588 Y83.919 F4200.000
G1 X157.635 Y87.966 F1050.000 E41.87889
G1 X157.903 Y87.504 F4200.000
G1 X154.318 Y83.919 F1050.000 E42.03126
G1 X155.047 Y83.920 F4200.000
G1 X158.168 Y87.042 F1050.000 E42.16395
G1 X158.846 Y86.989 F4200.000
G1 X155.776 Y83.920 F1050.000 E42.29441
G1 X156.505 Y83.919 F4200.000
G1 X159.576 Y86.989 F1050.000 E42.42490
G1 X160.305 Y86.989 F4200.000
G1 X157.235 Y83.919 F1050.000 E42.55536
G1 X157.965 Y83.919 F4200.000
G1 X161.034 Y86.989 F1050.000 E42.68582
G1 X161.666 Y86.890 F4200.000
G1 X189.231 Y114.455 F1050.000 E43.85739
G1 X189.230 Y113.726 F4200.000
G1 X159.424 Y83.920 F1050.000 E45.12422
G1 X158.694 Y83.919 F4200.000
G1 X161.764 Y86.989 F1050.000 E45.25468
G1 X162.662 Y88.616 F4200.000
G1 X189.231 Y115.185 F1050.000 E46.38391
G1 X189.230 Y112.997 F4200.000
G1 X160.153 Y83.920 F1050.000 E47.61973
G1 X160.883 Y83.920 F4200.000
G1 X189.231 Y112.268 F1050.000 E48.82456
G1 X189.231 Y111.538 F4200.000
G1 X161.612 Y83.919 F1050.000 E49.99841
G1 X162.342 Y83.919 F4200.000
G1 X189.231 Y110.808 F1050.000 E51.14125
G1 X189.231 Y110.078 F4200.000
G1 X163.071 Y83.919 F1050.000 E52.25307
G1 X163.801 Y83.920 F4200.000
G1 X189.230 Y109.349 F1050.000 E53.33387
G1 X189.230 Y108.620 F4200.000
G1 X164.530 Y83.920 F1050.000 E54.38366
G1 X165.260 Y83.920 F4200.000
G1 X189.230 Y107.890 F1050.000 E55.40244
G1 X189.231 Y107.161 F4200.000
G1 X165.989 Y83.919 F1050.000 E56.39026
G1 X166.719 Y83.919 F4200.000
G1 X189.231 Y106.431 F1050.000 E57.34706
G1 X189.231 Y105.701 F4200.000
G1 X167.448 Y83.919 F1050.000 E58.27286
G1 X168.178 Y83.919 F4200.000
G1 X189.231 Y104.972 F1050.000 E59.16763
G1 X189.230 Y104.243 F4200.000
G1 X168.907 Y83.920 F1050.000 E60.03139
G1 X169.637 Y83.920 F4200.000
G1 X189.230 Y103.513 F1050.000 E60.86414
G1 X189.231 Y102.784 F4200.000
G1 X170.366 Y83.919 F1050.000 E61.66593
G1 X171.096 Y83.919 F4200.000
G1 X189.231 Y102.054 F1050.000 E62.43670
G1 X189.231 Y101.324 F4200.000
G1 X171.825 Y83.919 F1050.000 E63.17647
G1 X172.555 Y83.919 F4200.000
G1 X189.231 Y100.595 F1050.000 E63.88521
G1 X189.230 Y99.866 F4200.000
G1 X173.284 Y83.920 F1050.000 E64.56294
G1 X174.014 Y83.920 F4200.000
G1 X189.230 Y99.136 F1050.000 E65.20966
G1 X189.231 Y98.407 F4200.000
G1 X174.744 Y83.920 F1050.000 E65.82539
G1 X175.473 Y83.919 F4200.000
G1 X189.231 Y97.677 F1050.000 E66.41014
G1 X189.231 Y96.947 F4200.000
G1 X176.202 Y83.919 F1050.000 E66.96387
G1 X176.932 Y83.919 F4200.000
G1 X189.231 Y96.218 F1050.000 E67.48658
G1 X189.230 Y95.489 F4200.000
G1 X177.661 Y83.920 F1050.000 E67.97829
G1 X178.391 Y83.920 F4200.000
G1 X189.230 Y94.759 F1050.000 E68.43897
G1 X189.230 Y94.029 F4200.000
G1 X179.121 Y83.920 F1050.000 E68.86864
G1 X179.850 Y83.919 F4200.000
G1 X189.231 Y93.300 F1050.000 E69.26736
G1 X189.231 Y92.570 F4200.000
G1 X180.579 Y83.919 F1050.000 E69.63506
G1 X181.309 Y83.919 F4200.000
G1 X189.231 Y91.841 F1050.000 E69.97175
G1 X189.231 Y91.111 F4200.000
G1 X182.039 Y83.919 F1050.000 E70.27742
G1 X182.768 Y83.920 F4200.000
G1 X189.230 Y90.382 F1050.000 E70.55208
G1 X189.230 Y89.652 F4200.000
G1 X183.498 Y83.920 F1050.000 E70.79572
G1 X184.227 Y83.919 F4200.000
G1 X189.231 Y88.923 F1050.000 E71.00841
G1 X189.231 Y88.193 F4200.000
G1 X184.956 Y83.919 F1050.000 E71.19008
G1 X185.686 Y83.919 F4200.000
G1 X189.231 Y87.464 F1050.000 E71.34073
G1 X189.231 Y86.734 F4200.000
G1 X186.416 Y83.919 F1050.000 E71.46038
G1 X187.145 Y83.920 F4200.000
G1 X189.230 Y86.005 F1050.000 E71.54900
G1 X189.230 Y85.275 F4200.000
G1 X187.875 Y83.920 F1050.000 E71.60662
G1 X188.604 Y83.920 F4200.000
G1 X189.231 Y84.546 F1050.000 E71.63324
G1 F1800.000 E70.63324
G92 E0
G1 X179.913 Y116.081 F4200.000
G1 F1800.000 E1.00000
G1 X147.751 Y83.919 F1050.000 E2.36694
G1 X147.022 Y83.919 F4200.000
G1 X179.184 Y116.081 F1050.000 E3.73389
G1 X178.454 Y116.081 F4200.000
G1 X146.293 Y83.920 F1050.000 E5.10080
G1 X145.563 Y83.920 F4200.000
G1 X177.724 Y116.081 F1050.000 E6.46771
G1 X176.995 Y116.080 F4200.000
G1 X144.834 Y83.919 F1050.000 E7.83462
G1 X144.104 Y83.919 F4200.000
G1 X176.265 Y116.080 F1050.000 E9.20153
G1 X175.536 Y116.080 F4200.000
G1 X143.374 Y83.919 F1050.000 E10.56845
G1 X142.645 Y83.919 F4200.000
G1 X174.807 Y116.081 F1050.000 E11.93539
G1 X174.077 Y116.081 F4200.000
G1 X141.916 Y83.920 F1050.000 E13.30230
G1 X141.186 Y83.920 F4200.000
G1 X173.347 Y116.081 F1050.000 E14.66921
G1 X172.618 Y116.080 F4200.000
G1 X140.457 Y83.919 F1050.000 E16.03613
G1 X139.727 Y83.919 F4200.000
G1 X171.888 Y116.080 F1050.000 E17.40304
G1 X171.159 Y116.080 F4200.000
G1 X138.997 Y83.919 F1050.000 E18.76995
G1 X138.268 Y83.919 F4200.000
G1 X161.338 Y106.989 F1050.000 E19.75047
G1 X160.608 Y106.989 F4200.000
G1 X137.539 Y83.920 F1050.000 E20.73096
G1 X136.809 Y83.920 F4200.000
G1 X159.878 Y106.989 F1050.000 E21.71145
G1 X159.148 Y106.989 F4200.000
G1 X136.079 Y83.920 F1050.000 E22.69193
G1 X135.350 Y83.919 F4200.000
G1 X158.419 Y106.988 F1050.000 E23.67242
G1 X158.013 Y107.312 F4200.000
G1 X134.620 Y83.919 F1050.000 E24.66664
G1 X133.891 Y83.919 F4200.000
G1 X157.746 Y107.774 F1050.000 E25.68052
G1 X157.479 Y108.237 F4200.000
G1 X133.161 Y83.919 F1050.000 E26.71408
G1 X132.432 Y83.920 F4200.000
G1 X157.212 Y108.700 F1050.000 E27.76727
G1 X156.944 Y109.162 F4200.000
G1 X131.702 Y83.920 F1050.000 E28.84011
G1 X130.973 Y83.919 F4200.000
G1 X156.678 Y109.624 F1050.000 E29.93260
G1 X156.411 Y110.087 F4200.000
G1 X130.243 Y83.919 F1050.000 E31.04479
G1 X129.514 Y83.919 F4200.000
G1 X157.239 Y111.644 F1050.000 E32.22314
G1 X158.605 Y113.011 F4200.000
G1 X161.675 Y116.080 F1050.000 E32.35361
G1 X160.946 Y116.081 F4200.000
G1 X128.784 Y83.919 F1050.000 E33.72055
G1 X128.055 Y83.920 F4200.000
G1 X160.216 Y116.081 F1050.000 E35.08746
G1 X159.486 Y116.081 F4200.000
G1 X127.325 Y83.920 F1050.000 E36.45437
G1 X126.596 Y83.919 F4200.000
G1 X158.757 Y116.080 F1050.000 E37.82129
G1 X158.028 Y116.080 F4200.000
G1 X125.866 Y83.919 F1050.000 E39.18820
G1 X125.137 Y83.919 F4200.000
G1 X157.298 Y116.080 F1050.000 E40.55511
G1 X156.569 Y116.081 F4200.000
G1 X124.407 Y83.919 F1050.000 E41.92205
G1 X123.678 Y83.920 F4200.000
G1 X155.839 Y116.081 F1050.000 E43.28897
G1 X155.109 Y116.081 F4200.000
G1 X122.948 Y83.920 F1050.000 E44.65588
G1 X122.218 Y83.920 F4200.000
G1 X154.380 Y116.081 F1050.000 E46.02279
G1 X153.651 Y116.080 F4200.000
G1 X121.489 Y83.919 F1050.000 E47.38970
G1 X120.760 Y83.919 F4200.000
G1 X152.921 Y116.080 F1050.000 E48.75661
G1 X152.191 Y116.080 F4200.000
G1 X120.030 Y83.919 F1050.000 E50.12353
G1 X119.300 Y83.919 F4200.000
G1 X151.462 Y116.081 F1050.000 E51.49047
G1 X150.732 Y116.081 F4200.000
G1 X118.571 Y83.920 F1050.000 E52.85738
G1 X117.841 Y83.920 F4200.000
G1 X150.003 Y116.081 F1050.000 E54.22429
G1 X149.274 Y116.080 F4200.000
G1 X117.112 Y83.919 F1050.000 E55.59121
G1 X116.383 Y83.919 F4200.000
G1 X148.544 Y116.080 F1050.000 E56.95812
G1 X147.814 Y116.080 F4200.000
G1 X115.653 Y83.919 F1050.000 E58.32503
G1 X114.923 Y83.919 F4200.000
G1 X147.085 Y116.081 F1050.000 E59.69197
G1 X146.355 Y116.081 F4200.000
G1 X114.194 Y83.920 F1050.000 E61.05889
G1 X113.464 Y83.920 F4200.000
G1 X145.626 Y116.081 F1050.000 E62.42580
G1 X144.897 Y116.080 F4200.000
G1 X112.735 Y83.919 F1050.000 E63.79271
G1 X112.006 Y83.919 F4200.000
G1 X144.167 Y116.080 F1050.000 E65.15962
G1 X143.437 Y116.080 F4200.000
G1 X111.276 Y83.919 F1050.000 E66.52654
G1 X110.546 Y83.919 F4200.000
G1 X142.708 Y116.081 F1050.000 E67.89348
G1 X141.978 Y116.081 F4200.000
G1 X109.817 Y83.920 F1050.000 E69.26039
G1 X109.087 Y83.920 F4200.000
G1 X141.249 Y116.081 F1050.000 E70.62730
G1 X140.519 Y116.081 F4200.000
G1 X108.358 Y83.920 F1050.000 E71.99422
G1 X107.629 Y83.919 F4200.000
G1 X139.790 Y116.080 F1050.000 E73.36113
G1 X139.060 Y116.080 F4200.000
G1 X106.899 Y83.919 F1050.000 E74.72804
G1 X106.169 Y83.919 F4200.000
G1 X138.331 Y116.080 F1050.000 E76.09495
G1 X137.601 Y116.081 F4200.000
G1 X105.439 Y83.919 F1050.000 E77.46190
G1 X104.710 Y83.920 F4200.000
G1 X136.872 Y116.081 F1050.000 E78.82881
G1 X136.142 Y116.081 F4200.000
G1 X103.981 Y83.920 F1050.000 E80.19572
G1 X103.252 Y83.919 F4200.000
G1 X135.413 Y116.080 F1050.000 E81.56263
G1 X134.683 Y116.080 F4200.000
G1 X102.522 Y83.919 F1050.000 E82.92955
G1 X101.792 Y83.919 F4200.000
G1 X133.954 Y116.080 F1050.000 E84.29646
G1 X133.225 Y116.081 F4200.000
G1 X101.062 Y83.919 F1050.000 E85.66340
G1 X100.333 Y83.920 F4200.000
G1 X132.495 Y116.081 F1050.000 E87.03031
G1 X131.765 Y116.081 F4200.000
G1 X99.604 Y83.920 F1050.000 E88.39723
G1 X98.875 Y83.919 F4200.000
G1 X131.036 Y116.080 F1050.000 E89.76414
G1 X130.306 Y116.080 F4200.000
G1 X98.145 Y83.919 F1050.000 E91.13105
G1 X97.415 Y83.919 F4200.000
G1 X129.577 Y116.080 F1050.000 E92.49796
G1 X128.848 Y116.081 F4200.000
G1 X96.685 Y83.919 F1050.000 E93.86491
G1 X95.956 Y83.920 F4200.000
G1 X128.118 Y116.081 F1050.000 E95.23182
G1 X127.388 Y116.081 F4200.000
G1 X95.227 Y83.920 F1050.000 E96.59873
G1 X94.497 Y83.920 F4200.000
G1 X126.658 Y116.081 F1050.000 E97.96564
G1 X125.929 Y116.080 F4200.000
G1 X93.768 Y83.919 F1050.000 E99.33256
G1 X93.038 Y83.919 F4200.000
G1 X125.200 Y116.080 F1050.000 E100.69947
G1 X124.470 Y116.080 F4200.000
G1 X92.308 Y83.919 F1050.000 E102.06638
G1 X91.579 Y83.919 F4200.000
G1 X123.741 Y116.081 F1050.000 E103.43332
G1 X123.011 Y116.081 F4200.000
G1 X90.850 Y83.920 F1050.000 E104.80024
G1 X90.120 Y83.920 F4200.000
G1 X122.281 Y116.081 F1050.000 E106.16715
G1 X121.552 Y116.080 F4200.000
