; generated by Slic3r 0.7.3-dev on 2012-06-04 at 23:54:21

; layer_height = 0.4
; perimeters = 2
; solid_layers = 3
; fill_density = 0.15
; nozzle_diameter = 0.5
; filament_diameter = 3
; extrusion_multiplier = 1.02
; perimeter_speed = 30
; infill_speed = 40
; travel_speed = 70
; extrusion_width_ratio = 0
; scale = 1
; single wall width = 0.53mm

M104 S200 ; set temperature
M106
M104 S230
G28
M140 S60
G1 X205 Y105 F4000
M109 S230
G92 E0
G1 E5 F50
G1 X205 Y90 F2000
G90 ; use absolute coordinates
G21 ; set units to millimeters
G92 E0 ; reset extrusion distance
M82 ; use absolute distances for extrusion
G1 Z0.400 F4200.000
G1 X78.330 Y78.510
G1 F1800.000 E1.00000
G1 X78.510 Y78.330 F900.000 E1.00764
G1 X78.890 Y77.990 E1.02293
G1 X79.510 Y77.550 E1.04573
G1 X79.730 Y77.420 E1.05340
G1 X80.190 Y77.190 E1.06882
G1 X80.660 Y77.000 E1.08403
G1 X81.150 Y76.850 E1.09940
G1 X81.400 Y76.790 E1.10711
G1 X82.150 Y76.680 E1.12984
G1 X82.660 Y76.660 E1.14515
G1 X117.840 Y76.680 E2.20032
G1 X118.590 Y76.790 E2.22306
G1 X119.090 Y76.920 E2.23855
G1 X119.570 Y77.090 E2.25383
G1 X120.030 Y77.300 E2.26899
G1 X120.260 Y77.420 E2.27677
G1 X120.480 Y77.550 E2.28444
G1 X121.100 Y77.990 E2.30724
G1 X121.480 Y78.330 E2.32253
G1 X121.660 Y78.510 E2.33017
G1 X122.000 Y78.890 E2.34546
G1 X122.440 Y79.510 E2.36827
G1 X122.570 Y79.730 E2.37593
G1 X122.800 Y80.190 E2.39136
G1 X122.990 Y80.660 E2.40656
G1 X123.140 Y81.150 E2.42193
G1 X123.200 Y81.400 E2.42964
G1 X123.310 Y82.150 E2.45238
G1 X123.310 Y117.840 E3.52284
G1 X123.200 Y118.590 E3.54558
G1 X123.070 Y119.090 E3.56107
G1 X122.900 Y119.570 E3.57635
G1 X122.690 Y120.030 E3.59151
G1 X122.570 Y120.260 E3.59930
G1 X122.440 Y120.480 E3.60696
G1 X122.000 Y121.100 E3.62976
G1 X121.660 Y121.480 E3.64506
G1 X121.480 Y121.660 E3.65269
G1 X121.100 Y122.000 E3.66799
G1 X120.480 Y122.440 E3.69079
G1 X120.260 Y122.570 E3.69845
G1 X119.800 Y122.800 E3.71388
G1 X119.330 Y122.990 E3.72908
G1 X118.840 Y123.140 E3.74445
G1 X118.590 Y123.200 E3.75216
G1 X117.840 Y123.310 E3.77490
G1 X117.330 Y123.330 E3.79021
G1 X82.150 Y123.310 E4.84538
G1 X81.400 Y123.200 E4.86811
G1 X80.900 Y123.070 E4.88361
G1 X80.420 Y122.900 E4.89888
G1 X79.960 Y122.690 E4.91405
G1 X79.730 Y122.570 E4.92183
G1 X79.510 Y122.440 E4.92949
G1 X78.890 Y122.000 E4.95230
G1 X78.510 Y121.660 E4.96759
G1 X78.330 Y121.480 E4.97523
G1 X77.990 Y121.100 E4.99052
G1 X77.550 Y120.480 E5.01332
G1 X77.420 Y120.260 E5.02099
G1 X77.190 Y119.800 E5.03641
G1 X77.000 Y119.330 E5.05162
G1 X76.850 Y118.840 E5.06699
G1 X76.790 Y118.590 E5.07470
G1 X76.680 Y117.840 E5.09743
G1 X76.680 Y82.150 E6.16790
G1 X76.790 Y81.400 E6.19064
G1 X76.920 Y80.900 E6.20613
G1 X77.090 Y80.420 E6.22140
G1 X77.300 Y79.960 E6.23657
G1 X77.420 Y79.730 E6.24435
G1 X77.550 Y79.510 E6.25202
G1 X77.990 Y78.890 E6.27482
G1 X78.277 Y78.569 E6.28775
G1 F1800.000 E5.28775
G92 E0
G1 X89.448 Y106.198 F4200.000
G1 F1800.000 E1.00000
G1 X95.552 Y106.198 F900.000 E1.18307
G1 X95.552 Y113.802 E1.41113
G1 X89.591 Y113.802 E1.58993
G1 X88.527 Y115.644 E1.65375
G1 X85.473 Y115.644 E1.74533
G1 X83.946 Y113.000 E1.83692
G1 X85.473 Y110.356 E1.92851
G1 X88.527 Y110.356 E2.02009
G1 X89.448 Y111.951 E2.07536
G1 X89.448 Y106.277 E2.24556
G1 F1800.000 E1.24556
G92 E0
G1 X88.229 Y110.871 F4200.000
G1 F1800.000 E1.00000
G1 X89.459 Y113.000 F900.000 E1.07375
G1 X88.229 Y115.129 E1.14749
G1 X85.771 Y115.129 E1.22123
G1 X84.541 Y113.000 E1.29498
G1 X85.771 Y110.871 E1.36872
G1 X88.151 Y110.871 E1.44010
G1 F1800.000 E0.44010
G92 E0
G1 X89.963 Y113.287 F4200.000
G1 F1800.000 E1.00000
G1 X89.963 Y106.713 F900.000 E1.19716
G1 X95.037 Y106.713 E1.34932
G1 X95.037 Y113.287 E1.54648
G1 X90.042 Y113.287 E1.69629
G1 F1800.000 E0.69629
G92 E0
G1 X104.448 Y93.802 F4200.000
G1 F1800.000 E1.00000
G1 X104.448 Y86.198 F900.000 E1.22806
G1 X110.409 Y86.198 E1.40686
G1 X111.473 Y84.356 E1.47068
G1 X114.527 Y84.356 E1.56226
G1 X116.054 Y87.000 E1.65385
G1 X114.527 Y89.644 E1.74544
G1 X111.473 Y89.644 E1.83702
G1 X111.162 Y89.106 E1.85567
G1 X111.162 Y89.106 E1.85567
G1 X110.552 Y88.049 E1.89229
G1 X110.552 Y93.802 E2.06485
G1 X104.527 Y93.802 E2.24556
G1 F1800.000 E1.24556
G92 E0
G1 X111.771 Y89.129 F4200.000
G1 F1800.000 E1.00000
G1 X110.541 Y87.000 F900.000 E1.07375
G1 X111.771 Y84.871 E1.14749
G1 X114.229 Y84.871 E1.22123
G1 X115.459 Y87.000 E1.29498
G1 X114.229 Y89.129 E1.36872
G1 X111.849 Y89.129 E1.44010
G1 F1800.000 E0.44010
G92 E0
G1 X110.037 Y86.713 F4200.000
G1 F1800.000 E1.00000
G1 X110.037 Y93.287 F900.000 E1.19716
G1 X104.963 Y93.287 E1.34932
G1 X104.963 Y86.713 E1.54648
G1 X109.958 Y86.713 E1.69629
G1 F1800.000 E0.69629
G92 E0
G1 X95.552 Y86.198 F4200.000
G1 F1800.000 E1.00000
G1 X95.552 Y93.802 F900.000 E1.22806
G1 X89.448 Y93.802 E1.41113
G1 X89.448 Y88.049 E1.58369
G1 X88.527 Y89.644 E1.63896
G1 X85.473 Y89.644 E1.73054
G1 X85.162 Y89.106 E1.74920
G1 X85.162 Y89.106 E1.74920
G1 X83.946 Y87.000 E1.82213
G1 X85.473 Y84.356 E1.91372
G1 X88.527 Y84.356 E2.00530
G1 X89.591 Y86.198 E2.06912
G1 X95.473 Y86.198 E2.24556
G1 F1800.000 E1.24556
G92 E0
G1 X89.459 Y87.000 F4200.000
G1 F1800.000 E1.00000
G1 X88.229 Y89.129 F900.000 E1.07375
G1 X85.771 Y89.129 E1.14749
G1 X84.541 Y87.000 E1.22123
G1 X85.771 Y84.871 E1.29498
G1 X88.229 Y84.871 E1.36872
G1 X89.419 Y86.932 E1.44010
G1 X89.963 Y86.713 F4200.000
G1 X95.037 Y86.713 F900.000 E1.59227
G1 X95.037 Y93.287 E1.78943
G1 X89.963 Y93.287 E1.94159
G1 X89.963 Y86.792 E2.13639
G1 F1800.000 E1.13639
G92 E0
G1 X96.898 Y97.746 F4200.000
G1 F1800.000 E1.00000
G1 X98.815 Y96.353 F900.000 E1.07109
G1 X101.185 Y96.353 E1.14217
G1 X103.102 Y97.746 E1.21326
G1 X103.835 Y100.000 E1.28434
G1 X103.102 Y102.254 E1.35543
G1 X101.185 Y103.647 E1.42651
G1 X98.815 Y103.647 E1.49760
G1 X96.898 Y102.254 E1.56869
G1 X96.165 Y100.000 E1.63977
G1 X96.873 Y97.821 E1.70850
G1 X97.336 Y98.064 F4200.000
G1 X98.982 Y96.868 F900.000 E1.76954
G1 X101.018 Y96.868 E1.83058
G1 X102.664 Y98.064 E1.89163
G1 X103.293 Y100.000 E1.95267
G1 X102.664 Y101.936 E2.01372
G1 X101.018 Y103.132 E2.07476
G1 X98.982 Y103.132 E2.13581
G1 X97.336 Y101.936 E2.19685
G1 X96.707 Y100.000 E2.25789
G1 X97.311 Y98.139 E2.31658
G1 F1800.000 E1.31658
G92 E0
G1 X104.448 Y106.198 F4200.000
G1 F1800.000 E1.00000
G1 X110.552 Y106.198 F900.000 E1.18307
G1 X110.552 Y111.951 E1.35563
G1 X111.473 Y110.356 E1.41090
G1 X114.527 Y110.356 E1.50248
G1 X116.054 Y113.000 E1.59407
G1 X114.527 Y115.644 E1.68566
G1 X111.473 Y115.644 E1.77724
G1 X110.409 Y113.802 E1.84106
G1 X104.448 Y113.802 E2.01986
G1 X104.448 Y106.277 E2.24556
G1 X104.963 Y106.713 F4200.000
G1 X110.037 Y106.713 F900.000 E2.39772
G1 X110.037 Y113.287 E2.59488
G1 X104.963 Y113.287 E2.74705
G1 X104.963 Y106.792 E2.94184
G1 F1800.000 E1.94184
G92 E0
G1 X111.771 Y110.871 F4200.000
G1 F1800.000 E1.00000
G1 X114.229 Y110.871 F900.000 E1.07374
G1 X115.459 Y113.000 E1.14749
G1 X114.229 Y115.129 E1.22123
G1 X111.771 Y115.129 E1.29497
G1 X110.541 Y113.000 E1.36872
G1 X111.731 Y110.939 E1.44010
G1 F1800.000 E0.44010
G92 E0
G1 X116.822 Y116.822 F4200.000
G1 F1800.000 E1.00000
G1 X83.178 Y116.822 F900.000 E2.00912
G1 X83.178 Y83.178 E3.01824
G1 X116.822 Y83.178 E4.02735
G1 X116.822 Y116.744 E5.03411
G1 X117.338 Y117.338 F4200.000
G1 X82.663 Y117.338 F900.000 E6.07413
G1 X82.663 Y82.663 E7.11415
G1 X117.338 Y82.663 E8.15418
G1 X117.338 Y117.259 E9.19184
G1 X116.456 Y114.988 F4200.000
G1 X115.702 Y114.234 F1050.000 E9.22417
G1 X115.433 Y114.699 F4200.000
G1 X116.456 Y115.722 F1050.000 E9.26802
G1 X116.456 Y116.456 E9.29026
G1 X115.165 Y115.165 E9.34562
G1 X114.896 Y115.630 F4200.000
G1 X115.722 Y116.456 F1050.000 E9.38104
G1 X114.988 Y116.456 E9.40328
G1 X114.544 Y116.011 E9.42234
G1 X114.255 Y116.456 E9.43842
G1 X113.810 Y116.011 E9.45747
G1 X113.521 Y116.456 E9.47355
G1 X113.076 Y116.011 E9.49261
G1 X112.787 Y116.456 E9.50869
G1 X112.343 Y116.011 E9.52775
G1 X112.054 Y116.456 E9.54383
G1 X111.609 Y116.011 E9.56288
G1 X111.320 Y116.456 E9.57896
G1 X109.033 Y114.169 E9.67702
G1 X108.299 Y114.169 E9.69927
G1 X110.586 Y116.456 E9.79734
G1 X109.853 Y116.456 E9.81958
G1 X107.566 Y114.168 E9.91764
G1 X106.832 Y114.169 E9.93989
G1 X109.119 Y116.456 E10.03795
G1 X108.385 Y116.456 E10.06019
G1 X106.098 Y114.169 E10.15826
G1 X105.365 Y114.168 E10.18050
G1 X107.652 Y116.456 E10.27857
G1 X106.918 Y116.456 E10.30081
G1 X104.631 Y114.169 E10.39887
G1 X104.081 Y114.353 F4200.000
G1 X95.918 Y106.190 F1050.000 E10.74888
G1 X95.560 Y105.831 F4200.000
G1 X83.544 Y93.815 F1050.000 E11.26409
G1 X83.544 Y94.549 F4200.000
G1 X94.827 Y105.831 F1050.000 E11.74784
G1 X94.093 Y105.831 F4200.000
G1 X83.544 Y95.283 F1050.000 E12.20014
G1 X83.544 Y96.016 F4200.000
G1 X93.359 Y105.831 F1050.000 E12.62098
G1 X92.626 Y105.831 F4200.000
G1 X83.544 Y96.750 F1050.000 E13.01036
G1 X83.544 Y97.484 F4200.000
G1 X91.892 Y105.831 F1050.000 E13.36829
G1 X91.158 Y105.831 F4200.000
G1 X83.544 Y98.217 F1050.000 E13.69476
G1 X83.544 Y98.951 F4200.000
G1 X90.425 Y105.831 F1050.000 E13.98977
G1 X89.691 Y105.831 F4200.000
G1 X83.544 Y99.685 F1050.000 E14.25333
G1 X83.544 Y100.418 F4200.000
G1 X89.081 Y105.955 F1050.000 E14.49075
G1 X89.081 Y106.689 F4200.000
G1 X83.544 Y101.152 F1050.000 E14.72816
G1 X83.544 Y101.886 F4200.000
G1 X89.082 Y107.423 F1050.000 E14.96558
G1 X89.081 Y108.156 F4200.000
G1 X83.544 Y102.619 F1050.000 E15.20299
G1 X83.544 Y103.353 F4200.000
G1 X89.081 Y108.890 F1050.000 E15.44041
G1 X89.081 Y109.624 F4200.000
G1 X83.544 Y104.087 F1050.000 E15.67783
G1 X83.544 Y104.820 F4200.000
G1 X88.713 Y109.989 F1050.000 E15.89944
G1 X87.979 Y109.989 F4200.000
G1 X83.544 Y105.554 F1050.000 E16.08960
G1 X83.544 Y106.288 F4200.000
G1 X87.246 Y109.989 F1050.000 E16.24831
G1 X86.512 Y109.989 F4200.000
G1 X83.544 Y107.021 F1050.000 E16.37555
G1 X83.544 Y107.755 F4200.000
G1 X85.778 Y109.989 F1050.000 E16.47134
G1 X85.222 Y110.166 F4200.000
G1 X83.544 Y108.489 F1050.000 E16.54328
G1 X83.544 Y109.222 F4200.000
G1 X84.954 Y110.631 F1050.000 E16.60370
G1 X84.685 Y111.096 F4200.000
G1 X83.544 Y109.956 F1050.000 E16.65260
G1 X83.544 Y110.689 F4200.000
G1 X84.416 Y111.561 F1050.000 E16.68999
G1 X84.148 Y112.027 F4200.000
G1 X83.544 Y111.423 F1050.000 E16.71586
G1 X83.544 Y114.358 F4200.000
G1 X85.092 Y115.905 F1050.000 E16.78220
G1 X84.175 Y116.456 F4200.000
G1 X83.544 Y115.825 F1050.000 E16.80924
G1 X83.544 Y115.091 E16.83148
G1 X84.909 Y116.456 E16.88998
G1 X85.198 Y116.011 E16.90606
G1 X85.642 Y116.456 E16.92512
G1 X85.931 Y116.011 E16.94119
G1 X86.376 Y116.456 E16.96025
G1 X86.665 Y116.011 E16.97633
G1 X87.110 Y116.456 E16.99539
G1 X87.399 Y116.011 E17.01147
G1 X87.843 Y116.456 E17.03053
G1 X88.132 Y116.011 E17.04660
G1 X88.577 Y116.456 E17.06566
G1 X88.745 Y115.890 F4200.000
G1 X89.311 Y116.456 F1050.000 E17.08990
G1 X90.044 Y116.456 E17.11214
G1 X89.014 Y115.425 E17.15632
G1 X89.282 Y114.960 F4200.000
G1 X90.778 Y116.456 F1050.000 E17.22044
G1 X91.512 Y116.456 E17.24268
G1 X89.551 Y114.495 E17.32674
G1 X89.958 Y114.169 F4200.000
G1 X92.245 Y116.456 F1050.000 E17.42480
G1 X92.979 Y116.456 E17.44705
G1 X90.692 Y114.168 E17.54511
G1 X91.425 Y114.169 E17.56736
G1 X93.712 Y116.456 E17.66542
G1 X94.446 Y116.456 E17.68766
G1 X92.159 Y114.169 E17.78573
G1 X92.893 Y114.168 E17.80797
G1 X95.180 Y116.456 E17.90604
G1 X95.913 Y116.456 E17.92828
G1 X93.626 Y114.169 E18.02634
G1 X94.360 Y114.169 E18.04859
G1 X96.647 Y116.456 E18.14665
G1 X97.381 Y116.456 E18.16890
G1 X95.094 Y114.168 E18.26696
G1 X95.827 Y114.168 E18.28921
G1 X98.114 Y116.456 E18.38727
G1 X98.848 Y116.456 E18.40952
G1 X95.918 Y113.526 E18.53513
G1 X95.919 Y112.793 E18.55737
G1 X99.582 Y116.456 E18.71443
G1 X100.315 Y116.456 E18.73668
G1 X95.919 Y112.059 E18.92520
G1 X95.918 Y111.325 E18.94744
G1 X101.049 Y116.456 E19.16742
G1 X101.783 Y116.456 E19.18966
G1 X95.919 Y110.592 E19.44110
G1 X95.919 Y109.858 E19.46334
G1 X102.516 Y116.456 E19.74623
G1 X103.250 Y116.456 E19.76847
G1 X95.918 Y109.124 E20.08282
G1 X95.919 Y108.391 E20.10507
G1 X103.984 Y116.456 E20.45087
G1 X104.717 Y116.456 E20.47311
G1 X95.919 Y107.657 E20.85038
G1 X95.919 Y106.923 E20.87262
G1 X105.451 Y116.456 E21.28134
G1 X106.185 Y116.456 E21.30358
G1 X103.897 Y114.169 E21.40165
G1 X104.081 Y113.619 F4200.000
G1 X83.544 Y93.082 F1050.000 E22.28222
G1 X83.544 Y92.348 F4200.000
G1 X104.082 Y112.885 F1050.000 E23.16279
G1 X104.081 Y112.152 F4200.000
G1 X83.544 Y91.615 F1050.000 E24.04336
G1 X83.544 Y90.881 F4200.000
G1 X104.081 Y111.418 F1050.000 E24.92394
G1 X104.081 Y110.684 F4200.000
G1 X83.544 Y90.147 F1050.000 E25.80451
G1 X83.544 Y89.414 F4200.000
G1 X96.490 Y102.360 F1050.000 E26.35960
G1 X96.137 Y101.273 E26.39425
G1 X89.033 Y94.169 E26.69886
G1 X89.081 Y94.217 F4200.000
G1 X83.544 Y88.680 F1050.000 E26.93628
G1 X83.594 Y87.995 E26.95708
G1 X84.529 Y88.931 E26.99720
G1 X85.609 Y90.011 F4200.000
G1 X89.081 Y93.483 F1050.000 E27.14608
G1 X89.082 Y92.750 E27.16833
G1 X86.343 Y90.011 E27.28575
G1 X87.076 Y90.011 E27.30799
G1 X89.081 Y92.016 E27.39396
G1 X89.081 Y91.282 E27.41620
G1 X87.810 Y90.011 E27.47071
G1 X88.544 Y90.011 E27.49296
G1 X89.082 Y90.549 E27.51601
G1 X89.767 Y94.169 F4200.000
G1 X95.784 Y100.186 F1050.000 E27.77403
G1 X95.946 Y99.614 F4200.000
G1 X90.500 Y94.168 F1050.000 E28.00752
G1 X91.234 Y94.169 E28.02976
G1 X96.126 Y99.060 E28.23950
G1 X96.306 Y98.506 E28.25715
G1 X91.968 Y94.169 E28.44315
G1 X92.701 Y94.169 E28.46540
G1 X96.486 Y97.953 E28.62765
G1 X96.744 Y97.477 F4200.000
G1 X93.435 Y94.169 F1050.000 E28.76953
G1 X94.169 Y94.169 E28.79177
G1 X97.169 Y97.169 E28.92041
G1 X97.594 Y96.860 F4200.000
G1 X94.902 Y94.169 F1050.000 E29.03580
G1 X95.636 Y94.169 E29.05804
G1 X98.018 Y96.551 E29.16020
G1 X98.443 Y96.242 F4200.000
G1 X95.919 Y93.718 F1050.000 E29.26846
G1 X95.919 Y92.984 E29.29071
G1 X98.921 Y95.986 E29.41944
G1 X99.654 Y95.986 E29.44168
G1 X95.918 Y92.250 E29.60186
G1 X95.918 Y91.517 E29.62411
G1 X100.388 Y95.986 E29.81575
G1 X101.122 Y95.986 E29.83800
G1 X95.919 Y90.783 E30.06110
G1 X95.919 Y90.049 E30.08334
G1 X102.797 Y96.928 E30.37829
G1 X103.510 Y97.640 F4200.000
G1 X116.456 Y110.586 F1050.000 E30.93338
G1 X116.456 Y109.853 E30.95562
G1 X95.918 Y89.316 E31.83619
G1 X95.919 Y88.582 E31.85844
G1 X116.456 Y109.119 E32.73901
G1 X116.456 Y108.385 E32.76125
G1 X95.919 Y87.848 E33.64182
G1 X95.918 Y87.115 E33.66406
G1 X116.456 Y107.652 E34.54464
G1 X116.456 Y106.918 E34.56688
G1 X95.919 Y86.381 E35.44745
G1 X96.103 Y85.831 E35.46502
G1 X93.815 Y83.544 E35.56309
G1 X93.082 Y83.544 F4200.000
G1 X95.369 Y85.831 F1050.000 E35.66115
G1 X95.919 Y85.647 E35.67873
G1 X104.081 Y93.810 E36.02873
G1 X104.440 Y94.169 F4200.000
G1 X116.456 Y106.185 F1050.000 E36.54394
G1 X116.456 Y105.451 E36.56618
G1 X105.173 Y94.169 E37.04994
G1 X105.907 Y94.169 E37.07218
G1 X116.456 Y104.717 E37.52448
G1 X116.456 Y103.984 E37.54672
G1 X106.641 Y94.169 E37.96756
G1 X107.374 Y94.168 E37.98981
G1 X116.456 Y103.250 E38.37919
G1 X116.456 Y102.516 E38.40143
G1 X108.108 Y94.169 E38.75936
G1 X108.842 Y94.169 E38.78161
G1 X116.456 Y101.783 E39.10807
G1 X116.456 Y101.049 E39.13032
G1 X109.575 Y94.169 E39.42533
G1 X110.309 Y94.169 E39.44757
G1 X116.456 Y100.315 E39.71113
G1 X116.456 Y99.582 E39.73337
G1 X110.919 Y94.045 E39.97079
G1 X110.919 Y93.311 E39.99303
G1 X116.456 Y98.848 E40.23045
G1 X116.456 Y98.114 E40.25269
G1 X110.918 Y92.577 E40.49011
G1 X110.919 Y91.844 E40.51235
G1 X116.456 Y97.381 E40.74976
G1 X116.456 Y96.647 E40.77200
G1 X110.919 Y91.110 E41.00942
G1 X110.919 Y90.376 E41.03166
G1 X116.456 Y95.913 E41.26908
G1 X116.456 Y95.180 E41.29132
G1 X111.287 Y90.011 E41.51294
G1 X112.021 Y90.011 E41.53518
G1 X116.456 Y94.446 E41.72534
G1 X116.456 Y93.712 E41.74758
G1 X112.754 Y90.011 E41.90628
G1 X113.488 Y90.011 E41.92853
G1 X116.456 Y92.979 E42.05577
G1 X116.456 Y92.245 E42.07802
G1 X114.222 Y90.011 E42.17381
G1 X114.778 Y89.834 F4200.000
G1 X116.456 Y91.512 F1050.000 E42.24574
G1 X116.456 Y90.778 E42.26798
G1 X115.046 Y89.369 E42.32840
G1 X115.315 Y88.904 F4200.000
G1 X116.456 Y90.044 F1050.000 E42.37730
G1 X116.456 Y89.311 E42.39955
G1 X115.584 Y88.439 E42.43694
G1 X115.852 Y87.973 F4200.000
